(Generated with: DXF2GCODE, Version: PyQt4 Beta, Date: $Date:: 2014-02-11 12:27:10#$)
(Created from file: Z:/home/hephaestus/Documents/gallery/FullSizedChair_sheet2.dxf)
(Time: Fri May 23 13:30:06 2014)
G21 (Units in millimeters) G90 (Absolute programming) G64 (Default cutting) G17 (XY plane) G40 (Cancel radius comp.) G49 (Cancel length comp.)
G0 Z  15.000 

(*** LAYER: 0 ***)
T2 M6
S6000

(* SHAPE Nr: 0 *)
G0 X 131.306 Y -55.220
M3 M8
G41
F400
G1 X 131.652 Y -53.849
G3 X 128.910 Y -53.157 I  -1.717 J  -1.025
G0 Z   3.000 
F150
G1 Z  -5.000
F400
G1 X 123.134 Y -56.605
F150
G1 Z -10.000
F400
G42
G1 X 128.910 Y -53.157
F150
G1 Z -15.000
F400
G41
G1 X 123.134 Y -56.605
F150
G1 Z -18.000
F400
G42
G1 X 128.910 Y -53.157
F150
G1 Z   3.000
G0 Z  15.000 
G40
M9 M5

(* SHAPE Nr: 2 *)
G0 X 125.628 Y1648.336
M3 M8
G42
F400
G1 X 124.711 Y1649.413
G2 X 126.866 Y1651.246 I   1.994 J  -0.161
G0 Z   3.000 
F150
G1 Z  -5.000
F400
G1 X 127.271 Y1651.213
G1 X 127.656 Y1651.119
G1 X 128.014 Y1650.967
G1 X 128.342 Y1650.764
G1 X 128.633 Y1650.514
G1 X 128.883 Y1650.223
G1 X 129.087 Y1649.895
G1 X 129.238 Y1649.536
G1 X 129.333 Y1649.152
G1 X 129.366 Y1648.746
G1 X 129.333 Y1648.341
G1 X 129.238 Y1647.956
G1 X 129.087 Y1647.597
G1 X 128.883 Y1647.270
G1 X 128.633 Y1646.978
G1 X 128.342 Y1646.728
G1 X 128.014 Y1646.525
G1 X 127.656 Y1646.373
G1 X 127.271 Y1646.279
G1 X 126.866 Y1646.246
G1 X 126.460 Y1646.279
G1 X 126.075 Y1646.373
G1 X 125.717 Y1646.525
G1 X 125.389 Y1646.728
G1 X 125.098 Y1646.978
G1 X 124.848 Y1647.270
G1 X 124.645 Y1647.597
G1 X 124.493 Y1647.956
G1 X 124.398 Y1648.341
G1 X 124.366 Y1648.746
G1 X 124.398 Y1649.152
G1 X 124.493 Y1649.536
G1 X 124.645 Y1649.895
G1 X 124.848 Y1650.223
G1 X 125.098 Y1650.514
G1 X 125.389 Y1650.764
G1 X 125.717 Y1650.967
G1 X 126.075 Y1651.119
G1 X 126.460 Y1651.213
F150
G1 Z -10.000
F400
G41
G1 X 126.075 Y1651.119
G1 X 125.717 Y1650.967
G1 X 125.389 Y1650.764
G1 X 125.098 Y1650.514
G1 X 124.848 Y1650.223
G1 X 124.645 Y1649.895
G1 X 124.493 Y1649.536
G1 X 124.398 Y1649.152
G1 X 124.366 Y1648.746
G1 X 124.398 Y1648.341
G1 X 124.493 Y1647.956
G1 X 124.645 Y1647.597
G1 X 124.848 Y1647.270
G1 X 125.098 Y1646.978
G1 X 125.389 Y1646.728
G1 X 125.717 Y1646.525
G1 X 126.075 Y1646.373
G1 X 126.460 Y1646.279
G1 X 126.866 Y1646.246
G1 X 127.271 Y1646.279
G1 X 127.656 Y1646.373
G1 X 128.014 Y1646.525
G1 X 128.342 Y1646.728
G1 X 128.633 Y1646.978
G1 X 128.883 Y1647.270
G1 X 129.087 Y1647.597
G1 X 129.238 Y1647.956
G1 X 129.333 Y1648.341
G1 X 129.366 Y1648.746
G1 X 129.333 Y1649.152
G1 X 129.238 Y1649.536
G1 X 129.087 Y1649.895
G1 X 128.883 Y1650.223
G1 X 128.633 Y1650.514
G1 X 128.342 Y1650.764
G1 X 128.014 Y1650.967
G1 X 127.656 Y1651.119
G1 X 127.271 Y1651.213
G1 X 126.866 Y1651.246
F150
G1 Z -15.000
F400
G42
G1 X 127.271 Y1651.213
G1 X 127.656 Y1651.119
G1 X 128.014 Y1650.967
G1 X 128.342 Y1650.764
G1 X 128.633 Y1650.514
G1 X 128.883 Y1650.223
G1 X 129.087 Y1649.895
G1 X 129.238 Y1649.536
G1 X 129.333 Y1649.152
G1 X 129.366 Y1648.746
G1 X 129.333 Y1648.341
G1 X 129.238 Y1647.956
G1 X 129.087 Y1647.597
G1 X 128.883 Y1647.270
G1 X 128.633 Y1646.978
G1 X 128.342 Y1646.728
G1 X 128.014 Y1646.525
G1 X 127.656 Y1646.373
G1 X 127.271 Y1646.279
G1 X 126.866 Y1646.246
G1 X 126.460 Y1646.279
G1 X 126.075 Y1646.373
G1 X 125.717 Y1646.525
G1 X 125.389 Y1646.728
G1 X 125.098 Y1646.978
G1 X 124.848 Y1647.270
G1 X 124.645 Y1647.597
G1 X 124.493 Y1647.956
G1 X 124.398 Y1648.341
G1 X 124.366 Y1648.746
G1 X 124.398 Y1649.152
G1 X 124.493 Y1649.536
G1 X 124.645 Y1649.895
G1 X 124.848 Y1650.223
G1 X 125.098 Y1650.514
G1 X 125.389 Y1650.764
G1 X 125.717 Y1650.967
G1 X 126.075 Y1651.119
G1 X 126.460 Y1651.213
F150
G1 Z -18.000
F400
G41
G1 X 126.075 Y1651.119
G1 X 125.717 Y1650.967
G1 X 125.389 Y1650.764
G1 X 125.098 Y1650.514
G1 X 124.848 Y1650.223
G1 X 124.645 Y1649.895
G1 X 124.493 Y1649.536
G1 X 124.398 Y1649.152
G1 X 124.366 Y1648.746
G1 X 124.398 Y1648.341
G1 X 124.493 Y1647.956
G1 X 124.645 Y1647.597
G1 X 124.848 Y1647.270
G1 X 125.098 Y1646.978
G1 X 125.389 Y1646.728
G1 X 125.717 Y1646.525
G1 X 126.075 Y1646.373
G1 X 126.460 Y1646.279
G1 X 126.866 Y1646.246
G1 X 127.271 Y1646.279
G1 X 127.656 Y1646.373
G1 X 128.014 Y1646.525
G1 X 128.342 Y1646.728
G1 X 128.633 Y1646.978
G1 X 128.883 Y1647.270
G1 X 129.087 Y1647.597
G1 X 129.238 Y1647.956
G1 X 129.333 Y1648.341
G1 X 129.366 Y1648.746
G1 X 129.333 Y1649.152
G1 X 129.238 Y1649.536
G1 X 129.087 Y1649.895
G1 X 128.883 Y1650.223
G1 X 128.633 Y1650.514
G1 X 128.342 Y1650.764
G1 X 128.014 Y1650.967
G1 X 127.656 Y1651.119
G1 X 127.271 Y1651.213
G1 X 126.866 Y1651.246
F150
G1 Z   3.000
G0 Z  15.000 
G40
M9 M5

(* SHAPE Nr: 3 *)
G0 X 133.125 Y1628.720
M3 M8
G42
F400
G1 X 132.209 Y1629.797
G2 X 134.363 Y1631.630 I   1.994 J  -0.161
G0 Z   3.000 
F150
G1 Z  -5.000
F400
G1 X 134.769 Y1631.597
G1 X 135.153 Y1631.503
G1 X 135.512 Y1631.351
G1 X 135.840 Y1631.148
G1 X 136.131 Y1630.898
G1 X 136.381 Y1630.607
G1 X 136.584 Y1630.279
G1 X 136.736 Y1629.920
G1 X 136.831 Y1629.536
G1 X 136.863 Y1629.130
G1 X 136.831 Y1628.725
G1 X 136.736 Y1628.340
G1 X 136.584 Y1627.981
G1 X 136.381 Y1627.654
G1 X 136.131 Y1627.362
G1 X 135.840 Y1627.112
G1 X 135.512 Y1626.909
G1 X 135.153 Y1626.758
G1 X 134.769 Y1626.663
G1 X 134.363 Y1626.630
G1 X 133.958 Y1626.663
G1 X 133.573 Y1626.758
G1 X 133.214 Y1626.909
G1 X 132.887 Y1627.112
G1 X 132.596 Y1627.362
G1 X 132.346 Y1627.654
G1 X 132.142 Y1627.981
G1 X 131.991 Y1628.340
G1 X 131.896 Y1628.725
G1 X 131.863 Y1629.130
G1 X 131.896 Y1629.536
G1 X 131.991 Y1629.920
G1 X 132.142 Y1630.279
G1 X 132.346 Y1630.607
G1 X 132.596 Y1630.898
G1 X 132.887 Y1631.148
G1 X 133.214 Y1631.351
G1 X 133.573 Y1631.503
G1 X 133.958 Y1631.597
F150
G1 Z -10.000
F400
G41
G1 X 133.573 Y1631.503
G1 X 133.214 Y1631.351
G1 X 132.887 Y1631.148
G1 X 132.596 Y1630.898
G1 X 132.346 Y1630.607
G1 X 132.142 Y1630.279
G1 X 131.991 Y1629.920
G1 X 131.896 Y1629.536
G1 X 131.863 Y1629.130
G1 X 131.896 Y1628.725
G1 X 131.991 Y1628.340
G1 X 132.142 Y1627.981
G1 X 132.346 Y1627.654
G1 X 132.596 Y1627.362
G1 X 132.887 Y1627.112
G1 X 133.214 Y1626.909
G1 X 133.573 Y1626.758
G1 X 133.958 Y1626.663
G1 X 134.363 Y1626.630
G1 X 134.769 Y1626.663
G1 X 135.153 Y1626.758
G1 X 135.512 Y1626.909
G1 X 135.840 Y1627.112
G1 X 136.131 Y1627.362
G1 X 136.381 Y1627.654
G1 X 136.584 Y1627.981
G1 X 136.736 Y1628.340
G1 X 136.831 Y1628.725
G1 X 136.863 Y1629.130
G1 X 136.831 Y1629.536
G1 X 136.736 Y1629.920
G1 X 136.584 Y1630.279
G1 X 136.381 Y1630.607
G1 X 136.131 Y1630.898
G1 X 135.840 Y1631.148
G1 X 135.512 Y1631.351
G1 X 135.153 Y1631.503
G1 X 134.769 Y1631.597
G1 X 134.363 Y1631.630
F150
G1 Z -15.000
F400
G42
G1 X 134.769 Y1631.597
G1 X 135.153 Y1631.503
G1 X 135.512 Y1631.351
G1 X 135.840 Y1631.148
G1 X 136.131 Y1630.898
G1 X 136.381 Y1630.607
G1 X 136.584 Y1630.279
G1 X 136.736 Y1629.920
G1 X 136.831 Y1629.536
G1 X 136.863 Y1629.130
G1 X 136.831 Y1628.725
G1 X 136.736 Y1628.340
G1 X 136.584 Y1627.981
G1 X 136.381 Y1627.654
G1 X 136.131 Y1627.362
G1 X 135.840 Y1627.112
G1 X 135.512 Y1626.909
G1 X 135.153 Y1626.758
G1 X 134.769 Y1626.663
G1 X 134.363 Y1626.630
G1 X 133.958 Y1626.663
G1 X 133.573 Y1626.758
G1 X 133.214 Y1626.909
G1 X 132.887 Y1627.112
G1 X 132.596 Y1627.362
G1 X 132.346 Y1627.654
G1 X 132.142 Y1627.981
G1 X 131.991 Y1628.340
G1 X 131.896 Y1628.725
G1 X 131.863 Y1629.130
G1 X 131.896 Y1629.536
G1 X 131.991 Y1629.920
G1 X 132.142 Y1630.279
G1 X 132.346 Y1630.607
G1 X 132.596 Y1630.898
G1 X 132.887 Y1631.148
G1 X 133.214 Y1631.351
G1 X 133.573 Y1631.503
G1 X 133.958 Y1631.597
F150
G1 Z -18.000
F400
G41
G1 X 133.573 Y1631.503
G1 X 133.214 Y1631.351
G1 X 132.887 Y1631.148
G1 X 132.596 Y1630.898
G1 X 132.346 Y1630.607
G1 X 132.142 Y1630.279
G1 X 131.991 Y1629.920
G1 X 131.896 Y1629.536
G1 X 131.863 Y1629.130
G1 X 131.896 Y1628.725
G1 X 131.991 Y1628.340
G1 X 132.142 Y1627.981
G1 X 132.346 Y1627.654
G1 X 132.596 Y1627.362
G1 X 132.887 Y1627.112
G1 X 133.214 Y1626.909
G1 X 133.573 Y1626.758
G1 X 133.958 Y1626.663
G1 X 134.363 Y1626.630
G1 X 134.769 Y1626.663
G1 X 135.153 Y1626.758
G1 X 135.512 Y1626.909
G1 X 135.840 Y1627.112
G1 X 136.131 Y1627.362
G1 X 136.381 Y1627.654
G1 X 136.584 Y1627.981
G1 X 136.736 Y1628.340
G1 X 136.831 Y1628.725
G1 X 136.863 Y1629.130
G1 X 136.831 Y1629.536
G1 X 136.736 Y1629.920
G1 X 136.584 Y1630.279
G1 X 136.381 Y1630.607
G1 X 136.131 Y1630.898
G1 X 135.840 Y1631.148
G1 X 135.512 Y1631.351
G1 X 135.153 Y1631.503
G1 X 134.769 Y1631.597
G1 X 134.363 Y1631.630
F150
G1 Z   3.000
G0 Z  15.000 
G40
M9 M5

(* SHAPE Nr: 4 *)
G0 X 141.333 Y1570.311
M3 M8
G42
F400
G1 X 140.417 Y1571.388
G2 X 142.571 Y1573.221 I   1.994 J  -0.161
G0 Z   3.000 
F150
G1 Z  -5.000
F400
G1 X 142.976 Y1573.188
G1 X 143.361 Y1573.093
G1 X 143.720 Y1572.942
G1 X 144.047 Y1572.738
G1 X 144.339 Y1572.488
G1 X 144.589 Y1572.197
G1 X 144.792 Y1571.870
G1 X 144.943 Y1571.511
G1 X 145.038 Y1571.126
G1 X 145.071 Y1570.721
G1 X 145.038 Y1570.315
G1 X 144.943 Y1569.930
G1 X 144.792 Y1569.572
G1 X 144.589 Y1569.244
G1 X 144.339 Y1568.953
G1 X 144.047 Y1568.703
G1 X 143.720 Y1568.500
G1 X 143.361 Y1568.348
G1 X 142.976 Y1568.253
G1 X 142.571 Y1568.221
G1 X 142.165 Y1568.253
G1 X 141.781 Y1568.348
G1 X 141.422 Y1568.500
G1 X 141.094 Y1568.703
G1 X 140.803 Y1568.953
G1 X 140.553 Y1569.244
G1 X 140.350 Y1569.572
G1 X 140.198 Y1569.930
G1 X 140.104 Y1570.315
G1 X 140.071 Y1570.721
G1 X 140.104 Y1571.126
G1 X 140.198 Y1571.511
G1 X 140.350 Y1571.870
G1 X 140.553 Y1572.197
G1 X 140.803 Y1572.488
G1 X 141.094 Y1572.738
G1 X 141.422 Y1572.942
G1 X 141.781 Y1573.093
G1 X 142.165 Y1573.188
F150
G1 Z -10.000
F400
G41
G1 X 141.781 Y1573.093
G1 X 141.422 Y1572.942
G1 X 141.094 Y1572.738
G1 X 140.803 Y1572.488
G1 X 140.553 Y1572.197
G1 X 140.350 Y1571.870
G1 X 140.198 Y1571.511
G1 X 140.104 Y1571.126
G1 X 140.071 Y1570.721
G1 X 140.104 Y1570.315
G1 X 140.198 Y1569.930
G1 X 140.350 Y1569.572
G1 X 140.553 Y1569.244
G1 X 140.803 Y1568.953
G1 X 141.094 Y1568.703
G1 X 141.422 Y1568.500
G1 X 141.781 Y1568.348
G1 X 142.165 Y1568.253
G1 X 142.571 Y1568.221
G1 X 142.976 Y1568.253
G1 X 143.361 Y1568.348
G1 X 143.720 Y1568.500
G1 X 144.047 Y1568.703
G1 X 144.339 Y1568.953
G1 X 144.589 Y1569.244
G1 X 144.792 Y1569.572
G1 X 144.943 Y1569.930
G1 X 145.038 Y1570.315
G1 X 145.071 Y1570.721
G1 X 145.038 Y1571.126
G1 X 144.943 Y1571.511
G1 X 144.792 Y1571.870
G1 X 144.589 Y1572.197
G1 X 144.339 Y1572.488
G1 X 144.047 Y1572.738
G1 X 143.720 Y1572.942
G1 X 143.361 Y1573.093
G1 X 142.976 Y1573.188
G1 X 142.571 Y1573.221
F150
G1 Z -15.000
F400
G42
G1 X 142.976 Y1573.188
G1 X 143.361 Y1573.093
G1 X 143.720 Y1572.942
G1 X 144.047 Y1572.738
G1 X 144.339 Y1572.488
G1 X 144.589 Y1572.197
G1 X 144.792 Y1571.870
G1 X 144.943 Y1571.511
G1 X 145.038 Y1571.126
G1 X 145.071 Y1570.721
G1 X 145.038 Y1570.315
G1 X 144.943 Y1569.930
G1 X 144.792 Y1569.572
G1 X 144.589 Y1569.244
G1 X 144.339 Y1568.953
G1 X 144.047 Y1568.703
G1 X 143.720 Y1568.500
G1 X 143.361 Y1568.348
G1 X 142.976 Y1568.253
G1 X 142.571 Y1568.221
G1 X 142.165 Y1568.253
G1 X 141.781 Y1568.348
G1 X 141.422 Y1568.500
G1 X 141.094 Y1568.703
G1 X 140.803 Y1568.953
G1 X 140.553 Y1569.244
G1 X 140.350 Y1569.572
G1 X 140.198 Y1569.930
G1 X 140.104 Y1570.315
G1 X 140.071 Y1570.721
G1 X 140.104 Y1571.126
G1 X 140.198 Y1571.511
G1 X 140.350 Y1571.870
G1 X 140.553 Y1572.197
G1 X 140.803 Y1572.488
G1 X 141.094 Y1572.738
G1 X 141.422 Y1572.942
G1 X 141.781 Y1573.093
G1 X 142.165 Y1573.188
F150
G1 Z -18.000
F400
G41
G1 X 141.781 Y1573.093
G1 X 141.422 Y1572.942
G1 X 141.094 Y1572.738
G1 X 140.803 Y1572.488
G1 X 140.553 Y1572.197
G1 X 140.350 Y1571.870
G1 X 140.198 Y1571.511
G1 X 140.104 Y1571.126
G1 X 140.071 Y1570.721
G1 X 140.104 Y1570.315
G1 X 140.198 Y1569.930
G1 X 140.350 Y1569.572
G1 X 140.553 Y1569.244
G1 X 140.803 Y1568.953
G1 X 141.094 Y1568.703
G1 X 141.422 Y1568.500
G1 X 141.781 Y1568.348
G1 X 142.165 Y1568.253
G1 X 142.571 Y1568.221
G1 X 142.976 Y1568.253
G1 X 143.361 Y1568.348
G1 X 143.720 Y1568.500
G1 X 144.047 Y1568.703
G1 X 144.339 Y1568.953
G1 X 144.589 Y1569.244
G1 X 144.792 Y1569.572
G1 X 144.943 Y1569.930
G1 X 145.038 Y1570.315
G1 X 145.071 Y1570.721
G1 X 145.038 Y1571.126
G1 X 144.943 Y1571.511
G1 X 144.792 Y1571.870
G1 X 144.589 Y1572.197
G1 X 144.339 Y1572.488
G1 X 144.047 Y1572.738
G1 X 143.720 Y1572.942
G1 X 143.361 Y1573.093
G1 X 142.976 Y1573.188
G1 X 142.571 Y1573.221
F150
G1 Z   3.000
G0 Z  15.000 
G40
M9 M5

(* SHAPE Nr: 5 *)
G0 X 145.399 Y1549.708
M3 M8
G42
F400
G1 X 144.483 Y1550.785
G2 X 146.637 Y1552.618 I   1.994 J  -0.161
G0 Z   3.000 
F150
G1 Z  -5.000
F400
G1 X 147.043 Y1552.585
G1 X 147.427 Y1552.491
G1 X 147.786 Y1552.339
G1 X 148.113 Y1552.136
G1 X 148.405 Y1551.886
G1 X 148.655 Y1551.595
G1 X 148.858 Y1551.267
G1 X 149.010 Y1550.908
G1 X 149.104 Y1550.524
G1 X 149.137 Y1550.118
G1 X 149.104 Y1549.713
G1 X 149.010 Y1549.328
G1 X 148.858 Y1548.969
G1 X 148.655 Y1548.642
G1 X 148.405 Y1548.350
G1 X 148.113 Y1548.100
G1 X 147.786 Y1547.897
G1 X 147.427 Y1547.746
G1 X 147.043 Y1547.651
G1 X 146.637 Y1547.618
G1 X 146.231 Y1547.651
G1 X 145.847 Y1547.746
G1 X 145.488 Y1547.897
G1 X 145.161 Y1548.100
G1 X 144.869 Y1548.350
G1 X 144.619 Y1548.642
G1 X 144.416 Y1548.969
G1 X 144.264 Y1549.328
G1 X 144.170 Y1549.713
G1 X 144.137 Y1550.118
G1 X 144.170 Y1550.524
G1 X 144.264 Y1550.908
G1 X 144.416 Y1551.267
G1 X 144.619 Y1551.595
G1 X 144.869 Y1551.886
G1 X 145.161 Y1552.136
G1 X 145.488 Y1552.339
G1 X 145.847 Y1552.491
G1 X 146.231 Y1552.585
F150
G1 Z -10.000
F400
G41
G1 X 145.847 Y1552.491
G1 X 145.488 Y1552.339
G1 X 145.161 Y1552.136
G1 X 144.869 Y1551.886
G1 X 144.619 Y1551.595
G1 X 144.416 Y1551.267
G1 X 144.264 Y1550.908
G1 X 144.170 Y1550.524
G1 X 144.137 Y1550.118
G1 X 144.170 Y1549.713
G1 X 144.264 Y1549.328
G1 X 144.416 Y1548.969
G1 X 144.619 Y1548.642
G1 X 144.869 Y1548.350
G1 X 145.161 Y1548.100
G1 X 145.488 Y1547.897
G1 X 145.847 Y1547.746
G1 X 146.231 Y1547.651
G1 X 146.637 Y1547.618
G1 X 147.043 Y1547.651
G1 X 147.427 Y1547.746
G1 X 147.786 Y1547.897
G1 X 148.113 Y1548.100
G1 X 148.405 Y1548.350
G1 X 148.655 Y1548.642
G1 X 148.858 Y1548.969
G1 X 149.010 Y1549.328
G1 X 149.104 Y1549.713
G1 X 149.137 Y1550.118
G1 X 149.104 Y1550.524
G1 X 149.010 Y1550.908
G1 X 148.858 Y1551.267
G1 X 148.655 Y1551.595
G1 X 148.405 Y1551.886
G1 X 148.113 Y1552.136
G1 X 147.786 Y1552.339
G1 X 147.427 Y1552.491
G1 X 147.043 Y1552.585
G1 X 146.637 Y1552.618
F150
G1 Z -15.000
F400
G42
G1 X 147.043 Y1552.585
G1 X 147.427 Y1552.491
G1 X 147.786 Y1552.339
G1 X 148.113 Y1552.136
G1 X 148.405 Y1551.886
G1 X 148.655 Y1551.595
G1 X 148.858 Y1551.267
G1 X 149.010 Y1550.908
G1 X 149.104 Y1550.524
G1 X 149.137 Y1550.118
G1 X 149.104 Y1549.713
G1 X 149.010 Y1549.328
G1 X 148.858 Y1548.969
G1 X 148.655 Y1548.642
G1 X 148.405 Y1548.350
G1 X 148.113 Y1548.100
G1 X 147.786 Y1547.897
G1 X 147.427 Y1547.746
G1 X 147.043 Y1547.651
G1 X 146.637 Y1547.618
G1 X 146.231 Y1547.651
G1 X 145.847 Y1547.746
G1 X 145.488 Y1547.897
G1 X 145.161 Y1548.100
G1 X 144.869 Y1548.350
G1 X 144.619 Y1548.642
G1 X 144.416 Y1548.969
G1 X 144.264 Y1549.328
G1 X 144.170 Y1549.713
G1 X 144.137 Y1550.118
G1 X 144.170 Y1550.524
G1 X 144.264 Y1550.908
G1 X 144.416 Y1551.267
G1 X 144.619 Y1551.595
G1 X 144.869 Y1551.886
G1 X 145.161 Y1552.136
G1 X 145.488 Y1552.339
G1 X 145.847 Y1552.491
G1 X 146.231 Y1552.585
F150
G1 Z -18.000
F400
G41
G1 X 145.847 Y1552.491
G1 X 145.488 Y1552.339
G1 X 145.161 Y1552.136
G1 X 144.869 Y1551.886
G1 X 144.619 Y1551.595
G1 X 144.416 Y1551.267
G1 X 144.264 Y1550.908
G1 X 144.170 Y1550.524
G1 X 144.137 Y1550.118
G1 X 144.170 Y1549.713
G1 X 144.264 Y1549.328
G1 X 144.416 Y1548.969
G1 X 144.619 Y1548.642
G1 X 144.869 Y1548.350
G1 X 145.161 Y1548.100
G1 X 145.488 Y1547.897
G1 X 145.847 Y1547.746
G1 X 146.231 Y1547.651
G1 X 146.637 Y1547.618
G1 X 147.043 Y1547.651
G1 X 147.427 Y1547.746
G1 X 147.786 Y1547.897
G1 X 148.113 Y1548.100
G1 X 148.405 Y1548.350
G1 X 148.655 Y1548.642
G1 X 148.858 Y1548.969
G1 X 149.010 Y1549.328
G1 X 149.104 Y1549.713
G1 X 149.137 Y1550.118
G1 X 149.104 Y1550.524
G1 X 149.010 Y1550.908
G1 X 148.858 Y1551.267
G1 X 148.655 Y1551.595
G1 X 148.405 Y1551.886
G1 X 148.113 Y1552.136
G1 X 147.786 Y1552.339
G1 X 147.427 Y1552.491
G1 X 147.043 Y1552.585
G1 X 146.637 Y1552.618
F150
G1 Z   3.000
G0 Z  15.000 
G40
M9 M5

(* SHAPE Nr: 6 *)
G0 X 153.012 Y1492.318
M3 M8
G42
F400
G1 X 152.096 Y1493.395
G2 X 154.250 Y1495.227 I   1.994 J  -0.161
G0 Z   3.000 
F150
G1 Z  -5.000
F400
G1 X 154.656 Y1495.195
G1 X 155.040 Y1495.100
G1 X 155.399 Y1494.948
G1 X 155.727 Y1494.745
G1 X 156.018 Y1494.495
G1 X 156.268 Y1494.204
G1 X 156.471 Y1493.876
G1 X 156.623 Y1493.518
G1 X 156.717 Y1493.133
G1 X 156.750 Y1492.727
G1 X 156.717 Y1492.322
G1 X 156.623 Y1491.937
G1 X 156.471 Y1491.579
G1 X 156.268 Y1491.251
G1 X 156.018 Y1490.960
G1 X 155.727 Y1490.710
G1 X 155.399 Y1490.506
G1 X 155.040 Y1490.355
G1 X 154.656 Y1490.260
G1 X 154.250 Y1490.227
G1 X 153.845 Y1490.260
G1 X 153.460 Y1490.355
G1 X 153.101 Y1490.506
G1 X 152.774 Y1490.710
G1 X 152.482 Y1490.960
G1 X 152.233 Y1491.251
G1 X 152.029 Y1491.579
G1 X 151.878 Y1491.937
G1 X 151.783 Y1492.322
G1 X 151.750 Y1492.727
G1 X 151.783 Y1493.133
G1 X 151.878 Y1493.518
G1 X 152.029 Y1493.876
G1 X 152.233 Y1494.204
G1 X 152.482 Y1494.495
G1 X 152.774 Y1494.745
G1 X 153.101 Y1494.948
G1 X 153.460 Y1495.100
G1 X 153.845 Y1495.195
F150
G1 Z -10.000
F400
G41
G1 X 153.460 Y1495.100
G1 X 153.101 Y1494.948
G1 X 152.774 Y1494.745
G1 X 152.482 Y1494.495
G1 X 152.233 Y1494.204
G1 X 152.029 Y1493.876
G1 X 151.878 Y1493.518
G1 X 151.783 Y1493.133
G1 X 151.750 Y1492.727
G1 X 151.783 Y1492.322
G1 X 151.878 Y1491.937
G1 X 152.029 Y1491.579
G1 X 152.233 Y1491.251
G1 X 152.482 Y1490.960
G1 X 152.774 Y1490.710
G1 X 153.101 Y1490.506
G1 X 153.460 Y1490.355
G1 X 153.845 Y1490.260
G1 X 154.250 Y1490.227
G1 X 154.656 Y1490.260
G1 X 155.040 Y1490.355
G1 X 155.399 Y1490.506
G1 X 155.727 Y1490.710
G1 X 156.018 Y1490.960
G1 X 156.268 Y1491.251
G1 X 156.471 Y1491.579
G1 X 156.623 Y1491.937
G1 X 156.717 Y1492.322
G1 X 156.750 Y1492.727
G1 X 156.717 Y1493.133
G1 X 156.623 Y1493.518
G1 X 156.471 Y1493.876
G1 X 156.268 Y1494.204
G1 X 156.018 Y1494.495
G1 X 155.727 Y1494.745
G1 X 155.399 Y1494.948
G1 X 155.040 Y1495.100
G1 X 154.656 Y1495.195
G1 X 154.250 Y1495.227
F150
G1 Z -15.000
F400
G42
G1 X 154.656 Y1495.195
G1 X 155.040 Y1495.100
G1 X 155.399 Y1494.948
G1 X 155.727 Y1494.745
G1 X 156.018 Y1494.495
G1 X 156.268 Y1494.204
G1 X 156.471 Y1493.876
G1 X 156.623 Y1493.518
G1 X 156.717 Y1493.133
G1 X 156.750 Y1492.727
G1 X 156.717 Y1492.322
G1 X 156.623 Y1491.937
G1 X 156.471 Y1491.579
G1 X 156.268 Y1491.251
G1 X 156.018 Y1490.960
G1 X 155.727 Y1490.710
G1 X 155.399 Y1490.506
G1 X 155.040 Y1490.355
G1 X 154.656 Y1490.260
G1 X 154.250 Y1490.227
G1 X 153.845 Y1490.260
G1 X 153.460 Y1490.355
G1 X 153.101 Y1490.506
G1 X 152.774 Y1490.710
G1 X 152.482 Y1490.960
G1 X 152.233 Y1491.251
G1 X 152.029 Y1491.579
G1 X 151.878 Y1491.937
G1 X 151.783 Y1492.322
G1 X 151.750 Y1492.727
G1 X 151.783 Y1493.133
G1 X 151.878 Y1493.518
G1 X 152.029 Y1493.876
G1 X 152.233 Y1494.204
G1 X 152.482 Y1494.495
G1 X 152.774 Y1494.745
G1 X 153.101 Y1494.948
G1 X 153.460 Y1495.100
G1 X 153.845 Y1495.195
F150
G1 Z -18.000
F400
G41
G1 X 153.460 Y1495.100
G1 X 153.101 Y1494.948
G1 X 152.774 Y1494.745
G1 X 152.482 Y1494.495
G1 X 152.233 Y1494.204
G1 X 152.029 Y1493.876
G1 X 151.878 Y1493.518
G1 X 151.783 Y1493.133
G1 X 151.750 Y1492.727
G1 X 151.783 Y1492.322
G1 X 151.878 Y1491.937
G1 X 152.029 Y1491.579
G1 X 152.233 Y1491.251
G1 X 152.482 Y1490.960
G1 X 152.774 Y1490.710
G1 X 153.101 Y1490.506
G1 X 153.460 Y1490.355
G1 X 153.845 Y1490.260
G1 X 154.250 Y1490.227
G1 X 154.656 Y1490.260
G1 X 155.040 Y1490.355
G1 X 155.399 Y1490.506
G1 X 155.727 Y1490.710
G1 X 156.018 Y1490.960
G1 X 156.268 Y1491.251
G1 X 156.471 Y1491.579
G1 X 156.623 Y1491.937
G1 X 156.717 Y1492.322
G1 X 156.750 Y1492.727
G1 X 156.717 Y1493.133
G1 X 156.623 Y1493.518
G1 X 156.471 Y1493.876
G1 X 156.268 Y1494.204
G1 X 156.018 Y1494.495
G1 X 155.727 Y1494.745
G1 X 155.399 Y1494.948
G1 X 155.040 Y1495.100
G1 X 154.656 Y1495.195
G1 X 154.250 Y1495.227
F150
G1 Z   3.000
G0 Z  15.000 
G40
M9 M5

(* SHAPE Nr: 7 *)
G0 X 156.470 Y1471.604
M3 M8
G42
F400
G1 X 155.553 Y1472.681
G2 X 157.708 Y1474.514 I   1.994 J  -0.161
G0 Z   3.000 
F150
G1 Z  -5.000
F400
G1 X 158.113 Y1474.481
G1 X 158.498 Y1474.387
G1 X 158.857 Y1474.235
G1 X 159.184 Y1474.032
G1 X 159.476 Y1473.782
G1 X 159.725 Y1473.491
G1 X 159.929 Y1473.163
G1 X 160.080 Y1472.804
G1 X 160.175 Y1472.420
G1 X 160.208 Y1472.014
G1 X 160.175 Y1471.609
G1 X 160.080 Y1471.224
G1 X 159.929 Y1470.865
G1 X 159.725 Y1470.538
G1 X 159.476 Y1470.246
G1 X 159.184 Y1469.996
G1 X 158.857 Y1469.793
G1 X 158.498 Y1469.641
G1 X 158.113 Y1469.547
G1 X 157.708 Y1469.514
G1 X 157.302 Y1469.547
G1 X 156.918 Y1469.641
G1 X 156.559 Y1469.793
G1 X 156.231 Y1469.996
G1 X 155.940 Y1470.246
G1 X 155.690 Y1470.538
G1 X 155.487 Y1470.865
G1 X 155.335 Y1471.224
G1 X 155.240 Y1471.609
G1 X 155.208 Y1472.014
G1 X 155.240 Y1472.420
G1 X 155.335 Y1472.804
G1 X 155.487 Y1473.163
G1 X 155.690 Y1473.490
G1 X 155.940 Y1473.782
G1 X 156.231 Y1474.032
G1 X 156.559 Y1474.235
G1 X 156.918 Y1474.387
G1 X 157.302 Y1474.481
F150
G1 Z -10.000
F400
G41
G1 X 156.918 Y1474.387
G1 X 156.559 Y1474.235
G1 X 156.231 Y1474.032
G1 X 155.940 Y1473.782
G1 X 155.690 Y1473.490
G1 X 155.487 Y1473.163
G1 X 155.335 Y1472.804
G1 X 155.240 Y1472.420
G1 X 155.208 Y1472.014
G1 X 155.240 Y1471.609
G1 X 155.335 Y1471.224
G1 X 155.487 Y1470.865
G1 X 155.690 Y1470.538
G1 X 155.940 Y1470.246
G1 X 156.231 Y1469.996
G1 X 156.559 Y1469.793
G1 X 156.918 Y1469.641
G1 X 157.302 Y1469.547
G1 X 157.708 Y1469.514
G1 X 158.113 Y1469.547
G1 X 158.498 Y1469.641
G1 X 158.857 Y1469.793
G1 X 159.184 Y1469.996
G1 X 159.476 Y1470.246
G1 X 159.725 Y1470.538
G1 X 159.929 Y1470.865
G1 X 160.080 Y1471.224
G1 X 160.175 Y1471.609
G1 X 160.208 Y1472.014
G1 X 160.175 Y1472.420
G1 X 160.080 Y1472.804
G1 X 159.929 Y1473.163
G1 X 159.725 Y1473.491
G1 X 159.476 Y1473.782
G1 X 159.184 Y1474.032
G1 X 158.857 Y1474.235
G1 X 158.498 Y1474.387
G1 X 158.113 Y1474.481
G1 X 157.708 Y1474.514
F150
G1 Z -15.000
F400
G42
G1 X 158.113 Y1474.481
G1 X 158.498 Y1474.387
G1 X 158.857 Y1474.235
G1 X 159.184 Y1474.032
G1 X 159.476 Y1473.782
G1 X 159.725 Y1473.491
G1 X 159.929 Y1473.163
G1 X 160.080 Y1472.804
G1 X 160.175 Y1472.420
G1 X 160.208 Y1472.014
G1 X 160.175 Y1471.609
G1 X 160.080 Y1471.224
G1 X 159.929 Y1470.865
G1 X 159.725 Y1470.538
G1 X 159.476 Y1470.246
G1 X 159.184 Y1469.996
G1 X 158.857 Y1469.793
G1 X 158.498 Y1469.641
G1 X 158.113 Y1469.547
G1 X 157.708 Y1469.514
G1 X 157.302 Y1469.547
G1 X 156.918 Y1469.641
G1 X 156.559 Y1469.793
G1 X 156.231 Y1469.996
G1 X 155.940 Y1470.246
G1 X 155.690 Y1470.538
G1 X 155.487 Y1470.865
G1 X 155.335 Y1471.224
G1 X 155.240 Y1471.609
G1 X 155.208 Y1472.014
G1 X 155.240 Y1472.420
G1 X 155.335 Y1472.804
G1 X 155.487 Y1473.163
G1 X 155.690 Y1473.490
G1 X 155.940 Y1473.782
G1 X 156.231 Y1474.032
G1 X 156.559 Y1474.235
G1 X 156.918 Y1474.387
G1 X 157.302 Y1474.481
F150
G1 Z -18.000
F400
G41
G1 X 156.918 Y1474.387
G1 X 156.559 Y1474.235
G1 X 156.231 Y1474.032
G1 X 155.940 Y1473.782
G1 X 155.690 Y1473.490
G1 X 155.487 Y1473.163
G1 X 155.335 Y1472.804
G1 X 155.240 Y1472.420
G1 X 155.208 Y1472.014
G1 X 155.240 Y1471.609
G1 X 155.335 Y1471.224
G1 X 155.487 Y1470.865
G1 X 155.690 Y1470.538
G1 X 155.940 Y1470.246
G1 X 156.231 Y1469.996
G1 X 156.559 Y1469.793
G1 X 156.918 Y1469.641
G1 X 157.302 Y1469.547
G1 X 157.708 Y1469.514
G1 X 158.113 Y1469.547
G1 X 158.498 Y1469.641
G1 X 158.857 Y1469.793
G1 X 159.184 Y1469.996
G1 X 159.476 Y1470.246
G1 X 159.725 Y1470.538
G1 X 159.929 Y1470.865
G1 X 160.080 Y1471.224
G1 X 160.175 Y1471.609
G1 X 160.208 Y1472.014
G1 X 160.175 Y1472.420
G1 X 160.080 Y1472.804
G1 X 159.929 Y1473.163
G1 X 159.725 Y1473.491
G1 X 159.476 Y1473.782
G1 X 159.184 Y1474.032
G1 X 158.857 Y1474.235
G1 X 158.498 Y1474.387
G1 X 158.113 Y1474.481
G1 X 157.708 Y1474.514
F150
G1 Z   3.000
G0 Z  15.000 
G40
M9 M5

(* SHAPE Nr: 8 *)
G0 X 164.346 Y1414.614
M3 M8
G42
F400
G1 X 163.429 Y1415.691
G2 X 165.584 Y1417.524 I   1.994 J  -0.161
G0 Z   3.000 
F150
G1 Z  -5.000
F400
G1 X 165.989 Y1417.491
G1 X 166.374 Y1417.396
G1 X 166.733 Y1417.245
G1 X 167.060 Y1417.042
G1 X 167.352 Y1416.792
G1 X 167.601 Y1416.500
G1 X 167.805 Y1416.173
G1 X 167.956 Y1415.814
G1 X 168.051 Y1415.429
G1 X 168.084 Y1415.024
G1 X 168.051 Y1414.618
G1 X 167.956 Y1414.234
G1 X 167.805 Y1413.875
G1 X 167.601 Y1413.547
G1 X 167.352 Y1413.256
G1 X 167.060 Y1413.006
G1 X 166.733 Y1412.803
G1 X 166.374 Y1412.651
G1 X 165.989 Y1412.557
G1 X 165.584 Y1412.524
G1 X 165.178 Y1412.557
G1 X 164.794 Y1412.651
G1 X 164.435 Y1412.803
G1 X 164.107 Y1413.006
G1 X 163.816 Y1413.256
G1 X 163.566 Y1413.547
G1 X 163.363 Y1413.875
G1 X 163.211 Y1414.234
G1 X 163.117 Y1414.618
G1 X 163.084 Y1415.024
G1 X 163.117 Y1415.429
G1 X 163.211 Y1415.814
G1 X 163.363 Y1416.173
G1 X 163.566 Y1416.500
G1 X 163.816 Y1416.792
G1 X 164.107 Y1417.042
G1 X 164.435 Y1417.245
G1 X 164.794 Y1417.397
G1 X 165.178 Y1417.491
F150
G1 Z -10.000
F400
G41
G1 X 164.794 Y1417.397
G1 X 164.435 Y1417.245
G1 X 164.107 Y1417.042
G1 X 163.816 Y1416.792
G1 X 163.566 Y1416.500
G1 X 163.363 Y1416.173
G1 X 163.211 Y1415.814
G1 X 163.117 Y1415.429
G1 X 163.084 Y1415.024
G1 X 163.117 Y1414.618
G1 X 163.211 Y1414.234
G1 X 163.363 Y1413.875
G1 X 163.566 Y1413.547
G1 X 163.816 Y1413.256
G1 X 164.107 Y1413.006
G1 X 164.435 Y1412.803
G1 X 164.794 Y1412.651
G1 X 165.178 Y1412.557
G1 X 165.584 Y1412.524
G1 X 165.989 Y1412.557
G1 X 166.374 Y1412.651
G1 X 166.733 Y1412.803
G1 X 167.060 Y1413.006
G1 X 167.352 Y1413.256
G1 X 167.601 Y1413.547
G1 X 167.805 Y1413.875
G1 X 167.956 Y1414.234
G1 X 168.051 Y1414.618
G1 X 168.084 Y1415.024
G1 X 168.051 Y1415.429
G1 X 167.956 Y1415.814
G1 X 167.805 Y1416.173
G1 X 167.601 Y1416.500
G1 X 167.352 Y1416.792
G1 X 167.060 Y1417.042
G1 X 166.733 Y1417.245
G1 X 166.374 Y1417.396
G1 X 165.989 Y1417.491
G1 X 165.584 Y1417.524
F150
G1 Z -15.000
F400
G42
G1 X 165.989 Y1417.491
G1 X 166.374 Y1417.396
G1 X 166.733 Y1417.245
G1 X 167.060 Y1417.042
G1 X 167.352 Y1416.792
G1 X 167.601 Y1416.500
G1 X 167.805 Y1416.173
G1 X 167.956 Y1415.814
G1 X 168.051 Y1415.429
G1 X 168.084 Y1415.024
G1 X 168.051 Y1414.618
G1 X 167.956 Y1414.234
G1 X 167.805 Y1413.875
G1 X 167.601 Y1413.547
G1 X 167.352 Y1413.256
G1 X 167.060 Y1413.006
G1 X 166.733 Y1412.803
G1 X 166.374 Y1412.651
G1 X 165.989 Y1412.557
G1 X 165.584 Y1412.524
G1 X 165.178 Y1412.557
G1 X 164.794 Y1412.651
G1 X 164.435 Y1412.803
G1 X 164.107 Y1413.006
G1 X 163.816 Y1413.256
G1 X 163.566 Y1413.547
G1 X 163.363 Y1413.875
G1 X 163.211 Y1414.234
G1 X 163.117 Y1414.618
G1 X 163.084 Y1415.024
G1 X 163.117 Y1415.429
G1 X 163.211 Y1415.814
G1 X 163.363 Y1416.173
G1 X 163.566 Y1416.500
G1 X 163.816 Y1416.792
G1 X 164.107 Y1417.042
G1 X 164.435 Y1417.245
G1 X 164.794 Y1417.397
G1 X 165.178 Y1417.491
F150
G1 Z -18.000
F400
G41
G1 X 164.794 Y1417.397
G1 X 164.435 Y1417.245
G1 X 164.107 Y1417.042
G1 X 163.816 Y1416.792
G1 X 163.566 Y1416.500
G1 X 163.363 Y1416.173
G1 X 163.211 Y1415.814
G1 X 163.117 Y1415.429
G1 X 163.084 Y1415.024
G1 X 163.117 Y1414.618
G1 X 163.211 Y1414.234
G1 X 163.363 Y1413.875
G1 X 163.566 Y1413.547
G1 X 163.816 Y1413.256
G1 X 164.107 Y1413.006
G1 X 164.435 Y1412.803
G1 X 164.794 Y1412.651
G1 X 165.178 Y1412.557
G1 X 165.584 Y1412.524
G1 X 165.989 Y1412.557
G1 X 166.374 Y1412.651
G1 X 166.733 Y1412.803
G1 X 167.060 Y1413.006
G1 X 167.352 Y1413.256
G1 X 167.601 Y1413.547
G1 X 167.805 Y1413.875
G1 X 167.956 Y1414.234
G1 X 168.051 Y1414.618
G1 X 168.084 Y1415.024
G1 X 168.051 Y1415.429
G1 X 167.956 Y1415.814
G1 X 167.805 Y1416.173
G1 X 167.601 Y1416.500
G1 X 167.352 Y1416.792
G1 X 167.060 Y1417.042
G1 X 166.733 Y1417.245
G1 X 166.374 Y1417.396
G1 X 165.989 Y1417.491
G1 X 165.584 Y1417.524
F150
G1 Z   3.000
G0 Z  15.000 
G40
M9 M5

(* SHAPE Nr: 9 *)
G0 X 167.687 Y1393.881
M3 M8
G42
F400
G1 X 166.770 Y1394.958
G2 X 168.924 Y1396.791 I   1.994 J  -0.161
G0 Z   3.000 
F150
G1 Z  -5.000
F400
G1 X 169.330 Y1396.759
G1 X 169.715 Y1396.664
G1 X 170.073 Y1396.512
G1 X 170.401 Y1396.309
G1 X 170.692 Y1396.059
G1 X 170.942 Y1395.768
G1 X 171.145 Y1395.440
G1 X 171.297 Y1395.081
G1 X 171.392 Y1394.697
G1 X 171.424 Y1394.291
G1 X 171.392 Y1393.886
G1 X 171.297 Y1393.501
G1 X 171.145 Y1393.142
G1 X 170.942 Y1392.815
G1 X 170.692 Y1392.524
G1 X 170.401 Y1392.274
G1 X 170.073 Y1392.070
G1 X 169.715 Y1391.919
G1 X 169.330 Y1391.824
G1 X 168.924 Y1391.791
G1 X 168.519 Y1391.824
G1 X 168.134 Y1391.919
G1 X 167.776 Y1392.070
G1 X 167.448 Y1392.274
G1 X 167.157 Y1392.524
G1 X 166.907 Y1392.815
G1 X 166.704 Y1393.142
G1 X 166.552 Y1393.501
G1 X 166.457 Y1393.886
G1 X 166.424 Y1394.291
G1 X 166.457 Y1394.697
G1 X 166.552 Y1395.081
G1 X 166.704 Y1395.440
G1 X 166.907 Y1395.768
G1 X 167.157 Y1396.059
G1 X 167.448 Y1396.309
G1 X 167.776 Y1396.512
G1 X 168.134 Y1396.664
G1 X 168.519 Y1396.759
F150
G1 Z -10.000
F400
G41
G1 X 168.134 Y1396.664
G1 X 167.776 Y1396.512
G1 X 167.448 Y1396.309
G1 X 167.157 Y1396.059
G1 X 166.907 Y1395.768
G1 X 166.704 Y1395.440
G1 X 166.552 Y1395.081
G1 X 166.457 Y1394.697
G1 X 166.424 Y1394.291
G1 X 166.457 Y1393.886
G1 X 166.552 Y1393.501
G1 X 166.704 Y1393.142
G1 X 166.907 Y1392.815
G1 X 167.157 Y1392.524
G1 X 167.448 Y1392.274
G1 X 167.776 Y1392.070
G1 X 168.134 Y1391.919
G1 X 168.519 Y1391.824
G1 X 168.924 Y1391.791
G1 X 169.330 Y1391.824
G1 X 169.715 Y1391.919
G1 X 170.073 Y1392.070
G1 X 170.401 Y1392.274
G1 X 170.692 Y1392.524
G1 X 170.942 Y1392.815
G1 X 171.145 Y1393.142
G1 X 171.297 Y1393.501
G1 X 171.392 Y1393.886
G1 X 171.424 Y1394.291
G1 X 171.392 Y1394.697
G1 X 171.297 Y1395.081
G1 X 171.145 Y1395.440
G1 X 170.942 Y1395.768
G1 X 170.692 Y1396.059
G1 X 170.401 Y1396.309
G1 X 170.073 Y1396.512
G1 X 169.715 Y1396.664
G1 X 169.330 Y1396.759
G1 X 168.924 Y1396.791
F150
G1 Z -15.000
F400
G42
G1 X 169.330 Y1396.759
G1 X 169.715 Y1396.664
G1 X 170.073 Y1396.512
G1 X 170.401 Y1396.309
G1 X 170.692 Y1396.059
G1 X 170.942 Y1395.768
G1 X 171.145 Y1395.440
G1 X 171.297 Y1395.081
G1 X 171.392 Y1394.697
G1 X 171.424 Y1394.291
G1 X 171.392 Y1393.886
G1 X 171.297 Y1393.501
G1 X 171.145 Y1393.142
G1 X 170.942 Y1392.815
G1 X 170.692 Y1392.524
G1 X 170.401 Y1392.274
G1 X 170.073 Y1392.070
G1 X 169.715 Y1391.919
G1 X 169.330 Y1391.824
G1 X 168.924 Y1391.791
G1 X 168.519 Y1391.824
G1 X 168.134 Y1391.919
G1 X 167.776 Y1392.070
G1 X 167.448 Y1392.274
G1 X 167.157 Y1392.524
G1 X 166.907 Y1392.815
G1 X 166.704 Y1393.142
G1 X 166.552 Y1393.501
G1 X 166.457 Y1393.886
G1 X 166.424 Y1394.291
G1 X 166.457 Y1394.697
G1 X 166.552 Y1395.081
G1 X 166.704 Y1395.440
G1 X 166.907 Y1395.768
G1 X 167.157 Y1396.059
G1 X 167.448 Y1396.309
G1 X 167.776 Y1396.512
G1 X 168.134 Y1396.664
G1 X 168.519 Y1396.759
F150
G1 Z -18.000
F400
G41
G1 X 168.134 Y1396.664
G1 X 167.776 Y1396.512
G1 X 167.448 Y1396.309
G1 X 167.157 Y1396.059
G1 X 166.907 Y1395.768
G1 X 166.704 Y1395.440
G1 X 166.552 Y1395.081
G1 X 166.457 Y1394.697
G1 X 166.424 Y1394.291
G1 X 166.457 Y1393.886
G1 X 166.552 Y1393.501
G1 X 166.704 Y1393.142
G1 X 166.907 Y1392.815
G1 X 167.157 Y1392.524
G1 X 167.448 Y1392.274
G1 X 167.776 Y1392.070
G1 X 168.134 Y1391.919
G1 X 168.519 Y1391.824
G1 X 168.924 Y1391.791
G1 X 169.330 Y1391.824
G1 X 169.715 Y1391.919
G1 X 170.073 Y1392.070
G1 X 170.401 Y1392.274
G1 X 170.692 Y1392.524
G1 X 170.942 Y1392.815
G1 X 171.145 Y1393.142
G1 X 171.297 Y1393.501
G1 X 171.392 Y1393.886
G1 X 171.424 Y1394.291
G1 X 171.392 Y1394.697
G1 X 171.297 Y1395.081
G1 X 171.145 Y1395.440
G1 X 170.942 Y1395.768
G1 X 170.692 Y1396.059
G1 X 170.401 Y1396.309
G1 X 170.073 Y1396.512
G1 X 169.715 Y1396.664
G1 X 169.330 Y1396.759
G1 X 168.924 Y1396.791
F150
G1 Z   3.000
G0 Z  15.000 
G40
M9 M5

(* SHAPE Nr: 10 *)
G0 X 177.702 Y1337.331
M3 M8
G42
F400
G1 X 176.786 Y1338.408
G2 X 178.940 Y1340.241 I   1.994 J  -0.161
G0 Z   3.000 
F150
G1 Z  -5.000
F400
G1 X 179.346 Y1340.208
G1 X 179.730 Y1340.113
G1 X 180.089 Y1339.962
G1 X 180.417 Y1339.759
G1 X 180.708 Y1339.509
G1 X 180.958 Y1339.217
G1 X 181.161 Y1338.890
G1 X 181.313 Y1338.531
G1 X 181.407 Y1338.146
G1 X 181.440 Y1337.741
G1 X 181.407 Y1337.335
G1 X 181.313 Y1336.951
G1 X 181.161 Y1336.592
G1 X 180.958 Y1336.264
G1 X 180.708 Y1335.973
G1 X 180.417 Y1335.723
G1 X 180.089 Y1335.520
G1 X 179.730 Y1335.368
G1 X 179.346 Y1335.274
G1 X 178.940 Y1335.241
G1 X 178.535 Y1335.274
G1 X 178.150 Y1335.368
G1 X 177.791 Y1335.520
G1 X 177.464 Y1335.723
G1 X 177.172 Y1335.973
G1 X 176.922 Y1336.264
G1 X 176.719 Y1336.592
G1 X 176.568 Y1336.951
G1 X 176.473 Y1337.335
G1 X 176.440 Y1337.741
G1 X 176.473 Y1338.146
G1 X 176.568 Y1338.531
G1 X 176.719 Y1338.890
G1 X 176.922 Y1339.217
G1 X 177.172 Y1339.509
G1 X 177.464 Y1339.759
G1 X 177.791 Y1339.962
G1 X 178.150 Y1340.113
G1 X 178.535 Y1340.208
F150
G1 Z -10.000
F400
G41
G1 X 178.150 Y1340.113
G1 X 177.791 Y1339.962
G1 X 177.464 Y1339.759
G1 X 177.172 Y1339.509
G1 X 176.922 Y1339.217
G1 X 176.719 Y1338.890
G1 X 176.568 Y1338.531
G1 X 176.473 Y1338.146
G1 X 176.440 Y1337.741
G1 X 176.473 Y1337.335
G1 X 176.568 Y1336.951
G1 X 176.719 Y1336.592
G1 X 176.922 Y1336.264
G1 X 177.172 Y1335.973
G1 X 177.464 Y1335.723
G1 X 177.791 Y1335.520
G1 X 178.150 Y1335.368
G1 X 178.535 Y1335.274
G1 X 178.940 Y1335.241
G1 X 179.346 Y1335.274
G1 X 179.730 Y1335.368
G1 X 180.089 Y1335.520
G1 X 180.417 Y1335.723
G1 X 180.708 Y1335.973
G1 X 180.958 Y1336.264
G1 X 181.161 Y1336.592
G1 X 181.313 Y1336.951
G1 X 181.407 Y1337.335
G1 X 181.440 Y1337.741
G1 X 181.407 Y1338.146
G1 X 181.313 Y1338.531
G1 X 181.161 Y1338.890
G1 X 180.958 Y1339.217
G1 X 180.708 Y1339.509
G1 X 180.417 Y1339.759
G1 X 180.089 Y1339.962
G1 X 179.730 Y1340.113
G1 X 179.346 Y1340.208
G1 X 178.940 Y1340.241
F150
G1 Z -15.000
F400
G42
G1 X 179.346 Y1340.208
G1 X 179.730 Y1340.113
G1 X 180.089 Y1339.962
G1 X 180.417 Y1339.759
G1 X 180.708 Y1339.509
G1 X 180.958 Y1339.217
G1 X 181.161 Y1338.890
G1 X 181.313 Y1338.531
G1 X 181.407 Y1338.146
G1 X 181.440 Y1337.741
G1 X 181.407 Y1337.335
G1 X 181.313 Y1336.951
G1 X 181.161 Y1336.592
G1 X 180.958 Y1336.264
G1 X 180.708 Y1335.973
G1 X 180.417 Y1335.723
G1 X 180.089 Y1335.520
G1 X 179.730 Y1335.368
G1 X 179.346 Y1335.274
G1 X 178.940 Y1335.241
G1 X 178.535 Y1335.274
G1 X 178.150 Y1335.368
G1 X 177.791 Y1335.520
G1 X 177.464 Y1335.723
G1 X 177.172 Y1335.973
G1 X 176.922 Y1336.264
G1 X 176.719 Y1336.592
G1 X 176.568 Y1336.951
G1 X 176.473 Y1337.335
G1 X 176.440 Y1337.741
G1 X 176.473 Y1338.146
G1 X 176.568 Y1338.531
G1 X 176.719 Y1338.890
G1 X 176.922 Y1339.217
G1 X 177.172 Y1339.509
G1 X 177.464 Y1339.759
G1 X 177.791 Y1339.962
G1 X 178.150 Y1340.113
G1 X 178.535 Y1340.208
F150
G1 Z -18.000
F400
G41
G1 X 178.150 Y1340.113
G1 X 177.791 Y1339.962
G1 X 177.464 Y1339.759
G1 X 177.172 Y1339.509
G1 X 176.922 Y1339.217
G1 X 176.719 Y1338.890
G1 X 176.568 Y1338.531
G1 X 176.473 Y1338.146
G1 X 176.440 Y1337.741
G1 X 176.473 Y1337.335
G1 X 176.568 Y1336.951
G1 X 176.719 Y1336.592
G1 X 176.922 Y1336.264
G1 X 177.172 Y1335.973
G1 X 177.464 Y1335.723
G1 X 177.791 Y1335.520
G1 X 178.150 Y1335.368
G1 X 178.535 Y1335.274
G1 X 178.940 Y1335.241
G1 X 179.346 Y1335.274
G1 X 179.730 Y1335.368
G1 X 180.089 Y1335.520
G1 X 180.417 Y1335.723
G1 X 180.708 Y1335.973
G1 X 180.958 Y1336.264
G1 X 181.161 Y1336.592
G1 X 181.313 Y1336.951
G1 X 181.407 Y1337.335
G1 X 181.440 Y1337.741
G1 X 181.407 Y1338.146
G1 X 181.313 Y1338.531
G1 X 181.161 Y1338.890
G1 X 180.958 Y1339.217
G1 X 180.708 Y1339.509
G1 X 180.417 Y1339.759
G1 X 180.089 Y1339.962
G1 X 179.730 Y1340.113
G1 X 179.346 Y1340.208
G1 X 178.940 Y1340.241
F150
G1 Z   3.000
G0 Z  15.000 
G40
M9 M5

(* SHAPE Nr: 11 *)
G0 X 181.649 Y1316.705
M3 M8
G42
F400
G1 X 180.733 Y1317.782
G2 X 182.887 Y1319.615 I   1.994 J  -0.161
G0 Z   3.000 
F150
G1 Z  -5.000
F400
G1 X 183.292 Y1319.582
G1 X 183.677 Y1319.488
G1 X 184.036 Y1319.336
G1 X 184.363 Y1319.133
G1 X 184.655 Y1318.883
G1 X 184.905 Y1318.592
G1 X 185.108 Y1318.264
G1 X 185.260 Y1317.905
G1 X 185.354 Y1317.521
G1 X 185.387 Y1317.115
G1 X 185.354 Y1316.710
G1 X 185.260 Y1316.325
G1 X 185.108 Y1315.966
G1 X 184.905 Y1315.639
G1 X 184.655 Y1315.347
G1 X 184.363 Y1315.097
G1 X 184.036 Y1314.894
G1 X 183.677 Y1314.743
G1 X 183.293 Y1314.648
G1 X 182.887 Y1314.615
G1 X 182.481 Y1314.648
G1 X 182.097 Y1314.743
G1 X 181.738 Y1314.894
G1 X 181.411 Y1315.097
G1 X 181.119 Y1315.347
G1 X 180.869 Y1315.639
G1 X 180.666 Y1315.966
G1 X 180.514 Y1316.325
G1 X 180.420 Y1316.710
G1 X 180.387 Y1317.115
G1 X 180.420 Y1317.521
G1 X 180.514 Y1317.905
G1 X 180.666 Y1318.264
G1 X 180.869 Y1318.592
G1 X 181.119 Y1318.883
G1 X 181.411 Y1319.133
G1 X 181.738 Y1319.336
G1 X 182.097 Y1319.488
G1 X 182.481 Y1319.582
F150
G1 Z -10.000
F400
G41
G1 X 182.097 Y1319.488
G1 X 181.738 Y1319.336
G1 X 181.411 Y1319.133
G1 X 181.119 Y1318.883
G1 X 180.869 Y1318.592
G1 X 180.666 Y1318.264
G1 X 180.514 Y1317.905
G1 X 180.420 Y1317.521
G1 X 180.387 Y1317.115
G1 X 180.420 Y1316.710
G1 X 180.514 Y1316.325
G1 X 180.666 Y1315.966
G1 X 180.869 Y1315.639
G1 X 181.119 Y1315.347
G1 X 181.411 Y1315.097
G1 X 181.738 Y1314.894
G1 X 182.097 Y1314.743
G1 X 182.481 Y1314.648
G1 X 182.887 Y1314.615
G1 X 183.293 Y1314.648
G1 X 183.677 Y1314.743
G1 X 184.036 Y1314.894
G1 X 184.363 Y1315.097
G1 X 184.655 Y1315.347
G1 X 184.905 Y1315.639
G1 X 185.108 Y1315.966
G1 X 185.260 Y1316.325
G1 X 185.354 Y1316.710
G1 X 185.387 Y1317.115
G1 X 185.354 Y1317.521
G1 X 185.260 Y1317.905
G1 X 185.108 Y1318.264
G1 X 184.905 Y1318.592
G1 X 184.655 Y1318.883
G1 X 184.363 Y1319.133
G1 X 184.036 Y1319.336
G1 X 183.677 Y1319.488
G1 X 183.292 Y1319.582
G1 X 182.887 Y1319.615
F150
G1 Z -15.000
F400
G42
G1 X 183.292 Y1319.582
G1 X 183.677 Y1319.488
G1 X 184.036 Y1319.336
G1 X 184.363 Y1319.133
G1 X 184.655 Y1318.883
G1 X 184.905 Y1318.592
G1 X 185.108 Y1318.264
G1 X 185.260 Y1317.905
G1 X 185.354 Y1317.521
G1 X 185.387 Y1317.115
G1 X 185.354 Y1316.710
G1 X 185.260 Y1316.325
G1 X 185.108 Y1315.966
G1 X 184.905 Y1315.639
G1 X 184.655 Y1315.347
G1 X 184.363 Y1315.097
G1 X 184.036 Y1314.894
G1 X 183.677 Y1314.743
G1 X 183.293 Y1314.648
G1 X 182.887 Y1314.615
G1 X 182.481 Y1314.648
G1 X 182.097 Y1314.743
G1 X 181.738 Y1314.894
G1 X 181.411 Y1315.097
G1 X 181.119 Y1315.347
G1 X 180.869 Y1315.639
G1 X 180.666 Y1315.966
G1 X 180.514 Y1316.325
G1 X 180.420 Y1316.710
G1 X 180.387 Y1317.115
G1 X 180.420 Y1317.521
G1 X 180.514 Y1317.905
G1 X 180.666 Y1318.264
G1 X 180.869 Y1318.592
G1 X 181.119 Y1318.883
G1 X 181.411 Y1319.133
G1 X 181.738 Y1319.336
G1 X 182.097 Y1319.488
G1 X 182.481 Y1319.582
F150
G1 Z -18.000
F400
G41
G1 X 182.097 Y1319.488
G1 X 181.738 Y1319.336
G1 X 181.411 Y1319.133
G1 X 181.119 Y1318.883
G1 X 180.869 Y1318.592
G1 X 180.666 Y1318.264
G1 X 180.514 Y1317.905
G1 X 180.420 Y1317.521
G1 X 180.387 Y1317.115
G1 X 180.420 Y1316.710
G1 X 180.514 Y1316.325
G1 X 180.666 Y1315.966
G1 X 180.869 Y1315.639
G1 X 181.119 Y1315.347
G1 X 181.411 Y1315.097
G1 X 181.738 Y1314.894
G1 X 182.097 Y1314.743
G1 X 182.481 Y1314.648
G1 X 182.887 Y1314.615
G1 X 183.293 Y1314.648
G1 X 183.677 Y1314.743
G1 X 184.036 Y1314.894
G1 X 184.363 Y1315.097
G1 X 184.655 Y1315.347
G1 X 184.905 Y1315.639
G1 X 185.108 Y1315.966
G1 X 185.260 Y1316.325
G1 X 185.354 Y1316.710
G1 X 185.387 Y1317.115
G1 X 185.354 Y1317.521
G1 X 185.260 Y1317.905
G1 X 185.108 Y1318.264
G1 X 184.905 Y1318.592
G1 X 184.655 Y1318.883
G1 X 184.363 Y1319.133
G1 X 184.036 Y1319.336
G1 X 183.677 Y1319.488
G1 X 183.292 Y1319.582
G1 X 182.887 Y1319.615
F150
G1 Z   3.000
G0 Z  15.000 
G40
M9 M5

(* SHAPE Nr: 12 *)
G0 X 529.557 Y1261.353
M3 M8
G42
F400
G1 X 528.641 Y1262.431
G2 X 530.795 Y1264.263 I   1.994 J  -0.161
G0 Z   3.000 
F150
G1 Z  -5.000
F400
G1 X 531.200 Y1264.231
G1 X 531.585 Y1264.136
G1 X 531.944 Y1263.984
G1 X 532.271 Y1263.781
G1 X 532.563 Y1263.531
G1 X 532.813 Y1263.240
G1 X 533.016 Y1262.912
G1 X 533.168 Y1262.554
G1 X 533.262 Y1262.169
G1 X 533.295 Y1261.763
G1 X 533.262 Y1261.358
G1 X 533.168 Y1260.973
G1 X 533.016 Y1260.614
G1 X 532.813 Y1260.287
G1 X 532.563 Y1259.996
G1 X 532.271 Y1259.746
G1 X 531.944 Y1259.542
G1 X 531.585 Y1259.391
G1 X 531.200 Y1259.296
G1 X 530.795 Y1259.263
G1 X 530.389 Y1259.296
G1 X 530.005 Y1259.391
G1 X 529.646 Y1259.542
G1 X 529.319 Y1259.746
G1 X 529.027 Y1259.996
G1 X 528.777 Y1260.287
G1 X 528.574 Y1260.614
G1 X 528.422 Y1260.973
G1 X 528.328 Y1261.358
G1 X 528.295 Y1261.763
G1 X 528.328 Y1262.169
G1 X 528.422 Y1262.554
G1 X 528.574 Y1262.912
G1 X 528.777 Y1263.240
G1 X 529.027 Y1263.531
G1 X 529.319 Y1263.781
G1 X 529.646 Y1263.984
G1 X 530.005 Y1264.136
G1 X 530.389 Y1264.231
F150
G1 Z -10.000
F400
G41
G1 X 530.005 Y1264.136
G1 X 529.646 Y1263.984
G1 X 529.319 Y1263.781
G1 X 529.027 Y1263.531
G1 X 528.777 Y1263.240
G1 X 528.574 Y1262.912
G1 X 528.422 Y1262.554
G1 X 528.328 Y1262.169
G1 X 528.295 Y1261.763
G1 X 528.328 Y1261.358
G1 X 528.422 Y1260.973
G1 X 528.574 Y1260.614
G1 X 528.777 Y1260.287
G1 X 529.027 Y1259.996
G1 X 529.319 Y1259.746
G1 X 529.646 Y1259.542
G1 X 530.005 Y1259.391
G1 X 530.389 Y1259.296
G1 X 530.795 Y1259.263
G1 X 531.200 Y1259.296
G1 X 531.585 Y1259.391
G1 X 531.944 Y1259.542
G1 X 532.271 Y1259.746
G1 X 532.563 Y1259.996
G1 X 532.813 Y1260.287
G1 X 533.016 Y1260.614
G1 X 533.168 Y1260.973
G1 X 533.262 Y1261.358
G1 X 533.295 Y1261.763
G1 X 533.262 Y1262.169
G1 X 533.168 Y1262.554
G1 X 533.016 Y1262.912
G1 X 532.813 Y1263.240
G1 X 532.563 Y1263.531
G1 X 532.271 Y1263.781
G1 X 531.944 Y1263.984
G1 X 531.585 Y1264.136
G1 X 531.200 Y1264.231
G1 X 530.795 Y1264.263
F150
G1 Z -15.000
F400
G42
G1 X 531.200 Y1264.231
G1 X 531.585 Y1264.136
G1 X 531.944 Y1263.984
G1 X 532.271 Y1263.781
G1 X 532.563 Y1263.531
G1 X 532.813 Y1263.240
G1 X 533.016 Y1262.912
G1 X 533.168 Y1262.554
G1 X 533.262 Y1262.169
G1 X 533.295 Y1261.763
G1 X 533.262 Y1261.358
G1 X 533.168 Y1260.973
G1 X 533.016 Y1260.614
G1 X 532.813 Y1260.287
G1 X 532.563 Y1259.996
G1 X 532.271 Y1259.746
G1 X 531.944 Y1259.542
G1 X 531.585 Y1259.391
G1 X 531.200 Y1259.296
G1 X 530.795 Y1259.263
G1 X 530.389 Y1259.296
G1 X 530.005 Y1259.391
G1 X 529.646 Y1259.542
G1 X 529.319 Y1259.746
G1 X 529.027 Y1259.996
G1 X 528.777 Y1260.287
G1 X 528.574 Y1260.614
G1 X 528.422 Y1260.973
G1 X 528.328 Y1261.358
G1 X 528.295 Y1261.763
G1 X 528.328 Y1262.169
G1 X 528.422 Y1262.554
G1 X 528.574 Y1262.912
G1 X 528.777 Y1263.240
G1 X 529.027 Y1263.531
G1 X 529.319 Y1263.781
G1 X 529.646 Y1263.984
G1 X 530.005 Y1264.136
G1 X 530.389 Y1264.231
F150
G1 Z -18.000
F400
G41
G1 X 530.005 Y1264.136
G1 X 529.646 Y1263.984
G1 X 529.319 Y1263.781
G1 X 529.027 Y1263.531
G1 X 528.777 Y1263.240
G1 X 528.574 Y1262.912
G1 X 528.422 Y1262.554
G1 X 528.328 Y1262.169
G1 X 528.295 Y1261.763
G1 X 528.328 Y1261.358
G1 X 528.422 Y1260.973
G1 X 528.574 Y1260.614
G1 X 528.777 Y1260.287
G1 X 529.027 Y1259.996
G1 X 529.319 Y1259.746
G1 X 529.646 Y1259.542
G1 X 530.005 Y1259.391
G1 X 530.389 Y1259.296
G1 X 530.795 Y1259.263
G1 X 531.200 Y1259.296
G1 X 531.585 Y1259.391
G1 X 531.944 Y1259.542
G1 X 532.271 Y1259.746
G1 X 532.563 Y1259.996
G1 X 532.813 Y1260.287
G1 X 533.016 Y1260.614
G1 X 533.168 Y1260.973
G1 X 533.262 Y1261.358
G1 X 533.295 Y1261.763
G1 X 533.262 Y1262.169
G1 X 533.168 Y1262.554
G1 X 533.016 Y1262.912
G1 X 532.813 Y1263.240
G1 X 532.563 Y1263.531
G1 X 532.271 Y1263.781
G1 X 531.944 Y1263.984
G1 X 531.585 Y1264.136
G1 X 531.200 Y1264.231
G1 X 530.795 Y1264.263
F150
G1 Z   3.000
G0 Z  15.000 
G40
M9 M5

(* SHAPE Nr: 13 *)
G0 X 469.874 Y1260.358
M3 M8
G42
F400
G1 X 468.958 Y1261.435
G2 X 471.112 Y1263.268 I   1.994 J  -0.161
G0 Z   3.000 
F150
G1 Z  -5.000
F400
G1 X 471.518 Y1263.236
G1 X 471.902 Y1263.141
G1 X 472.261 Y1262.989
G1 X 472.589 Y1262.786
G1 X 472.880 Y1262.536
G1 X 473.130 Y1262.245
G1 X 473.333 Y1261.917
G1 X 473.485 Y1261.559
G1 X 473.579 Y1261.174
G1 X 473.612 Y1260.768
G1 X 473.579 Y1260.363
G1 X 473.485 Y1259.978
G1 X 473.333 Y1259.619
G1 X 473.130 Y1259.292
G1 X 472.880 Y1259.001
G1 X 472.589 Y1258.751
G1 X 472.261 Y1258.547
G1 X 471.902 Y1258.396
G1 X 471.518 Y1258.301
G1 X 471.112 Y1258.268
G1 X 470.707 Y1258.301
G1 X 470.322 Y1258.396
G1 X 469.963 Y1258.547
G1 X 469.636 Y1258.751
G1 X 469.344 Y1259.001
G1 X 469.094 Y1259.292
G1 X 468.891 Y1259.619
G1 X 468.740 Y1259.978
G1 X 468.645 Y1260.363
G1 X 468.612 Y1260.768
G1 X 468.645 Y1261.174
G1 X 468.740 Y1261.559
G1 X 468.891 Y1261.917
G1 X 469.094 Y1262.245
G1 X 469.344 Y1262.536
G1 X 469.636 Y1262.786
G1 X 469.963 Y1262.989
G1 X 470.322 Y1263.141
G1 X 470.707 Y1263.236
F150
G1 Z -10.000
F400
G41
G1 X 470.322 Y1263.141
G1 X 469.963 Y1262.989
G1 X 469.636 Y1262.786
G1 X 469.344 Y1262.536
G1 X 469.094 Y1262.245
G1 X 468.891 Y1261.917
G1 X 468.740 Y1261.559
G1 X 468.645 Y1261.174
G1 X 468.612 Y1260.768
G1 X 468.645 Y1260.363
G1 X 468.740 Y1259.978
G1 X 468.891 Y1259.619
G1 X 469.094 Y1259.292
G1 X 469.344 Y1259.001
G1 X 469.636 Y1258.751
G1 X 469.963 Y1258.547
G1 X 470.322 Y1258.396
G1 X 470.707 Y1258.301
G1 X 471.112 Y1258.268
G1 X 471.518 Y1258.301
G1 X 471.902 Y1258.396
G1 X 472.261 Y1258.547
G1 X 472.589 Y1258.751
G1 X 472.880 Y1259.001
G1 X 473.130 Y1259.292
G1 X 473.333 Y1259.619
G1 X 473.485 Y1259.978
G1 X 473.579 Y1260.363
G1 X 473.612 Y1260.768
G1 X 473.579 Y1261.174
G1 X 473.485 Y1261.559
G1 X 473.333 Y1261.917
G1 X 473.130 Y1262.245
G1 X 472.880 Y1262.536
G1 X 472.589 Y1262.786
G1 X 472.261 Y1262.989
G1 X 471.902 Y1263.141
G1 X 471.518 Y1263.236
G1 X 471.112 Y1263.268
F150
G1 Z -15.000
F400
G42
G1 X 471.518 Y1263.236
G1 X 471.902 Y1263.141
G1 X 472.261 Y1262.989
G1 X 472.589 Y1262.786
G1 X 472.880 Y1262.536
G1 X 473.130 Y1262.245
G1 X 473.333 Y1261.917
G1 X 473.485 Y1261.559
G1 X 473.579 Y1261.174
G1 X 473.612 Y1260.768
G1 X 473.579 Y1260.363
G1 X 473.485 Y1259.978
G1 X 473.333 Y1259.619
G1 X 473.130 Y1259.292
G1 X 472.880 Y1259.001
G1 X 472.589 Y1258.751
G1 X 472.261 Y1258.547
G1 X 471.902 Y1258.396
G1 X 471.518 Y1258.301
G1 X 471.112 Y1258.268
G1 X 470.707 Y1258.301
G1 X 470.322 Y1258.396
G1 X 469.963 Y1258.547
G1 X 469.636 Y1258.751
G1 X 469.344 Y1259.001
G1 X 469.094 Y1259.292
G1 X 468.891 Y1259.619
G1 X 468.740 Y1259.978
G1 X 468.645 Y1260.363
G1 X 468.612 Y1260.768
G1 X 468.645 Y1261.174
G1 X 468.740 Y1261.559
G1 X 468.891 Y1261.917
G1 X 469.094 Y1262.245
G1 X 469.344 Y1262.536
G1 X 469.636 Y1262.786
G1 X 469.963 Y1262.989
G1 X 470.322 Y1263.141
G1 X 470.707 Y1263.236
F150
G1 Z -18.000
F400
G41
G1 X 470.322 Y1263.141
G1 X 469.963 Y1262.989
G1 X 469.636 Y1262.786
G1 X 469.344 Y1262.536
G1 X 469.094 Y1262.245
G1 X 468.891 Y1261.917
G1 X 468.740 Y1261.559
G1 X 468.645 Y1261.174
G1 X 468.612 Y1260.768
G1 X 468.645 Y1260.363
G1 X 468.740 Y1259.978
G1 X 468.891 Y1259.619
G1 X 469.094 Y1259.292
G1 X 469.344 Y1259.001
G1 X 469.636 Y1258.751
G1 X 469.963 Y1258.547
G1 X 470.322 Y1258.396
G1 X 470.707 Y1258.301
G1 X 471.112 Y1258.268
G1 X 471.518 Y1258.301
G1 X 471.902 Y1258.396
G1 X 472.261 Y1258.547
G1 X 472.589 Y1258.751
G1 X 472.880 Y1259.001
G1 X 473.130 Y1259.292
G1 X 473.333 Y1259.619
G1 X 473.485 Y1259.978
G1 X 473.579 Y1260.363
G1 X 473.612 Y1260.768
G1 X 473.579 Y1261.174
G1 X 473.485 Y1261.559
G1 X 473.333 Y1261.917
G1 X 473.130 Y1262.245
G1 X 472.880 Y1262.536
G1 X 472.589 Y1262.786
G1 X 472.261 Y1262.989
G1 X 471.902 Y1263.141
G1 X 471.518 Y1263.236
G1 X 471.112 Y1263.268
F150
G1 Z   3.000
G0 Z  15.000 
G40
M9 M5

(* SHAPE Nr: 14 *)
G0 X 508.661 Y1259.264
M3 M8
G42
F400
G1 X 507.745 Y1260.341
G2 X 509.899 Y1262.174 I   1.994 J  -0.161
G0 Z   3.000 
F150
G1 Z  -5.000
F400
G1 X 510.305 Y1262.142
G1 X 510.689 Y1262.047
G1 X 511.048 Y1261.895
G1 X 511.376 Y1261.692
G1 X 511.667 Y1261.442
G1 X 511.917 Y1261.151
G1 X 512.120 Y1260.823
G1 X 512.272 Y1260.464
G1 X 512.366 Y1260.080
G1 X 512.399 Y1259.674
G1 X 512.366 Y1259.269
G1 X 512.272 Y1258.884
G1 X 512.120 Y1258.525
G1 X 511.917 Y1258.198
G1 X 511.667 Y1257.906
G1 X 511.376 Y1257.657
G1 X 511.048 Y1257.453
G1 X 510.689 Y1257.302
G1 X 510.305 Y1257.207
G1 X 509.899 Y1257.174
G1 X 509.494 Y1257.207
G1 X 509.109 Y1257.302
G1 X 508.750 Y1257.453
G1 X 508.423 Y1257.657
G1 X 508.131 Y1257.906
G1 X 507.881 Y1258.198
G1 X 507.678 Y1258.525
G1 X 507.527 Y1258.884
G1 X 507.432 Y1259.269
G1 X 507.399 Y1259.674
G1 X 507.432 Y1260.080
G1 X 507.527 Y1260.464
G1 X 507.678 Y1260.823
G1 X 507.882 Y1261.151
G1 X 508.131 Y1261.442
G1 X 508.423 Y1261.692
G1 X 508.750 Y1261.895
G1 X 509.109 Y1262.047
G1 X 509.494 Y1262.141
F150
G1 Z -10.000
F400
G41
G1 X 509.109 Y1262.047
G1 X 508.750 Y1261.895
G1 X 508.423 Y1261.692
G1 X 508.131 Y1261.442
G1 X 507.882 Y1261.151
G1 X 507.678 Y1260.823
G1 X 507.527 Y1260.464
G1 X 507.432 Y1260.080
G1 X 507.399 Y1259.674
G1 X 507.432 Y1259.269
G1 X 507.527 Y1258.884
G1 X 507.678 Y1258.525
G1 X 507.881 Y1258.198
G1 X 508.131 Y1257.906
G1 X 508.423 Y1257.657
G1 X 508.750 Y1257.453
G1 X 509.109 Y1257.302
G1 X 509.494 Y1257.207
G1 X 509.899 Y1257.174
G1 X 510.305 Y1257.207
G1 X 510.689 Y1257.302
G1 X 511.048 Y1257.453
G1 X 511.376 Y1257.657
G1 X 511.667 Y1257.906
G1 X 511.917 Y1258.198
G1 X 512.120 Y1258.525
G1 X 512.272 Y1258.884
G1 X 512.366 Y1259.269
G1 X 512.399 Y1259.674
G1 X 512.366 Y1260.080
G1 X 512.272 Y1260.464
G1 X 512.120 Y1260.823
G1 X 511.917 Y1261.151
G1 X 511.667 Y1261.442
G1 X 511.376 Y1261.692
G1 X 511.048 Y1261.895
G1 X 510.689 Y1262.047
G1 X 510.305 Y1262.142
G1 X 509.899 Y1262.174
F150
G1 Z -15.000
F400
G42
G1 X 510.305 Y1262.142
G1 X 510.689 Y1262.047
G1 X 511.048 Y1261.895
G1 X 511.376 Y1261.692
G1 X 511.667 Y1261.442
G1 X 511.917 Y1261.151
G1 X 512.120 Y1260.823
G1 X 512.272 Y1260.464
G1 X 512.366 Y1260.080
G1 X 512.399 Y1259.674
G1 X 512.366 Y1259.269
G1 X 512.272 Y1258.884
G1 X 512.120 Y1258.525
G1 X 511.917 Y1258.198
G1 X 511.667 Y1257.906
G1 X 511.376 Y1257.657
G1 X 511.048 Y1257.453
G1 X 510.689 Y1257.302
G1 X 510.305 Y1257.207
G1 X 509.899 Y1257.174
G1 X 509.494 Y1257.207
G1 X 509.109 Y1257.302
G1 X 508.750 Y1257.453
G1 X 508.423 Y1257.657
G1 X 508.131 Y1257.906
G1 X 507.881 Y1258.198
G1 X 507.678 Y1258.525
G1 X 507.527 Y1258.884
G1 X 507.432 Y1259.269
G1 X 507.399 Y1259.674
G1 X 507.432 Y1260.080
G1 X 507.527 Y1260.464
G1 X 507.678 Y1260.823
G1 X 507.882 Y1261.151
G1 X 508.131 Y1261.442
G1 X 508.423 Y1261.692
G1 X 508.750 Y1261.895
G1 X 509.109 Y1262.047
G1 X 509.494 Y1262.141
F150
G1 Z -18.000
F400
G41
G1 X 509.109 Y1262.047
G1 X 508.750 Y1261.895
G1 X 508.423 Y1261.692
G1 X 508.131 Y1261.442
G1 X 507.882 Y1261.151
G1 X 507.678 Y1260.823
G1 X 507.527 Y1260.464
G1 X 507.432 Y1260.080
G1 X 507.399 Y1259.674
G1 X 507.432 Y1259.269
G1 X 507.527 Y1258.884
G1 X 507.678 Y1258.525
G1 X 507.881 Y1258.198
G1 X 508.131 Y1257.906
G1 X 508.423 Y1257.657
G1 X 508.750 Y1257.453
G1 X 509.109 Y1257.302
G1 X 509.494 Y1257.207
G1 X 509.899 Y1257.174
G1 X 510.305 Y1257.207
G1 X 510.689 Y1257.302
G1 X 511.048 Y1257.453
G1 X 511.376 Y1257.657
G1 X 511.667 Y1257.906
G1 X 511.917 Y1258.198
G1 X 512.120 Y1258.525
G1 X 512.272 Y1258.884
G1 X 512.366 Y1259.269
G1 X 512.399 Y1259.674
G1 X 512.366 Y1260.080
G1 X 512.272 Y1260.464
G1 X 512.120 Y1260.823
G1 X 511.917 Y1261.151
G1 X 511.667 Y1261.442
G1 X 511.376 Y1261.692
G1 X 511.048 Y1261.895
G1 X 510.689 Y1262.047
G1 X 510.305 Y1262.142
G1 X 509.899 Y1262.174
F150
G1 Z   3.000
G0 Z  15.000 
G40
M9 M5

(* SHAPE Nr: 15 *)
G0 X 449.142 Y1257.018
M3 M8
G42
F400
G1 X 448.225 Y1258.095
G2 X 450.380 Y1259.928 I   1.994 J  -0.161
G0 Z   3.000 
F150
G1 Z  -5.000
F400
G1 X 450.785 Y1259.895
G1 X 451.170 Y1259.800
G1 X 451.528 Y1259.648
G1 X 451.856 Y1259.445
G1 X 452.147 Y1259.195
G1 X 452.397 Y1258.904
G1 X 452.601 Y1258.576
G1 X 452.752 Y1258.218
G1 X 452.847 Y1257.833
G1 X 452.880 Y1257.428
G1 X 452.847 Y1257.022
G1 X 452.752 Y1256.637
G1 X 452.601 Y1256.279
G1 X 452.397 Y1255.951
G1 X 452.147 Y1255.660
G1 X 451.856 Y1255.410
G1 X 451.528 Y1255.207
G1 X 451.170 Y1255.055
G1 X 450.785 Y1254.960
G1 X 450.380 Y1254.928
G1 X 449.974 Y1254.960
G1 X 449.589 Y1255.055
G1 X 449.231 Y1255.207
G1 X 448.903 Y1255.410
G1 X 448.612 Y1255.660
G1 X 448.362 Y1255.951
G1 X 448.159 Y1256.279
G1 X 448.007 Y1256.637
G1 X 447.912 Y1257.022
G1 X 447.880 Y1257.428
G1 X 447.912 Y1257.833
G1 X 448.007 Y1258.218
G1 X 448.159 Y1258.576
G1 X 448.362 Y1258.904
G1 X 448.612 Y1259.195
G1 X 448.903 Y1259.445
G1 X 449.231 Y1259.648
G1 X 449.589 Y1259.800
G1 X 449.974 Y1259.895
F150
G1 Z -10.000
F400
G41
G1 X 449.589 Y1259.800
G1 X 449.231 Y1259.648
G1 X 448.903 Y1259.445
G1 X 448.612 Y1259.195
G1 X 448.362 Y1258.904
G1 X 448.159 Y1258.576
G1 X 448.007 Y1258.218
G1 X 447.912 Y1257.833
G1 X 447.880 Y1257.428
G1 X 447.912 Y1257.022
G1 X 448.007 Y1256.637
G1 X 448.159 Y1256.279
G1 X 448.362 Y1255.951
G1 X 448.612 Y1255.660
G1 X 448.903 Y1255.410
G1 X 449.231 Y1255.207
G1 X 449.589 Y1255.055
G1 X 449.974 Y1254.960
G1 X 450.380 Y1254.928
G1 X 450.785 Y1254.960
G1 X 451.170 Y1255.055
G1 X 451.528 Y1255.207
G1 X 451.856 Y1255.410
G1 X 452.147 Y1255.660
G1 X 452.397 Y1255.951
G1 X 452.601 Y1256.279
G1 X 452.752 Y1256.637
G1 X 452.847 Y1257.022
G1 X 452.880 Y1257.428
G1 X 452.847 Y1257.833
G1 X 452.752 Y1258.218
G1 X 452.601 Y1258.576
G1 X 452.397 Y1258.904
G1 X 452.147 Y1259.195
G1 X 451.856 Y1259.445
G1 X 451.528 Y1259.648
G1 X 451.170 Y1259.800
G1 X 450.785 Y1259.895
G1 X 450.380 Y1259.928
F150
G1 Z -15.000
F400
G42
G1 X 450.785 Y1259.895
G1 X 451.170 Y1259.800
G1 X 451.528 Y1259.648
G1 X 451.856 Y1259.445
G1 X 452.147 Y1259.195
G1 X 452.397 Y1258.904
G1 X 452.601 Y1258.576
G1 X 452.752 Y1258.218
G1 X 452.847 Y1257.833
G1 X 452.880 Y1257.428
G1 X 452.847 Y1257.022
G1 X 452.752 Y1256.637
G1 X 452.601 Y1256.279
G1 X 452.397 Y1255.951
G1 X 452.147 Y1255.660
G1 X 451.856 Y1255.410
G1 X 451.528 Y1255.207
G1 X 451.170 Y1255.055
G1 X 450.785 Y1254.960
G1 X 450.380 Y1254.928
G1 X 449.974 Y1254.960
G1 X 449.589 Y1255.055
G1 X 449.231 Y1255.207
G1 X 448.903 Y1255.410
G1 X 448.612 Y1255.660
G1 X 448.362 Y1255.951
G1 X 448.159 Y1256.279
G1 X 448.007 Y1256.637
G1 X 447.912 Y1257.022
G1 X 447.880 Y1257.428
G1 X 447.912 Y1257.833
G1 X 448.007 Y1258.218
G1 X 448.159 Y1258.576
G1 X 448.362 Y1258.904
G1 X 448.612 Y1259.195
G1 X 448.903 Y1259.445
G1 X 449.231 Y1259.648
G1 X 449.589 Y1259.800
G1 X 449.974 Y1259.895
F150
G1 Z -18.000
F400
G41
G1 X 449.589 Y1259.800
G1 X 449.231 Y1259.648
G1 X 448.903 Y1259.445
G1 X 448.612 Y1259.195
G1 X 448.362 Y1258.904
G1 X 448.159 Y1258.576
G1 X 448.007 Y1258.218
G1 X 447.912 Y1257.833
G1 X 447.880 Y1257.428
G1 X 447.912 Y1257.022
G1 X 448.007 Y1256.637
G1 X 448.159 Y1256.279
G1 X 448.362 Y1255.951
G1 X 448.612 Y1255.660
G1 X 448.903 Y1255.410
G1 X 449.231 Y1255.207
G1 X 449.589 Y1255.055
G1 X 449.974 Y1254.960
G1 X 450.380 Y1254.928
G1 X 450.785 Y1254.960
G1 X 451.170 Y1255.055
G1 X 451.528 Y1255.207
G1 X 451.856 Y1255.410
G1 X 452.147 Y1255.660
G1 X 452.397 Y1255.951
G1 X 452.601 Y1256.279
G1 X 452.752 Y1256.637
G1 X 452.847 Y1257.022
G1 X 452.880 Y1257.428
G1 X 452.847 Y1257.833
G1 X 452.752 Y1258.218
G1 X 452.601 Y1258.576
G1 X 452.397 Y1258.904
G1 X 452.147 Y1259.195
G1 X 451.856 Y1259.445
G1 X 451.528 Y1259.648
G1 X 451.170 Y1259.800
G1 X 450.785 Y1259.895
G1 X 450.380 Y1259.928
F150
G1 Z   3.000
G0 Z  15.000 
G40
M9 M5

(* SHAPE Nr: 16 *)
G0 X 408.679 Y1255.284
M3 M8
G42
F400
G1 X 407.763 Y1256.361
G2 X 409.917 Y1258.194 I   1.994 J  -0.161
G0 Z   3.000 
F150
G1 Z  -5.000
F400
G1 X 410.322 Y1258.161
G1 X 410.707 Y1258.067
G1 X 411.066 Y1257.915
G1 X 411.393 Y1257.712
G1 X 411.685 Y1257.462
G1 X 411.934 Y1257.171
G1 X 412.138 Y1256.843
G1 X 412.289 Y1256.484
G1 X 412.384 Y1256.100
G1 X 412.417 Y1255.694
G1 X 412.384 Y1255.289
G1 X 412.289 Y1254.904
G1 X 412.138 Y1254.545
G1 X 411.935 Y1254.218
G1 X 411.685 Y1253.926
G1 X 411.393 Y1253.676
G1 X 411.066 Y1253.473
G1 X 410.707 Y1253.322
G1 X 410.322 Y1253.227
G1 X 409.917 Y1253.194
G1 X 409.511 Y1253.227
G1 X 409.127 Y1253.322
G1 X 408.768 Y1253.473
G1 X 408.440 Y1253.676
G1 X 408.149 Y1253.926
G1 X 407.899 Y1254.218
G1 X 407.696 Y1254.545
G1 X 407.544 Y1254.904
G1 X 407.450 Y1255.289
G1 X 407.417 Y1255.694
G1 X 407.450 Y1256.100
G1 X 407.544 Y1256.484
G1 X 407.696 Y1256.843
G1 X 407.899 Y1257.171
G1 X 408.149 Y1257.462
G1 X 408.440 Y1257.712
G1 X 408.768 Y1257.915
G1 X 409.127 Y1258.067
G1 X 409.511 Y1258.161
F150
G1 Z -10.000
F400
G41
G1 X 409.127 Y1258.067
G1 X 408.768 Y1257.915
G1 X 408.440 Y1257.712
G1 X 408.149 Y1257.462
G1 X 407.899 Y1257.171
G1 X 407.696 Y1256.843
G1 X 407.544 Y1256.484
G1 X 407.450 Y1256.100
G1 X 407.417 Y1255.694
G1 X 407.450 Y1255.289
G1 X 407.544 Y1254.904
G1 X 407.696 Y1254.545
G1 X 407.899 Y1254.218
G1 X 408.149 Y1253.926
G1 X 408.440 Y1253.676
G1 X 408.768 Y1253.473
G1 X 409.127 Y1253.322
G1 X 409.511 Y1253.227
G1 X 409.917 Y1253.194
G1 X 410.322 Y1253.227
G1 X 410.707 Y1253.322
G1 X 411.066 Y1253.473
G1 X 411.393 Y1253.676
G1 X 411.685 Y1253.926
G1 X 411.935 Y1254.218
G1 X 412.138 Y1254.545
G1 X 412.289 Y1254.904
G1 X 412.384 Y1255.289
G1 X 412.417 Y1255.694
G1 X 412.384 Y1256.100
G1 X 412.289 Y1256.484
G1 X 412.138 Y1256.843
G1 X 411.934 Y1257.171
G1 X 411.685 Y1257.462
G1 X 411.393 Y1257.712
G1 X 411.066 Y1257.915
G1 X 410.707 Y1258.067
G1 X 410.322 Y1258.161
G1 X 409.917 Y1258.194
F150
G1 Z -15.000
F400
G42
G1 X 410.322 Y1258.161
G1 X 410.707 Y1258.067
G1 X 411.066 Y1257.915
G1 X 411.393 Y1257.712
G1 X 411.685 Y1257.462
G1 X 411.934 Y1257.171
G1 X 412.138 Y1256.843
G1 X 412.289 Y1256.484
G1 X 412.384 Y1256.100
G1 X 412.417 Y1255.694
G1 X 412.384 Y1255.289
G1 X 412.289 Y1254.904
G1 X 412.138 Y1254.545
G1 X 411.935 Y1254.218
G1 X 411.685 Y1253.926
G1 X 411.393 Y1253.676
G1 X 411.066 Y1253.473
G1 X 410.707 Y1253.322
G1 X 410.322 Y1253.227
G1 X 409.917 Y1253.194
G1 X 409.511 Y1253.227
G1 X 409.127 Y1253.322
G1 X 408.768 Y1253.473
G1 X 408.440 Y1253.676
G1 X 408.149 Y1253.926
G1 X 407.899 Y1254.218
G1 X 407.696 Y1254.545
G1 X 407.544 Y1254.904
G1 X 407.450 Y1255.289
G1 X 407.417 Y1255.694
G1 X 407.450 Y1256.100
G1 X 407.544 Y1256.484
G1 X 407.696 Y1256.843
G1 X 407.899 Y1257.171
G1 X 408.149 Y1257.462
G1 X 408.440 Y1257.712
G1 X 408.768 Y1257.915
G1 X 409.127 Y1258.067
G1 X 409.511 Y1258.161
F150
G1 Z -18.000
F400
G41
G1 X 409.127 Y1258.067
G1 X 408.768 Y1257.915
G1 X 408.440 Y1257.712
G1 X 408.149 Y1257.462
G1 X 407.899 Y1257.171
G1 X 407.696 Y1256.843
G1 X 407.544 Y1256.484
G1 X 407.450 Y1256.100
G1 X 407.417 Y1255.694
G1 X 407.450 Y1255.289
G1 X 407.544 Y1254.904
G1 X 407.696 Y1254.545
G1 X 407.899 Y1254.218
G1 X 408.149 Y1253.926
G1 X 408.440 Y1253.676
G1 X 408.768 Y1253.473
G1 X 409.127 Y1253.322
G1 X 409.511 Y1253.227
G1 X 409.917 Y1253.194
G1 X 410.322 Y1253.227
G1 X 410.707 Y1253.322
G1 X 411.066 Y1253.473
G1 X 411.393 Y1253.676
G1 X 411.685 Y1253.926
G1 X 411.935 Y1254.218
G1 X 412.138 Y1254.545
G1 X 412.289 Y1254.904
G1 X 412.384 Y1255.289
G1 X 412.417 Y1255.694
G1 X 412.384 Y1256.100
G1 X 412.289 Y1256.484
G1 X 412.138 Y1256.843
G1 X 411.934 Y1257.171
G1 X 411.685 Y1257.462
G1 X 411.393 Y1257.712
G1 X 411.066 Y1257.915
G1 X 410.707 Y1258.067
G1 X 410.322 Y1258.161
G1 X 409.917 Y1258.194
F150
G1 Z   3.000
G0 Z  15.000 
G40
M9 M5

(* SHAPE Nr: 17 *)
G0 X 387.844 Y1252.658
M3 M8
G42
F400
G1 X 386.928 Y1253.735
G2 X 389.082 Y1255.568 I   1.994 J  -0.161
G0 Z   3.000 
F150
G1 Z  -5.000
F400
G1 X 389.487 Y1255.535
G1 X 389.872 Y1255.440
G1 X 390.231 Y1255.289
G1 X 390.558 Y1255.085
G1 X 390.850 Y1254.836
G1 X 391.099 Y1254.544
G1 X 391.303 Y1254.217
G1 X 391.454 Y1253.858
G1 X 391.549 Y1253.473
G1 X 391.582 Y1253.068
G1 X 391.549 Y1252.662
G1 X 391.454 Y1252.278
G1 X 391.303 Y1251.919
G1 X 391.099 Y1251.591
G1 X 390.850 Y1251.300
G1 X 390.558 Y1251.050
G1 X 390.231 Y1250.847
G1 X 389.872 Y1250.695
G1 X 389.487 Y1250.601
G1 X 389.082 Y1250.568
G1 X 388.676 Y1250.601
G1 X 388.292 Y1250.695
G1 X 387.933 Y1250.847
G1 X 387.605 Y1251.050
G1 X 387.314 Y1251.300
G1 X 387.064 Y1251.591
G1 X 386.861 Y1251.919
G1 X 386.709 Y1252.278
G1 X 386.614 Y1252.662
G1 X 386.582 Y1253.068
G1 X 386.614 Y1253.473
G1 X 386.709 Y1253.858
G1 X 386.861 Y1254.217
G1 X 387.064 Y1254.544
G1 X 387.314 Y1254.836
G1 X 387.605 Y1255.086
G1 X 387.933 Y1255.289
G1 X 388.292 Y1255.440
G1 X 388.676 Y1255.535
F150
G1 Z -10.000
F400
G41
G1 X 388.292 Y1255.440
G1 X 387.933 Y1255.289
G1 X 387.605 Y1255.086
G1 X 387.314 Y1254.836
G1 X 387.064 Y1254.544
G1 X 386.861 Y1254.217
G1 X 386.709 Y1253.858
G1 X 386.614 Y1253.473
G1 X 386.582 Y1253.068
G1 X 386.614 Y1252.662
G1 X 386.709 Y1252.278
G1 X 386.861 Y1251.919
G1 X 387.064 Y1251.591
G1 X 387.314 Y1251.300
G1 X 387.605 Y1251.050
G1 X 387.933 Y1250.847
G1 X 388.292 Y1250.695
G1 X 388.676 Y1250.601
G1 X 389.082 Y1250.568
G1 X 389.487 Y1250.601
G1 X 389.872 Y1250.695
G1 X 390.231 Y1250.847
G1 X 390.558 Y1251.050
G1 X 390.850 Y1251.300
G1 X 391.099 Y1251.591
G1 X 391.303 Y1251.919
G1 X 391.454 Y1252.278
G1 X 391.549 Y1252.662
G1 X 391.582 Y1253.068
G1 X 391.549 Y1253.473
G1 X 391.454 Y1253.858
G1 X 391.303 Y1254.217
G1 X 391.099 Y1254.544
G1 X 390.850 Y1254.836
G1 X 390.558 Y1255.085
G1 X 390.231 Y1255.289
G1 X 389.872 Y1255.440
G1 X 389.487 Y1255.535
G1 X 389.082 Y1255.568
F150
G1 Z -15.000
F400
G42
G1 X 389.487 Y1255.535
G1 X 389.872 Y1255.440
G1 X 390.231 Y1255.289
G1 X 390.558 Y1255.085
G1 X 390.850 Y1254.836
G1 X 391.099 Y1254.544
G1 X 391.303 Y1254.217
G1 X 391.454 Y1253.858
G1 X 391.549 Y1253.473
G1 X 391.582 Y1253.068
G1 X 391.549 Y1252.662
G1 X 391.454 Y1252.278
G1 X 391.303 Y1251.919
G1 X 391.099 Y1251.591
G1 X 390.850 Y1251.300
G1 X 390.558 Y1251.050
G1 X 390.231 Y1250.847
G1 X 389.872 Y1250.695
G1 X 389.487 Y1250.601
G1 X 389.082 Y1250.568
G1 X 388.676 Y1250.601
G1 X 388.292 Y1250.695
G1 X 387.933 Y1250.847
G1 X 387.605 Y1251.050
G1 X 387.314 Y1251.300
G1 X 387.064 Y1251.591
G1 X 386.861 Y1251.919
G1 X 386.709 Y1252.278
G1 X 386.614 Y1252.662
G1 X 386.582 Y1253.068
G1 X 386.614 Y1253.473
G1 X 386.709 Y1253.858
G1 X 386.861 Y1254.217
G1 X 387.064 Y1254.544
G1 X 387.314 Y1254.836
G1 X 387.605 Y1255.086
G1 X 387.933 Y1255.289
G1 X 388.292 Y1255.440
G1 X 388.676 Y1255.535
F150
G1 Z -18.000
F400
G41
G1 X 388.292 Y1255.440
G1 X 387.933 Y1255.289
G1 X 387.605 Y1255.086
G1 X 387.314 Y1254.836
G1 X 387.064 Y1254.544
G1 X 386.861 Y1254.217
G1 X 386.709 Y1253.858
G1 X 386.614 Y1253.473
G1 X 386.582 Y1253.068
G1 X 386.614 Y1252.662
G1 X 386.709 Y1252.278
G1 X 386.861 Y1251.919
G1 X 387.064 Y1251.591
G1 X 387.314 Y1251.300
G1 X 387.605 Y1251.050
G1 X 387.933 Y1250.847
G1 X 388.292 Y1250.695
G1 X 388.676 Y1250.601
G1 X 389.082 Y1250.568
G1 X 389.487 Y1250.601
G1 X 389.872 Y1250.695
G1 X 390.231 Y1250.847
G1 X 390.558 Y1251.050
G1 X 390.850 Y1251.300
G1 X 391.099 Y1251.591
G1 X 391.303 Y1251.919
G1 X 391.454 Y1252.278
G1 X 391.549 Y1252.662
G1 X 391.582 Y1253.068
G1 X 391.549 Y1253.473
G1 X 391.454 Y1253.858
G1 X 391.303 Y1254.217
G1 X 391.099 Y1254.544
G1 X 390.850 Y1254.836
G1 X 390.558 Y1255.085
G1 X 390.231 Y1255.289
G1 X 389.872 Y1255.440
G1 X 389.487 Y1255.535
G1 X 389.082 Y1255.568
F150
G1 Z   3.000
G0 Z  15.000 
G40
M9 M5

(* SHAPE Nr: 18 *)
G0 X 347.860 Y1250.678
M3 M8
G42
F400
G1 X 346.944 Y1251.755
G2 X 349.098 Y1253.588 I   1.994 J  -0.161
G0 Z   3.000 
F150
G1 Z  -5.000
F400
G1 X 349.504 Y1253.555
G1 X 349.888 Y1253.460
G1 X 350.247 Y1253.308
G1 X 350.575 Y1253.105
G1 X 350.866 Y1252.855
G1 X 351.116 Y1252.564
G1 X 351.319 Y1252.236
G1 X 351.471 Y1251.878
G1 X 351.565 Y1251.493
G1 X 351.598 Y1251.088
G1 X 351.565 Y1250.682
G1 X 351.471 Y1250.297
G1 X 351.319 Y1249.939
G1 X 351.116 Y1249.611
G1 X 350.866 Y1249.320
G1 X 350.575 Y1249.070
G1 X 350.247 Y1248.867
G1 X 349.888 Y1248.715
G1 X 349.504 Y1248.620
G1 X 349.098 Y1248.588
G1 X 348.693 Y1248.620
G1 X 348.308 Y1248.715
G1 X 347.949 Y1248.867
G1 X 347.622 Y1249.070
G1 X 347.330 Y1249.320
G1 X 347.080 Y1249.611
G1 X 346.877 Y1249.939
G1 X 346.726 Y1250.297
G1 X 346.631 Y1250.682
G1 X 346.598 Y1251.088
G1 X 346.631 Y1251.493
G1 X 346.726 Y1251.878
G1 X 346.877 Y1252.236
G1 X 347.080 Y1252.564
G1 X 347.330 Y1252.855
G1 X 347.622 Y1253.105
G1 X 347.949 Y1253.308
G1 X 348.308 Y1253.460
G1 X 348.693 Y1253.555
F150
G1 Z -10.000
F400
G41
G1 X 348.308 Y1253.460
G1 X 347.949 Y1253.308
G1 X 347.622 Y1253.105
G1 X 347.330 Y1252.855
G1 X 347.080 Y1252.564
G1 X 346.877 Y1252.236
G1 X 346.726 Y1251.878
G1 X 346.631 Y1251.493
G1 X 346.598 Y1251.088
G1 X 346.631 Y1250.682
G1 X 346.726 Y1250.297
G1 X 346.877 Y1249.939
G1 X 347.080 Y1249.611
G1 X 347.330 Y1249.320
G1 X 347.622 Y1249.070
G1 X 347.949 Y1248.867
G1 X 348.308 Y1248.715
G1 X 348.693 Y1248.620
G1 X 349.098 Y1248.588
G1 X 349.504 Y1248.620
G1 X 349.888 Y1248.715
G1 X 350.247 Y1248.867
G1 X 350.575 Y1249.070
G1 X 350.866 Y1249.320
G1 X 351.116 Y1249.611
G1 X 351.319 Y1249.939
G1 X 351.471 Y1250.297
G1 X 351.565 Y1250.682
G1 X 351.598 Y1251.088
G1 X 351.565 Y1251.493
G1 X 351.471 Y1251.878
G1 X 351.319 Y1252.236
G1 X 351.116 Y1252.564
G1 X 350.866 Y1252.855
G1 X 350.575 Y1253.105
G1 X 350.247 Y1253.308
G1 X 349.888 Y1253.460
G1 X 349.504 Y1253.555
G1 X 349.098 Y1253.588
F150
G1 Z -15.000
F400
G42
G1 X 349.504 Y1253.555
G1 X 349.888 Y1253.460
G1 X 350.247 Y1253.308
G1 X 350.575 Y1253.105
G1 X 350.866 Y1252.855
G1 X 351.116 Y1252.564
G1 X 351.319 Y1252.236
G1 X 351.471 Y1251.878
G1 X 351.565 Y1251.493
G1 X 351.598 Y1251.088
G1 X 351.565 Y1250.682
G1 X 351.471 Y1250.297
G1 X 351.319 Y1249.939
G1 X 351.116 Y1249.611
G1 X 350.866 Y1249.320
G1 X 350.575 Y1249.070
G1 X 350.247 Y1248.867
G1 X 349.888 Y1248.715
G1 X 349.504 Y1248.620
G1 X 349.098 Y1248.588
G1 X 348.693 Y1248.620
G1 X 348.308 Y1248.715
G1 X 347.949 Y1248.867
G1 X 347.622 Y1249.070
G1 X 347.330 Y1249.320
G1 X 347.080 Y1249.611
G1 X 346.877 Y1249.939
G1 X 346.726 Y1250.297
G1 X 346.631 Y1250.682
G1 X 346.598 Y1251.088
G1 X 346.631 Y1251.493
G1 X 346.726 Y1251.878
G1 X 346.877 Y1252.236
G1 X 347.080 Y1252.564
G1 X 347.330 Y1252.855
G1 X 347.622 Y1253.105
G1 X 347.949 Y1253.308
G1 X 348.308 Y1253.460
G1 X 348.693 Y1253.555
F150
G1 Z -18.000
F400
G41
G1 X 348.308 Y1253.460
G1 X 347.949 Y1253.308
G1 X 347.622 Y1253.105
G1 X 347.330 Y1252.855
G1 X 347.080 Y1252.564
G1 X 346.877 Y1252.236
G1 X 346.726 Y1251.878
G1 X 346.631 Y1251.493
G1 X 346.598 Y1251.088
G1 X 346.631 Y1250.682
G1 X 346.726 Y1250.297
G1 X 346.877 Y1249.939
G1 X 347.080 Y1249.611
G1 X 347.330 Y1249.320
G1 X 347.622 Y1249.070
G1 X 347.949 Y1248.867
G1 X 348.308 Y1248.715
G1 X 348.693 Y1248.620
G1 X 349.098 Y1248.588
G1 X 349.504 Y1248.620
G1 X 349.888 Y1248.715
G1 X 350.247 Y1248.867
G1 X 350.575 Y1249.070
G1 X 350.866 Y1249.320
G1 X 351.116 Y1249.611
G1 X 351.319 Y1249.939
G1 X 351.471 Y1250.297
G1 X 351.565 Y1250.682
G1 X 351.598 Y1251.088
G1 X 351.565 Y1251.493
G1 X 351.471 Y1251.878
G1 X 351.319 Y1252.236
G1 X 351.116 Y1252.564
G1 X 350.866 Y1252.855
G1 X 350.575 Y1253.105
G1 X 350.247 Y1253.308
G1 X 349.888 Y1253.460
G1 X 349.504 Y1253.555
G1 X 349.098 Y1253.588
F150
G1 Z   3.000
G0 Z  15.000 
G40
M9 M5

(* SHAPE Nr: 19 *)
G0 X 326.959 Y1248.638
M3 M8
G42
F400
G1 X 326.043 Y1249.716
G2 X 328.197 Y1251.548 I   1.994 J  -0.161
G0 Z   3.000 
F150
G1 Z  -5.000
F400
G1 X 328.603 Y1251.516
G1 X 328.987 Y1251.421
G1 X 329.346 Y1251.269
G1 X 329.674 Y1251.066
G1 X 329.965 Y1250.816
G1 X 330.215 Y1250.525
G1 X 330.418 Y1250.197
G1 X 330.570 Y1249.838
G1 X 330.665 Y1249.454
G1 X 330.697 Y1249.048
G1 X 330.664 Y1248.643
G1 X 330.570 Y1248.258
G1 X 330.418 Y1247.899
G1 X 330.215 Y1247.572
G1 X 329.965 Y1247.280
G1 X 329.674 Y1247.031
G1 X 329.346 Y1246.827
G1 X 328.987 Y1246.676
G1 X 328.603 Y1246.581
G1 X 328.197 Y1246.548
G1 X 327.792 Y1246.581
G1 X 327.407 Y1246.676
G1 X 327.048 Y1246.827
G1 X 326.721 Y1247.031
G1 X 326.429 Y1247.280
G1 X 326.180 Y1247.572
G1 X 325.976 Y1247.899
G1 X 325.825 Y1248.258
G1 X 325.730 Y1248.643
G1 X 325.697 Y1249.048
G1 X 325.730 Y1249.454
G1 X 325.825 Y1249.838
G1 X 325.976 Y1250.197
G1 X 326.180 Y1250.525
G1 X 326.429 Y1250.816
G1 X 326.721 Y1251.066
G1 X 327.048 Y1251.269
G1 X 327.407 Y1251.421
G1 X 327.792 Y1251.516
F150
G1 Z -10.000
F400
G41
G1 X 327.407 Y1251.421
G1 X 327.048 Y1251.269
G1 X 326.721 Y1251.066
G1 X 326.429 Y1250.816
G1 X 326.180 Y1250.525
G1 X 325.976 Y1250.197
G1 X 325.825 Y1249.838
G1 X 325.730 Y1249.454
G1 X 325.697 Y1249.048
G1 X 325.730 Y1248.643
G1 X 325.825 Y1248.258
G1 X 325.976 Y1247.899
G1 X 326.180 Y1247.572
G1 X 326.429 Y1247.280
G1 X 326.721 Y1247.031
G1 X 327.048 Y1246.827
G1 X 327.407 Y1246.676
G1 X 327.792 Y1246.581
G1 X 328.197 Y1246.548
G1 X 328.603 Y1246.581
G1 X 328.987 Y1246.676
G1 X 329.346 Y1246.827
G1 X 329.674 Y1247.031
G1 X 329.965 Y1247.280
G1 X 330.215 Y1247.572
G1 X 330.418 Y1247.899
G1 X 330.570 Y1248.258
G1 X 330.664 Y1248.643
G1 X 330.697 Y1249.048
G1 X 330.665 Y1249.454
G1 X 330.570 Y1249.838
G1 X 330.418 Y1250.197
G1 X 330.215 Y1250.525
G1 X 329.965 Y1250.816
G1 X 329.674 Y1251.066
G1 X 329.346 Y1251.269
G1 X 328.987 Y1251.421
G1 X 328.603 Y1251.516
G1 X 328.197 Y1251.548
F150
G1 Z -15.000
F400
G42
G1 X 328.603 Y1251.516
G1 X 328.987 Y1251.421
G1 X 329.346 Y1251.269
G1 X 329.674 Y1251.066
G1 X 329.965 Y1250.816
G1 X 330.215 Y1250.525
G1 X 330.418 Y1250.197
G1 X 330.570 Y1249.838
G1 X 330.665 Y1249.454
G1 X 330.697 Y1249.048
G1 X 330.664 Y1248.643
G1 X 330.570 Y1248.258
G1 X 330.418 Y1247.899
G1 X 330.215 Y1247.572
G1 X 329.965 Y1247.280
G1 X 329.674 Y1247.031
G1 X 329.346 Y1246.827
G1 X 328.987 Y1246.676
G1 X 328.603 Y1246.581
G1 X 328.197 Y1246.548
G1 X 327.792 Y1246.581
G1 X 327.407 Y1246.676
G1 X 327.048 Y1246.827
G1 X 326.721 Y1247.031
G1 X 326.429 Y1247.280
G1 X 326.180 Y1247.572
G1 X 325.976 Y1247.899
G1 X 325.825 Y1248.258
G1 X 325.730 Y1248.643
G1 X 325.697 Y1249.048
G1 X 325.730 Y1249.454
G1 X 325.825 Y1249.838
G1 X 325.976 Y1250.197
G1 X 326.180 Y1250.525
G1 X 326.429 Y1250.816
G1 X 326.721 Y1251.066
G1 X 327.048 Y1251.269
G1 X 327.407 Y1251.421
G1 X 327.792 Y1251.516
F150
G1 Z -18.000
F400
G41
G1 X 327.407 Y1251.421
G1 X 327.048 Y1251.269
G1 X 326.721 Y1251.066
G1 X 326.429 Y1250.816
G1 X 326.180 Y1250.525
G1 X 325.976 Y1250.197
G1 X 325.825 Y1249.838
G1 X 325.730 Y1249.454
G1 X 325.697 Y1249.048
G1 X 325.730 Y1248.643
G1 X 325.825 Y1248.258
G1 X 325.976 Y1247.899
G1 X 326.180 Y1247.572
G1 X 326.429 Y1247.280
G1 X 326.721 Y1247.031
G1 X 327.048 Y1246.827
G1 X 327.407 Y1246.676
G1 X 327.792 Y1246.581
G1 X 328.197 Y1246.548
G1 X 328.603 Y1246.581
G1 X 328.987 Y1246.676
G1 X 329.346 Y1246.827
G1 X 329.674 Y1247.031
G1 X 329.965 Y1247.280
G1 X 330.215 Y1247.572
G1 X 330.418 Y1247.899
G1 X 330.570 Y1248.258
G1 X 330.664 Y1248.643
G1 X 330.697 Y1249.048
G1 X 330.665 Y1249.454
G1 X 330.570 Y1249.838
G1 X 330.418 Y1250.197
G1 X 330.215 Y1250.525
G1 X 329.965 Y1250.816
G1 X 329.674 Y1251.066
G1 X 329.346 Y1251.269
G1 X 328.987 Y1251.421
G1 X 328.603 Y1251.516
G1 X 328.197 Y1251.548
F150
G1 Z   3.000
G0 Z  15.000 
G40
M9 M5

(* SHAPE Nr: 20 *)
G0 X 264.767 Y1247.744
M3 M8
G42
F400
G1 X 263.851 Y1248.821
G2 X 266.005 Y1250.654 I   1.994 J  -0.161
G0 Z   3.000 
F150
G1 Z  -5.000
F400
G1 X 266.410 Y1250.621
G1 X 266.795 Y1250.526
G1 X 267.154 Y1250.375
G1 X 267.481 Y1250.171
G1 X 267.773 Y1249.922
G1 X 268.023 Y1249.630
G1 X 268.226 Y1249.303
G1 X 268.377 Y1248.944
G1 X 268.472 Y1248.559
G1 X 268.505 Y1248.154
G1 X 268.472 Y1247.748
G1 X 268.377 Y1247.364
G1 X 268.226 Y1247.005
G1 X 268.023 Y1246.677
G1 X 267.773 Y1246.386
G1 X 267.481 Y1246.136
G1 X 267.154 Y1245.933
G1 X 266.795 Y1245.781
G1 X 266.410 Y1245.687
G1 X 266.005 Y1245.654
G1 X 265.599 Y1245.687
G1 X 265.215 Y1245.781
G1 X 264.856 Y1245.933
G1 X 264.528 Y1246.136
G1 X 264.237 Y1246.386
G1 X 263.987 Y1246.677
G1 X 263.784 Y1247.005
G1 X 263.632 Y1247.364
G1 X 263.538 Y1247.748
G1 X 263.505 Y1248.154
G1 X 263.538 Y1248.559
G1 X 263.632 Y1248.944
G1 X 263.784 Y1249.303
G1 X 263.987 Y1249.630
G1 X 264.237 Y1249.922
G1 X 264.528 Y1250.171
G1 X 264.856 Y1250.375
G1 X 265.215 Y1250.526
G1 X 265.599 Y1250.621
F150
G1 Z -10.000
F400
G41
G1 X 265.215 Y1250.526
G1 X 264.856 Y1250.375
G1 X 264.528 Y1250.171
G1 X 264.237 Y1249.922
G1 X 263.987 Y1249.630
G1 X 263.784 Y1249.303
G1 X 263.632 Y1248.944
G1 X 263.538 Y1248.559
G1 X 263.505 Y1248.154
G1 X 263.538 Y1247.748
G1 X 263.632 Y1247.364
G1 X 263.784 Y1247.005
G1 X 263.987 Y1246.677
G1 X 264.237 Y1246.386
G1 X 264.528 Y1246.136
G1 X 264.856 Y1245.933
G1 X 265.215 Y1245.781
G1 X 265.599 Y1245.687
G1 X 266.005 Y1245.654
G1 X 266.410 Y1245.687
G1 X 266.795 Y1245.781
G1 X 267.154 Y1245.933
G1 X 267.481 Y1246.136
G1 X 267.773 Y1246.386
G1 X 268.023 Y1246.677
G1 X 268.226 Y1247.005
G1 X 268.377 Y1247.364
G1 X 268.472 Y1247.748
G1 X 268.505 Y1248.154
G1 X 268.472 Y1248.559
G1 X 268.377 Y1248.944
G1 X 268.226 Y1249.303
G1 X 268.023 Y1249.630
G1 X 267.773 Y1249.922
G1 X 267.481 Y1250.171
G1 X 267.154 Y1250.375
G1 X 266.795 Y1250.526
G1 X 266.410 Y1250.621
G1 X 266.005 Y1250.654
F150
G1 Z -15.000
F400
G42
G1 X 266.410 Y1250.621
G1 X 266.795 Y1250.526
G1 X 267.154 Y1250.375
G1 X 267.481 Y1250.171
G1 X 267.773 Y1249.922
G1 X 268.023 Y1249.630
G1 X 268.226 Y1249.303
G1 X 268.377 Y1248.944
G1 X 268.472 Y1248.559
G1 X 268.505 Y1248.154
G1 X 268.472 Y1247.748
G1 X 268.377 Y1247.364
G1 X 268.226 Y1247.005
G1 X 268.023 Y1246.677
G1 X 267.773 Y1246.386
G1 X 267.481 Y1246.136
G1 X 267.154 Y1245.933
G1 X 266.795 Y1245.781
G1 X 266.410 Y1245.687
G1 X 266.005 Y1245.654
G1 X 265.599 Y1245.687
G1 X 265.215 Y1245.781
G1 X 264.856 Y1245.933
G1 X 264.528 Y1246.136
G1 X 264.237 Y1246.386
G1 X 263.987 Y1246.677
G1 X 263.784 Y1247.005
G1 X 263.632 Y1247.364
G1 X 263.538 Y1247.748
G1 X 263.505 Y1248.154
G1 X 263.538 Y1248.559
G1 X 263.632 Y1248.944
G1 X 263.784 Y1249.303
G1 X 263.987 Y1249.630
G1 X 264.237 Y1249.922
G1 X 264.528 Y1250.171
G1 X 264.856 Y1250.375
G1 X 265.215 Y1250.526
G1 X 265.599 Y1250.621
F150
G1 Z -18.000
F400
G41
G1 X 265.215 Y1250.526
G1 X 264.856 Y1250.375
G1 X 264.528 Y1250.171
G1 X 264.237 Y1249.922
G1 X 263.987 Y1249.630
G1 X 263.784 Y1249.303
G1 X 263.632 Y1248.944
G1 X 263.538 Y1248.559
G1 X 263.505 Y1248.154
G1 X 263.538 Y1247.748
G1 X 263.632 Y1247.364
G1 X 263.784 Y1247.005
G1 X 263.987 Y1246.677
G1 X 264.237 Y1246.386
G1 X 264.528 Y1246.136
G1 X 264.856 Y1245.933
G1 X 265.215 Y1245.781
G1 X 265.599 Y1245.687
G1 X 266.005 Y1245.654
G1 X 266.410 Y1245.687
G1 X 266.795 Y1245.781
G1 X 267.154 Y1245.933
G1 X 267.481 Y1246.136
G1 X 267.773 Y1246.386
G1 X 268.023 Y1246.677
G1 X 268.226 Y1247.005
G1 X 268.377 Y1247.364
G1 X 268.472 Y1247.748
G1 X 268.505 Y1248.154
G1 X 268.472 Y1248.559
G1 X 268.377 Y1248.944
G1 X 268.226 Y1249.303
G1 X 268.023 Y1249.630
G1 X 267.773 Y1249.922
G1 X 267.481 Y1250.171
G1 X 267.154 Y1250.375
G1 X 266.795 Y1250.526
G1 X 266.410 Y1250.621
G1 X 266.005 Y1250.654
F150
G1 Z   3.000
G0 Z  15.000 
G40
M9 M5

(* SHAPE Nr: 21 *)
G0 X 285.731 Y1246.509
M3 M8
G42
F400
G1 X 284.814 Y1247.586
G2 X 286.969 Y1249.419 I   1.994 J  -0.161
G0 Z   3.000 
F150
G1 Z  -5.000
F400
G1 X 287.374 Y1249.387
G1 X 287.759 Y1249.292
G1 X 288.117 Y1249.140
G1 X 288.445 Y1248.937
G1 X 288.736 Y1248.687
G1 X 288.986 Y1248.396
G1 X 289.190 Y1248.068
G1 X 289.341 Y1247.709
G1 X 289.436 Y1247.325
G1 X 289.469 Y1246.919
G1 X 289.436 Y1246.514
G1 X 289.341 Y1246.129
G1 X 289.190 Y1245.770
G1 X 288.986 Y1245.443
G1 X 288.736 Y1245.151
G1 X 288.445 Y1244.902
G1 X 288.117 Y1244.698
G1 X 287.759 Y1244.547
G1 X 287.374 Y1244.452
G1 X 286.969 Y1244.419
G1 X 286.563 Y1244.452
G1 X 286.178 Y1244.547
G1 X 285.820 Y1244.698
G1 X 285.492 Y1244.901
G1 X 285.201 Y1245.151
G1 X 284.951 Y1245.443
G1 X 284.748 Y1245.770
G1 X 284.596 Y1246.129
G1 X 284.501 Y1246.514
G1 X 284.469 Y1246.919
G1 X 284.501 Y1247.325
G1 X 284.596 Y1247.709
G1 X 284.748 Y1248.068
G1 X 284.951 Y1248.396
G1 X 285.201 Y1248.687
G1 X 285.492 Y1248.937
G1 X 285.820 Y1249.140
G1 X 286.178 Y1249.292
G1 X 286.563 Y1249.386
F150
G1 Z -10.000
F400
G41
G1 X 286.178 Y1249.292
G1 X 285.820 Y1249.140
G1 X 285.492 Y1248.937
G1 X 285.201 Y1248.687
G1 X 284.951 Y1248.396
G1 X 284.748 Y1248.068
G1 X 284.596 Y1247.709
G1 X 284.501 Y1247.325
G1 X 284.469 Y1246.919
G1 X 284.501 Y1246.514
G1 X 284.596 Y1246.129
G1 X 284.748 Y1245.770
G1 X 284.951 Y1245.443
G1 X 285.201 Y1245.151
G1 X 285.492 Y1244.901
G1 X 285.820 Y1244.698
G1 X 286.178 Y1244.547
G1 X 286.563 Y1244.452
G1 X 286.969 Y1244.419
G1 X 287.374 Y1244.452
G1 X 287.759 Y1244.547
G1 X 288.117 Y1244.698
G1 X 288.445 Y1244.902
G1 X 288.736 Y1245.151
G1 X 288.986 Y1245.443
G1 X 289.190 Y1245.770
G1 X 289.341 Y1246.129
G1 X 289.436 Y1246.514
G1 X 289.469 Y1246.919
G1 X 289.436 Y1247.325
G1 X 289.341 Y1247.709
G1 X 289.190 Y1248.068
G1 X 288.986 Y1248.396
G1 X 288.736 Y1248.687
G1 X 288.445 Y1248.937
G1 X 288.117 Y1249.140
G1 X 287.759 Y1249.292
G1 X 287.374 Y1249.387
G1 X 286.969 Y1249.419
F150
G1 Z -15.000
F400
G42
G1 X 287.374 Y1249.387
G1 X 287.759 Y1249.292
G1 X 288.117 Y1249.140
G1 X 288.445 Y1248.937
G1 X 288.736 Y1248.687
G1 X 288.986 Y1248.396
G1 X 289.190 Y1248.068
G1 X 289.341 Y1247.709
G1 X 289.436 Y1247.325
G1 X 289.469 Y1246.919
G1 X 289.436 Y1246.514
G1 X 289.341 Y1246.129
G1 X 289.190 Y1245.770
G1 X 288.986 Y1245.443
G1 X 288.736 Y1245.151
G1 X 288.445 Y1244.902
G1 X 288.117 Y1244.698
G1 X 287.759 Y1244.547
G1 X 287.374 Y1244.452
G1 X 286.969 Y1244.419
G1 X 286.563 Y1244.452
G1 X 286.178 Y1244.547
G1 X 285.820 Y1244.698
G1 X 285.492 Y1244.901
G1 X 285.201 Y1245.151
G1 X 284.951 Y1245.443
G1 X 284.748 Y1245.770
G1 X 284.596 Y1246.129
G1 X 284.501 Y1246.514
G1 X 284.469 Y1246.919
G1 X 284.501 Y1247.325
G1 X 284.596 Y1247.709
G1 X 284.748 Y1248.068
G1 X 284.951 Y1248.396
G1 X 285.201 Y1248.687
G1 X 285.492 Y1248.937
G1 X 285.820 Y1249.140
G1 X 286.178 Y1249.292
G1 X 286.563 Y1249.386
F150
G1 Z -18.000
F400
G41
G1 X 286.178 Y1249.292
G1 X 285.820 Y1249.140
G1 X 285.492 Y1248.937
G1 X 285.201 Y1248.687
G1 X 284.951 Y1248.396
G1 X 284.748 Y1248.068
G1 X 284.596 Y1247.709
G1 X 284.501 Y1247.325
G1 X 284.469 Y1246.919
G1 X 284.501 Y1246.514
G1 X 284.596 Y1246.129
G1 X 284.748 Y1245.770
G1 X 284.951 Y1245.443
G1 X 285.201 Y1245.151
G1 X 285.492 Y1244.901
G1 X 285.820 Y1244.698
G1 X 286.178 Y1244.547
G1 X 286.563 Y1244.452
G1 X 286.969 Y1244.419
G1 X 287.374 Y1244.452
G1 X 287.759 Y1244.547
G1 X 288.117 Y1244.698
G1 X 288.445 Y1244.902
G1 X 288.736 Y1245.151
G1 X 288.986 Y1245.443
G1 X 289.190 Y1245.770
G1 X 289.341 Y1246.129
G1 X 289.436 Y1246.514
G1 X 289.469 Y1246.919
G1 X 289.436 Y1247.325
G1 X 289.341 Y1247.709
G1 X 289.190 Y1248.068
G1 X 288.986 Y1248.396
G1 X 288.736 Y1248.687
G1 X 288.445 Y1248.937
G1 X 288.117 Y1249.140
G1 X 287.759 Y1249.292
G1 X 287.374 Y1249.387
G1 X 286.969 Y1249.419
F150
G1 Z   3.000
G0 Z  15.000 
G40
M9 M5

(* SHAPE Nr: 22 *)
G0 X 136.563 Y1075.354
M3 M8
G42
F400
G1 X 135.647 Y1076.431
G2 X 137.801 Y1078.264 I   1.994 J  -0.161
G0 Z   3.000 
F150
G1 Z  -5.000
F400
G1 X 138.207 Y1078.231
G1 X 138.592 Y1078.136
G1 X 138.950 Y1077.985
G1 X 139.278 Y1077.781
G1 X 139.569 Y1077.532
G1 X 139.819 Y1077.240
G1 X 140.022 Y1076.913
G1 X 140.174 Y1076.554
G1 X 140.269 Y1076.169
G1 X 140.301 Y1075.764
G1 X 140.269 Y1075.358
G1 X 140.174 Y1074.974
G1 X 140.022 Y1074.615
G1 X 139.819 Y1074.287
G1 X 139.569 Y1073.996
G1 X 139.278 Y1073.746
G1 X 138.950 Y1073.543
G1 X 138.592 Y1073.391
G1 X 138.207 Y1073.297
G1 X 137.801 Y1073.264
G1 X 137.396 Y1073.297
G1 X 137.011 Y1073.391
G1 X 136.653 Y1073.543
G1 X 136.325 Y1073.746
G1 X 136.034 Y1073.996
G1 X 135.784 Y1074.287
G1 X 135.580 Y1074.615
G1 X 135.429 Y1074.974
G1 X 135.334 Y1075.358
G1 X 135.301 Y1075.764
G1 X 135.334 Y1076.169
G1 X 135.429 Y1076.554
G1 X 135.580 Y1076.913
G1 X 135.784 Y1077.240
G1 X 136.034 Y1077.532
G1 X 136.325 Y1077.782
G1 X 136.653 Y1077.985
G1 X 137.011 Y1078.136
G1 X 137.396 Y1078.231
F150
G1 Z -10.000
F400
G41
G1 X 137.011 Y1078.136
G1 X 136.653 Y1077.985
G1 X 136.325 Y1077.782
G1 X 136.034 Y1077.532
G1 X 135.784 Y1077.240
G1 X 135.580 Y1076.913
G1 X 135.429 Y1076.554
G1 X 135.334 Y1076.169
G1 X 135.301 Y1075.764
G1 X 135.334 Y1075.358
G1 X 135.429 Y1074.974
G1 X 135.580 Y1074.615
G1 X 135.784 Y1074.287
G1 X 136.034 Y1073.996
G1 X 136.325 Y1073.746
G1 X 136.653 Y1073.543
G1 X 137.011 Y1073.391
G1 X 137.396 Y1073.297
G1 X 137.801 Y1073.264
G1 X 138.207 Y1073.297
G1 X 138.592 Y1073.391
G1 X 138.950 Y1073.543
G1 X 139.278 Y1073.746
G1 X 139.569 Y1073.996
G1 X 139.819 Y1074.287
G1 X 140.022 Y1074.615
G1 X 140.174 Y1074.974
G1 X 140.269 Y1075.358
G1 X 140.301 Y1075.764
G1 X 140.269 Y1076.169
G1 X 140.174 Y1076.554
G1 X 140.022 Y1076.913
G1 X 139.819 Y1077.240
G1 X 139.569 Y1077.532
G1 X 139.278 Y1077.781
G1 X 138.950 Y1077.985
G1 X 138.592 Y1078.136
G1 X 138.207 Y1078.231
G1 X 137.801 Y1078.264
F150
G1 Z -15.000
F400
G42
G1 X 138.207 Y1078.231
G1 X 138.592 Y1078.136
G1 X 138.950 Y1077.985
G1 X 139.278 Y1077.781
G1 X 139.569 Y1077.532
G1 X 139.819 Y1077.240
G1 X 140.022 Y1076.913
G1 X 140.174 Y1076.554
G1 X 140.269 Y1076.169
G1 X 140.301 Y1075.764
G1 X 140.269 Y1075.358
G1 X 140.174 Y1074.974
G1 X 140.022 Y1074.615
G1 X 139.819 Y1074.287
G1 X 139.569 Y1073.996
G1 X 139.278 Y1073.746
G1 X 138.950 Y1073.543
G1 X 138.592 Y1073.391
G1 X 138.207 Y1073.297
G1 X 137.801 Y1073.264
G1 X 137.396 Y1073.297
G1 X 137.011 Y1073.391
G1 X 136.653 Y1073.543
G1 X 136.325 Y1073.746
G1 X 136.034 Y1073.996
G1 X 135.784 Y1074.287
G1 X 135.580 Y1074.615
G1 X 135.429 Y1074.974
G1 X 135.334 Y1075.358
G1 X 135.301 Y1075.764
G1 X 135.334 Y1076.169
G1 X 135.429 Y1076.554
G1 X 135.580 Y1076.913
G1 X 135.784 Y1077.240
G1 X 136.034 Y1077.532
G1 X 136.325 Y1077.782
G1 X 136.653 Y1077.985
G1 X 137.011 Y1078.136
G1 X 137.396 Y1078.231
F150
G1 Z -18.000
F400
G41
G1 X 137.011 Y1078.136
G1 X 136.653 Y1077.985
G1 X 136.325 Y1077.782
G1 X 136.034 Y1077.532
G1 X 135.784 Y1077.240
G1 X 135.580 Y1076.913
G1 X 135.429 Y1076.554
G1 X 135.334 Y1076.169
G1 X 135.301 Y1075.764
G1 X 135.334 Y1075.358
G1 X 135.429 Y1074.974
G1 X 135.580 Y1074.615
G1 X 135.784 Y1074.287
G1 X 136.034 Y1073.996
G1 X 136.325 Y1073.746
G1 X 136.653 Y1073.543
G1 X 137.011 Y1073.391
G1 X 137.396 Y1073.297
G1 X 137.801 Y1073.264
G1 X 138.207 Y1073.297
G1 X 138.592 Y1073.391
G1 X 138.950 Y1073.543
G1 X 139.278 Y1073.746
G1 X 139.569 Y1073.996
G1 X 139.819 Y1074.287
G1 X 140.022 Y1074.615
G1 X 140.174 Y1074.974
G1 X 140.269 Y1075.358
G1 X 140.301 Y1075.764
G1 X 140.269 Y1076.169
G1 X 140.174 Y1076.554
G1 X 140.022 Y1076.913
G1 X 139.819 Y1077.240
G1 X 139.569 Y1077.532
G1 X 139.278 Y1077.781
G1 X 138.950 Y1077.985
G1 X 138.592 Y1078.136
G1 X 138.207 Y1078.231
G1 X 137.801 Y1078.264
F150
G1 Z   3.000
G0 Z  15.000 
G40
M9 M5

(* SHAPE Nr: 23 *)
G0 X 624.272 Y1071.056
M3 M8
G42
F400
G1 X 623.356 Y1072.134
G2 X 625.510 Y1073.966 I   1.994 J  -0.161
G0 Z   3.000 
F150
G1 Z  -5.000
F400
G1 X 625.915 Y1073.934
G1 X 626.300 Y1073.839
G1 X 626.659 Y1073.687
G1 X 626.986 Y1073.484
G1 X 627.278 Y1073.234
G1 X 627.528 Y1072.943
G1 X 627.731 Y1072.615
G1 X 627.882 Y1072.256
G1 X 627.977 Y1071.872
G1 X 628.010 Y1071.466
G1 X 627.977 Y1071.061
G1 X 627.882 Y1070.676
G1 X 627.731 Y1070.317
G1 X 627.528 Y1069.990
G1 X 627.278 Y1069.698
G1 X 626.986 Y1069.449
G1 X 626.659 Y1069.245
G1 X 626.300 Y1069.094
G1 X 625.915 Y1068.999
G1 X 625.510 Y1068.966
G1 X 625.104 Y1068.999
G1 X 624.720 Y1069.094
G1 X 624.361 Y1069.245
G1 X 624.033 Y1069.449
G1 X 623.742 Y1069.698
G1 X 623.492 Y1069.990
G1 X 623.289 Y1070.317
G1 X 623.137 Y1070.676
G1 X 623.043 Y1071.061
G1 X 623.010 Y1071.466
G1 X 623.043 Y1071.872
G1 X 623.137 Y1072.256
G1 X 623.289 Y1072.615
G1 X 623.492 Y1072.943
G1 X 623.742 Y1073.234
G1 X 624.033 Y1073.484
G1 X 624.361 Y1073.687
G1 X 624.720 Y1073.839
G1 X 625.104 Y1073.933
F150
G1 Z -10.000
F400
G41
G1 X 624.720 Y1073.839
G1 X 624.361 Y1073.687
G1 X 624.033 Y1073.484
G1 X 623.742 Y1073.234
G1 X 623.492 Y1072.943
G1 X 623.289 Y1072.615
G1 X 623.137 Y1072.256
G1 X 623.043 Y1071.872
G1 X 623.010 Y1071.466
G1 X 623.043 Y1071.061
G1 X 623.137 Y1070.676
G1 X 623.289 Y1070.317
G1 X 623.492 Y1069.990
G1 X 623.742 Y1069.698
G1 X 624.033 Y1069.449
G1 X 624.361 Y1069.245
G1 X 624.720 Y1069.094
G1 X 625.104 Y1068.999
G1 X 625.510 Y1068.966
G1 X 625.915 Y1068.999
G1 X 626.300 Y1069.094
G1 X 626.659 Y1069.245
G1 X 626.986 Y1069.449
G1 X 627.278 Y1069.698
G1 X 627.528 Y1069.990
G1 X 627.731 Y1070.317
G1 X 627.882 Y1070.676
G1 X 627.977 Y1071.061
G1 X 628.010 Y1071.466
G1 X 627.977 Y1071.872
G1 X 627.882 Y1072.256
G1 X 627.731 Y1072.615
G1 X 627.528 Y1072.943
G1 X 627.278 Y1073.234
G1 X 626.986 Y1073.484
G1 X 626.659 Y1073.687
G1 X 626.300 Y1073.839
G1 X 625.915 Y1073.934
G1 X 625.510 Y1073.966
F150
G1 Z -15.000
F400
G42
G1 X 625.915 Y1073.934
G1 X 626.300 Y1073.839
G1 X 626.659 Y1073.687
G1 X 626.986 Y1073.484
G1 X 627.278 Y1073.234
G1 X 627.528 Y1072.943
G1 X 627.731 Y1072.615
G1 X 627.882 Y1072.256
G1 X 627.977 Y1071.872
G1 X 628.010 Y1071.466
G1 X 627.977 Y1071.061
G1 X 627.882 Y1070.676
G1 X 627.731 Y1070.317
G1 X 627.528 Y1069.990
G1 X 627.278 Y1069.698
G1 X 626.986 Y1069.449
G1 X 626.659 Y1069.245
G1 X 626.300 Y1069.094
G1 X 625.915 Y1068.999
G1 X 625.510 Y1068.966
G1 X 625.104 Y1068.999
G1 X 624.720 Y1069.094
G1 X 624.361 Y1069.245
G1 X 624.033 Y1069.449
G1 X 623.742 Y1069.698
G1 X 623.492 Y1069.990
G1 X 623.289 Y1070.317
G1 X 623.137 Y1070.676
G1 X 623.043 Y1071.061
G1 X 623.010 Y1071.466
G1 X 623.043 Y1071.872
G1 X 623.137 Y1072.256
G1 X 623.289 Y1072.615
G1 X 623.492 Y1072.943
G1 X 623.742 Y1073.234
G1 X 624.033 Y1073.484
G1 X 624.361 Y1073.687
G1 X 624.720 Y1073.839
G1 X 625.104 Y1073.933
F150
G1 Z -18.000
F400
G41
G1 X 624.720 Y1073.839
G1 X 624.361 Y1073.687
G1 X 624.033 Y1073.484
G1 X 623.742 Y1073.234
G1 X 623.492 Y1072.943
G1 X 623.289 Y1072.615
G1 X 623.137 Y1072.256
G1 X 623.043 Y1071.872
G1 X 623.010 Y1071.466
G1 X 623.043 Y1071.061
G1 X 623.137 Y1070.676
G1 X 623.289 Y1070.317
G1 X 623.492 Y1069.990
G1 X 623.742 Y1069.698
G1 X 624.033 Y1069.449
G1 X 624.361 Y1069.245
G1 X 624.720 Y1069.094
G1 X 625.104 Y1068.999
G1 X 625.510 Y1068.966
G1 X 625.915 Y1068.999
G1 X 626.300 Y1069.094
G1 X 626.659 Y1069.245
G1 X 626.986 Y1069.449
G1 X 627.278 Y1069.698
G1 X 627.528 Y1069.990
G1 X 627.731 Y1070.317
G1 X 627.882 Y1070.676
G1 X 627.977 Y1071.061
G1 X 628.010 Y1071.466
G1 X 627.977 Y1071.872
G1 X 627.882 Y1072.256
G1 X 627.731 Y1072.615
G1 X 627.528 Y1072.943
G1 X 627.278 Y1073.234
G1 X 626.986 Y1073.484
G1 X 626.659 Y1073.687
G1 X 626.300 Y1073.839
G1 X 625.915 Y1073.934
G1 X 625.510 Y1073.966
F150
G1 Z   3.000
G0 Z  15.000 
G40
M9 M5

(* SHAPE Nr: 24 *)
G0 X 156.262 Y1068.074
M3 M8
G42
F400
G1 X 155.345 Y1069.151
G2 X 157.499 Y1070.984 I   1.994 J  -0.161
G0 Z   3.000 
F150
G1 Z  -5.000
F400
G1 X 157.905 Y1070.951
G1 X 158.290 Y1070.857
G1 X 158.648 Y1070.705
G1 X 158.976 Y1070.502
G1 X 159.267 Y1070.252
G1 X 159.517 Y1069.960
G1 X 159.720 Y1069.633
G1 X 159.872 Y1069.274
G1 X 159.967 Y1068.890
G1 X 159.999 Y1068.484
G1 X 159.967 Y1068.079
G1 X 159.872 Y1067.694
G1 X 159.720 Y1067.335
G1 X 159.517 Y1067.007
G1 X 159.267 Y1066.716
G1 X 158.976 Y1066.466
G1 X 158.648 Y1066.263
G1 X 158.290 Y1066.111
G1 X 157.905 Y1066.017
G1 X 157.499 Y1065.984
G1 X 157.094 Y1066.017
G1 X 156.709 Y1066.112
G1 X 156.351 Y1066.263
G1 X 156.023 Y1066.466
G1 X 155.732 Y1066.716
G1 X 155.482 Y1067.008
G1 X 155.278 Y1067.335
G1 X 155.127 Y1067.694
G1 X 155.032 Y1068.079
G1 X 154.999 Y1068.484
G1 X 155.032 Y1068.890
G1 X 155.127 Y1069.274
G1 X 155.278 Y1069.633
G1 X 155.482 Y1069.960
G1 X 155.732 Y1070.252
G1 X 156.023 Y1070.502
G1 X 156.351 Y1070.705
G1 X 156.709 Y1070.857
G1 X 157.094 Y1070.951
F150
G1 Z -10.000
F400
G41
G1 X 156.709 Y1070.857
G1 X 156.351 Y1070.705
G1 X 156.023 Y1070.502
G1 X 155.732 Y1070.252
G1 X 155.482 Y1069.960
G1 X 155.278 Y1069.633
G1 X 155.127 Y1069.274
G1 X 155.032 Y1068.890
G1 X 154.999 Y1068.484
G1 X 155.032 Y1068.079
G1 X 155.127 Y1067.694
G1 X 155.278 Y1067.335
G1 X 155.482 Y1067.008
G1 X 155.732 Y1066.716
G1 X 156.023 Y1066.466
G1 X 156.351 Y1066.263
G1 X 156.709 Y1066.112
G1 X 157.094 Y1066.017
G1 X 157.499 Y1065.984
G1 X 157.905 Y1066.017
G1 X 158.290 Y1066.111
G1 X 158.648 Y1066.263
G1 X 158.976 Y1066.466
G1 X 159.267 Y1066.716
G1 X 159.517 Y1067.007
G1 X 159.720 Y1067.335
G1 X 159.872 Y1067.694
G1 X 159.967 Y1068.079
G1 X 159.999 Y1068.484
G1 X 159.967 Y1068.890
G1 X 159.872 Y1069.274
G1 X 159.720 Y1069.633
G1 X 159.517 Y1069.960
G1 X 159.267 Y1070.252
G1 X 158.976 Y1070.502
G1 X 158.648 Y1070.705
G1 X 158.290 Y1070.857
G1 X 157.905 Y1070.951
G1 X 157.499 Y1070.984
F150
G1 Z -15.000
F400
G42
G1 X 157.905 Y1070.951
G1 X 158.290 Y1070.857
G1 X 158.648 Y1070.705
G1 X 158.976 Y1070.502
G1 X 159.267 Y1070.252
G1 X 159.517 Y1069.960
G1 X 159.720 Y1069.633
G1 X 159.872 Y1069.274
G1 X 159.967 Y1068.890
G1 X 159.999 Y1068.484
G1 X 159.967 Y1068.079
G1 X 159.872 Y1067.694
G1 X 159.720 Y1067.335
G1 X 159.517 Y1067.007
G1 X 159.267 Y1066.716
G1 X 158.976 Y1066.466
G1 X 158.648 Y1066.263
G1 X 158.290 Y1066.111
G1 X 157.905 Y1066.017
G1 X 157.499 Y1065.984
G1 X 157.094 Y1066.017
G1 X 156.709 Y1066.112
G1 X 156.351 Y1066.263
G1 X 156.023 Y1066.466
G1 X 155.732 Y1066.716
G1 X 155.482 Y1067.008
G1 X 155.278 Y1067.335
G1 X 155.127 Y1067.694
G1 X 155.032 Y1068.079
G1 X 154.999 Y1068.484
G1 X 155.032 Y1068.890
G1 X 155.127 Y1069.274
G1 X 155.278 Y1069.633
G1 X 155.482 Y1069.960
G1 X 155.732 Y1070.252
G1 X 156.023 Y1070.502
G1 X 156.351 Y1070.705
G1 X 156.709 Y1070.857
G1 X 157.094 Y1070.951
F150
G1 Z -18.000
F400
G41
G1 X 156.709 Y1070.857
G1 X 156.351 Y1070.705
G1 X 156.023 Y1070.502
G1 X 155.732 Y1070.252
G1 X 155.482 Y1069.960
G1 X 155.278 Y1069.633
G1 X 155.127 Y1069.274
G1 X 155.032 Y1068.890
G1 X 154.999 Y1068.484
G1 X 155.032 Y1068.079
G1 X 155.127 Y1067.694
G1 X 155.278 Y1067.335
G1 X 155.482 Y1067.008
G1 X 155.732 Y1066.716
G1 X 156.023 Y1066.466
G1 X 156.351 Y1066.263
G1 X 156.709 Y1066.112
G1 X 157.094 Y1066.017
G1 X 157.499 Y1065.984
G1 X 157.905 Y1066.017
G1 X 158.290 Y1066.111
G1 X 158.648 Y1066.263
G1 X 158.976 Y1066.466
G1 X 159.267 Y1066.716
G1 X 159.517 Y1067.007
G1 X 159.720 Y1067.335
G1 X 159.872 Y1067.694
G1 X 159.967 Y1068.079
G1 X 159.999 Y1068.484
G1 X 159.967 Y1068.890
G1 X 159.872 Y1069.274
G1 X 159.720 Y1069.633
G1 X 159.517 Y1069.960
G1 X 159.267 Y1070.252
G1 X 158.976 Y1070.502
G1 X 158.648 Y1070.705
G1 X 158.290 Y1070.857
G1 X 157.905 Y1070.951
G1 X 157.499 Y1070.984
F150
G1 Z   3.000
G0 Z  15.000 
G40
M9 M5

(* SHAPE Nr: 25 *)
G0 X 603.628 Y1067.209
M3 M8
G42
F400
G1 X 602.711 Y1068.286
G2 X 604.865 Y1070.119 I   1.994 J  -0.161
G0 Z   3.000 
F150
G1 Z  -5.000
F400
G1 X 605.271 Y1070.087
G1 X 605.655 Y1069.992
G1 X 606.014 Y1069.840
G1 X 606.342 Y1069.637
G1 X 606.633 Y1069.387
G1 X 606.883 Y1069.096
G1 X 607.086 Y1068.768
G1 X 607.238 Y1068.409
G1 X 607.332 Y1068.025
G1 X 607.365 Y1067.619
G1 X 607.332 Y1067.214
G1 X 607.238 Y1066.829
G1 X 607.086 Y1066.470
G1 X 606.883 Y1066.143
G1 X 606.633 Y1065.851
G1 X 606.342 Y1065.602
G1 X 606.014 Y1065.398
G1 X 605.655 Y1065.247
G1 X 605.271 Y1065.152
G1 X 604.865 Y1065.119
G1 X 604.460 Y1065.152
G1 X 604.075 Y1065.247
G1 X 603.716 Y1065.398
G1 X 603.389 Y1065.602
G1 X 603.097 Y1065.851
G1 X 602.848 Y1066.143
G1 X 602.644 Y1066.470
G1 X 602.493 Y1066.829
G1 X 602.398 Y1067.214
G1 X 602.365 Y1067.619
G1 X 602.398 Y1068.025
G1 X 602.493 Y1068.409
G1 X 602.644 Y1068.768
G1 X 602.848 Y1069.096
G1 X 603.097 Y1069.387
G1 X 603.389 Y1069.637
G1 X 603.716 Y1069.840
G1 X 604.075 Y1069.992
G1 X 604.460 Y1070.087
F150
G1 Z -10.000
F400
G41
G1 X 604.075 Y1069.992
G1 X 603.716 Y1069.840
G1 X 603.389 Y1069.637
G1 X 603.097 Y1069.387
G1 X 602.848 Y1069.096
G1 X 602.644 Y1068.768
G1 X 602.493 Y1068.409
G1 X 602.398 Y1068.025
G1 X 602.365 Y1067.619
G1 X 602.398 Y1067.214
G1 X 602.493 Y1066.829
G1 X 602.644 Y1066.470
G1 X 602.848 Y1066.143
G1 X 603.097 Y1065.851
G1 X 603.389 Y1065.602
G1 X 603.716 Y1065.398
G1 X 604.075 Y1065.247
G1 X 604.460 Y1065.152
G1 X 604.865 Y1065.119
G1 X 605.271 Y1065.152
G1 X 605.655 Y1065.247
G1 X 606.014 Y1065.398
G1 X 606.342 Y1065.602
G1 X 606.633 Y1065.851
G1 X 606.883 Y1066.143
G1 X 607.086 Y1066.470
G1 X 607.238 Y1066.829
G1 X 607.332 Y1067.214
G1 X 607.365 Y1067.619
G1 X 607.332 Y1068.025
G1 X 607.238 Y1068.409
G1 X 607.086 Y1068.768
G1 X 606.883 Y1069.096
G1 X 606.633 Y1069.387
G1 X 606.342 Y1069.637
G1 X 606.014 Y1069.840
G1 X 605.655 Y1069.992
G1 X 605.271 Y1070.087
G1 X 604.865 Y1070.119
F150
G1 Z -15.000
F400
G42
G1 X 605.271 Y1070.087
G1 X 605.655 Y1069.992
G1 X 606.014 Y1069.840
G1 X 606.342 Y1069.637
G1 X 606.633 Y1069.387
G1 X 606.883 Y1069.096
G1 X 607.086 Y1068.768
G1 X 607.238 Y1068.409
G1 X 607.332 Y1068.025
G1 X 607.365 Y1067.619
G1 X 607.332 Y1067.214
G1 X 607.238 Y1066.829
G1 X 607.086 Y1066.470
G1 X 606.883 Y1066.143
G1 X 606.633 Y1065.851
G1 X 606.342 Y1065.602
G1 X 606.014 Y1065.398
G1 X 605.655 Y1065.247
G1 X 605.271 Y1065.152
G1 X 604.865 Y1065.119
G1 X 604.460 Y1065.152
G1 X 604.075 Y1065.247
G1 X 603.716 Y1065.398
G1 X 603.389 Y1065.602
G1 X 603.097 Y1065.851
G1 X 602.848 Y1066.143
G1 X 602.644 Y1066.470
G1 X 602.493 Y1066.829
G1 X 602.398 Y1067.214
G1 X 602.365 Y1067.619
G1 X 602.398 Y1068.025
G1 X 602.493 Y1068.409
G1 X 602.644 Y1068.768
G1 X 602.848 Y1069.096
G1 X 603.097 Y1069.387
G1 X 603.389 Y1069.637
G1 X 603.716 Y1069.840
G1 X 604.075 Y1069.992
G1 X 604.460 Y1070.087
F150
G1 Z -18.000
F400
G41
G1 X 604.075 Y1069.992
G1 X 603.716 Y1069.840
G1 X 603.389 Y1069.637
G1 X 603.097 Y1069.387
G1 X 602.848 Y1069.096
G1 X 602.644 Y1068.768
G1 X 602.493 Y1068.409
G1 X 602.398 Y1068.025
G1 X 602.365 Y1067.619
G1 X 602.398 Y1067.214
G1 X 602.493 Y1066.829
G1 X 602.644 Y1066.470
G1 X 602.848 Y1066.143
G1 X 603.097 Y1065.851
G1 X 603.389 Y1065.602
G1 X 603.716 Y1065.398
G1 X 604.075 Y1065.247
G1 X 604.460 Y1065.152
G1 X 604.865 Y1065.119
G1 X 605.271 Y1065.152
G1 X 605.655 Y1065.247
G1 X 606.014 Y1065.398
G1 X 606.342 Y1065.602
G1 X 606.633 Y1065.851
G1 X 606.883 Y1066.143
G1 X 607.086 Y1066.470
G1 X 607.238 Y1066.829
G1 X 607.332 Y1067.214
G1 X 607.365 Y1067.619
G1 X 607.332 Y1068.025
G1 X 607.238 Y1068.409
G1 X 607.086 Y1068.768
G1 X 606.883 Y1069.096
G1 X 606.633 Y1069.387
G1 X 606.342 Y1069.637
G1 X 606.014 Y1069.840
G1 X 605.655 Y1069.992
G1 X 605.271 Y1070.087
G1 X 604.865 Y1070.119
F150
G1 Z   3.000
G0 Z  15.000 
G40
M9 M5

(* SHAPE Nr: 26 *)
G0 X 139.521 Y1675.204
M3 M8
G41
F400
G1 X 140.376 Y1676.331
G3 X 138.122 Y1678.040 I  -1.981 J  -0.272
G0 Z   3.000 
F150
G1 Z  -5.000
F400
G1 X 131.974 Y1677.195
G1 X 125.935 Y1674.883
G1 X 120.159 Y1671.435
G1 X 114.799 Y1667.183
G1 X 110.007 Y1662.460
G1 X 105.936 Y1657.598
G1 X 102.740 Y1652.928
G1 X 100.570 Y1648.784
G1 X  99.581 Y1645.496
G1 X  99.925 Y1643.397
G1 X 104.998 Y1631.493
G1 X 111.934 Y1604.847
G1 X 120.182 Y1566.751
G1 X 129.191 Y1520.495
G1 X 138.408 Y1469.369
G1 X 147.282 Y1416.666
G1 X 155.260 Y1365.675
G1 X 161.791 Y1319.687
G1 X 166.323 Y1281.992
G1 X 168.305 Y1255.882
G1 X 168.242 Y1242.627
G1 X 167.425 Y1229.735
G1 X 166.032 Y1217.451
G1 X 164.243 Y1206.016
G1 X 162.238 Y1195.673
G1 X 160.195 Y1186.666
G1 X 158.293 Y1179.238
G1 X 156.713 Y1173.632
G1 X 155.633 Y1170.089
G1 X 155.234 Y1168.855
G1 X 155.236 Y1168.854
G1 X 155.242 Y1168.851
G1 X 155.253 Y1168.846
G1 X 155.267 Y1168.839
G1 X 155.286 Y1168.831
G1 X 155.309 Y1168.820
G1 X 155.335 Y1168.808
G1 X 155.366 Y1168.794
G1 X 155.401 Y1168.778
G1 X 155.440 Y1168.760
G1 X 143.344 Y1133.558
G1 X 129.847 Y1094.279
G1 X 115.579 Y1052.756
G1 X 101.171 Y1010.823
G1 X  87.251 Y 970.312
G1 X  74.449 Y 933.056
G1 X  63.396 Y 900.889
G1 X  54.721 Y 875.643
G1 X  49.054 Y 859.151
G1 X  47.026 Y 853.246
G1 X  48.131 Y 853.246
G1 X  51.130 Y 853.246
G1 X  55.551 Y 853.246
G1 X  60.919 Y 853.246
G1 X  66.761 Y 853.246
G1 X  72.602 Y 853.246
G1 X  77.970 Y 853.246
G1 X  82.391 Y 853.246
G1 X  85.390 Y 853.246
G1 X  86.496 Y 853.246
G1 X  88.668 Y 858.720
G1 X  94.741 Y 874.021
G1 X 104.050 Y 897.474
G1 X 115.928 Y 927.401
G1 X 129.710 Y 962.124
G1 X 144.730 Y 999.967
G1 X 160.322 Y1039.251
G1 X 175.820 Y1078.299
G1 X 190.559 Y1115.434
