(Generated with: DXF2GCODE, Version: PyQt4 Beta, Date: $Date:: 2014-02-11 12:27:10#$)
(Created from file: Z:/home/hephaestus/Documents/gallery/FullSizedChair_sheet1.dxf)
(Time: Fri May 23 13:25:04 2014)
G21 (Units in millimeters) G90 (Absolute programming) G64 (Default cutting) G17 (XY plane) G40 (Cancel radius comp.) G49 (Cancel length comp.)
G0 Z  15.000 

(*** LAYER: 0 ***)
T1 M6
S6000

(* SHAPE Nr: 0 *)
G0 X 126.237 Y1733.711
M3 M8
G42
F400
G1 X 125.257 Y1733.990
G2 X 126.549 Y1735.090 I   1.196 J  -0.097
G0 Z   3.000 
F150
G1 Z  -1.500
F400
G1 X 126.955 Y1735.057
G1 X 127.340 Y1734.963
G1 X 127.698 Y1734.811
G1 X 128.026 Y1734.608
G1 X 128.317 Y1734.358
G1 X 128.567 Y1734.067
G1 X 128.770 Y1733.739
G1 X 128.922 Y1733.380
G1 X 129.017 Y1732.996
G1 X 129.049 Y1732.590
G1 X 129.017 Y1732.185
G1 X 128.922 Y1731.800
G1 X 128.770 Y1731.441
G1 X 128.567 Y1731.114
G1 X 128.317 Y1730.822
G1 X 128.026 Y1730.572
G1 X 127.698 Y1730.369
G1 X 127.340 Y1730.218
G1 X 126.955 Y1730.123
G1 X 126.549 Y1730.090
G1 X 126.144 Y1730.123
G1 X 125.759 Y1730.218
G1 X 125.400 Y1730.369
G1 X 125.073 Y1730.572
G1 X 124.782 Y1730.822
G1 X 124.532 Y1731.114
G1 X 124.328 Y1731.441
G1 X 124.177 Y1731.800
G1 X 124.082 Y1732.185
G1 X 124.049 Y1732.590
G1 X 124.082 Y1732.996
G1 X 124.177 Y1733.380
G1 X 124.328 Y1733.739
G1 X 124.532 Y1734.067
G1 X 124.782 Y1734.358
G1 X 125.073 Y1734.608
G1 X 125.400 Y1734.811
G1 X 125.759 Y1734.963
G1 X 126.144 Y1735.057
F150
G1 Z  -3.000
F400
G41
G1 X 125.759 Y1734.963
G1 X 125.400 Y1734.811
G1 X 125.073 Y1734.608
G1 X 124.782 Y1734.358
G1 X 124.532 Y1734.067
G1 X 124.328 Y1733.739
G1 X 124.177 Y1733.380
G1 X 124.082 Y1732.996
G1 X 124.049 Y1732.590
G1 X 124.082 Y1732.185
G1 X 124.177 Y1731.800
G1 X 124.328 Y1731.441
G1 X 124.532 Y1731.114
G1 X 124.782 Y1730.822
G1 X 125.073 Y1730.572
G1 X 125.400 Y1730.369
G1 X 125.759 Y1730.218
G1 X 126.144 Y1730.123
G1 X 126.549 Y1730.090
G1 X 126.955 Y1730.123
G1 X 127.340 Y1730.218
G1 X 127.698 Y1730.369
G1 X 128.026 Y1730.572
G1 X 128.317 Y1730.822
G1 X 128.567 Y1731.114
G1 X 128.770 Y1731.441
G1 X 128.922 Y1731.800
G1 X 129.017 Y1732.185
G1 X 129.049 Y1732.590
G1 X 129.017 Y1732.996
G1 X 128.922 Y1733.380
G1 X 128.770 Y1733.739
G1 X 128.567 Y1734.067
G1 X 128.317 Y1734.358
G1 X 128.026 Y1734.608
G1 X 127.698 Y1734.811
G1 X 127.340 Y1734.963
G1 X 126.955 Y1735.057
G1 X 126.549 Y1735.090
F150
G1 Z   3.000
G0 Z  15.000 
G40
M9 M5

(* SHAPE Nr: 1 *)
G0 X 133.735 Y1714.095
M3 M8
G42
F400
G1 X 132.754 Y1714.375
G2 X 134.047 Y1715.474 I   1.196 J  -0.097
G0 Z   3.000 
F150
G1 Z  -1.500
F400
G1 X 134.453 Y1715.441
G1 X 134.837 Y1715.347
G1 X 135.196 Y1715.195
G1 X 135.524 Y1714.992
G1 X 135.815 Y1714.742
G1 X 136.065 Y1714.451
G1 X 136.268 Y1714.123
G1 X 136.420 Y1713.764
G1 X 136.514 Y1713.380
G1 X 136.547 Y1712.974
G1 X 136.514 Y1712.569
G1 X 136.420 Y1712.184
G1 X 136.268 Y1711.825
G1 X 136.065 Y1711.498
G1 X 135.815 Y1711.206
G1 X 135.524 Y1710.956
G1 X 135.196 Y1710.753
G1 X 134.837 Y1710.602
G1 X 134.453 Y1710.507
G1 X 134.047 Y1710.474
G1 X 133.642 Y1710.507
G1 X 133.257 Y1710.602
G1 X 132.898 Y1710.753
G1 X 132.571 Y1710.956
G1 X 132.279 Y1711.206
G1 X 132.029 Y1711.498
G1 X 131.826 Y1711.825
G1 X 131.674 Y1712.184
G1 X 131.580 Y1712.569
G1 X 131.547 Y1712.974
G1 X 131.580 Y1713.380
G1 X 131.675 Y1713.764
G1 X 131.826 Y1714.123
G1 X 132.029 Y1714.451
G1 X 132.279 Y1714.742
G1 X 132.571 Y1714.992
G1 X 132.898 Y1715.195
G1 X 133.257 Y1715.347
G1 X 133.642 Y1715.441
F150
G1 Z  -3.000
F400
G41
G1 X 133.257 Y1715.347
G1 X 132.898 Y1715.195
G1 X 132.571 Y1714.992
G1 X 132.279 Y1714.742
G1 X 132.029 Y1714.451
G1 X 131.826 Y1714.123
G1 X 131.675 Y1713.764
G1 X 131.580 Y1713.380
G1 X 131.547 Y1712.974
G1 X 131.580 Y1712.569
G1 X 131.674 Y1712.184
G1 X 131.826 Y1711.825
G1 X 132.029 Y1711.498
G1 X 132.279 Y1711.206
G1 X 132.571 Y1710.956
G1 X 132.898 Y1710.753
G1 X 133.257 Y1710.602
G1 X 133.642 Y1710.507
G1 X 134.047 Y1710.474
G1 X 134.453 Y1710.507
G1 X 134.837 Y1710.602
G1 X 135.196 Y1710.753
G1 X 135.524 Y1710.956
G1 X 135.815 Y1711.206
G1 X 136.065 Y1711.498
G1 X 136.268 Y1711.825
G1 X 136.420 Y1712.184
G1 X 136.514 Y1712.569
G1 X 136.547 Y1712.974
G1 X 136.514 Y1713.380
G1 X 136.420 Y1713.764
G1 X 136.268 Y1714.123
G1 X 136.065 Y1714.451
G1 X 135.815 Y1714.742
G1 X 135.524 Y1714.992
G1 X 135.196 Y1715.195
G1 X 134.837 Y1715.347
G1 X 134.453 Y1715.441
G1 X 134.047 Y1715.474
F150
G1 Z   3.000
G0 Z  15.000 
G40
M9 M5

(* SHAPE Nr: 2 *)
G0 X 141.943 Y1655.685
M3 M8
G42
F400
G1 X 140.962 Y1655.965
G2 X 142.255 Y1657.065 I   1.196 J  -0.096
G0 Z   3.000 
F150
G1 Z  -1.500
F400
G1 X 142.660 Y1657.032
G1 X 143.045 Y1656.937
G1 X 143.404 Y1656.786
G1 X 143.731 Y1656.582
G1 X 144.022 Y1656.332
G1 X 144.272 Y1656.041
G1 X 144.476 Y1655.714
G1 X 144.627 Y1655.355
G1 X 144.722 Y1654.970
G1 X 144.755 Y1654.565
G1 X 144.722 Y1654.159
G1 X 144.627 Y1653.774
G1 X 144.476 Y1653.416
G1 X 144.272 Y1653.088
G1 X 144.022 Y1652.797
G1 X 143.731 Y1652.547
G1 X 143.404 Y1652.344
G1 X 143.045 Y1652.192
G1 X 142.660 Y1652.097
G1 X 142.255 Y1652.065
G1 X 141.849 Y1652.097
G1 X 141.464 Y1652.192
G1 X 141.106 Y1652.344
G1 X 140.778 Y1652.547
G1 X 140.487 Y1652.797
G1 X 140.237 Y1653.088
G1 X 140.034 Y1653.416
G1 X 139.882 Y1653.775
G1 X 139.787 Y1654.159
G1 X 139.755 Y1654.565
G1 X 139.787 Y1654.970
G1 X 139.882 Y1655.355
G1 X 140.034 Y1655.714
G1 X 140.237 Y1656.041
G1 X 140.487 Y1656.332
G1 X 140.778 Y1656.582
G1 X 141.106 Y1656.786
G1 X 141.464 Y1656.937
G1 X 141.849 Y1657.032
F150
G1 Z  -3.000
F400
G41
G1 X 141.464 Y1656.937
G1 X 141.106 Y1656.786
G1 X 140.778 Y1656.582
G1 X 140.487 Y1656.332
G1 X 140.237 Y1656.041
G1 X 140.034 Y1655.714
G1 X 139.882 Y1655.355
G1 X 139.787 Y1654.970
G1 X 139.755 Y1654.565
G1 X 139.787 Y1654.159
G1 X 139.882 Y1653.775
G1 X 140.034 Y1653.416
G1 X 140.237 Y1653.088
G1 X 140.487 Y1652.797
G1 X 140.778 Y1652.547
G1 X 141.106 Y1652.344
G1 X 141.464 Y1652.192
G1 X 141.849 Y1652.097
G1 X 142.255 Y1652.065
G1 X 142.660 Y1652.097
G1 X 143.045 Y1652.192
G1 X 143.404 Y1652.344
G1 X 143.731 Y1652.547
G1 X 144.022 Y1652.797
G1 X 144.272 Y1653.088
G1 X 144.476 Y1653.416
G1 X 144.627 Y1653.774
G1 X 144.722 Y1654.159
G1 X 144.755 Y1654.565
G1 X 144.722 Y1654.970
G1 X 144.627 Y1655.355
G1 X 144.476 Y1655.714
G1 X 144.272 Y1656.041
G1 X 144.022 Y1656.332
G1 X 143.731 Y1656.582
G1 X 143.404 Y1656.786
G1 X 143.045 Y1656.937
G1 X 142.660 Y1657.032
G1 X 142.255 Y1657.065
F150
G1 Z   3.000
G0 Z  15.000 
G40
M9 M5

(* SHAPE Nr: 3 *)
G0 X 146.009 Y1635.083
M3 M8
G42
F400
G1 X 145.028 Y1635.363
G2 X 146.321 Y1636.462 I   1.196 J  -0.096
G0 Z   3.000 
F150
G1 Z  -1.500
F400
G1 X 146.726 Y1636.429
G1 X 147.111 Y1636.335
G1 X 147.470 Y1636.183
G1 X 147.797 Y1635.980
G1 X 148.088 Y1635.730
G1 X 148.338 Y1635.439
G1 X 148.542 Y1635.111
G1 X 148.693 Y1634.752
G1 X 148.788 Y1634.368
G1 X 148.821 Y1633.962
G1 X 148.788 Y1633.557
G1 X 148.693 Y1633.172
G1 X 148.542 Y1632.813
G1 X 148.338 Y1632.486
G1 X 148.088 Y1632.194
G1 X 147.797 Y1631.945
G1 X 147.470 Y1631.741
G1 X 147.111 Y1631.590
G1 X 146.726 Y1631.495
G1 X 146.321 Y1631.462
G1 X 145.915 Y1631.495
G1 X 145.531 Y1631.590
G1 X 145.172 Y1631.741
G1 X 144.844 Y1631.944
G1 X 144.553 Y1632.194
G1 X 144.303 Y1632.486
G1 X 144.100 Y1632.813
G1 X 143.948 Y1633.172
G1 X 143.853 Y1633.557
G1 X 143.821 Y1633.962
G1 X 143.853 Y1634.368
G1 X 143.948 Y1634.752
G1 X 144.100 Y1635.111
G1 X 144.303 Y1635.439
G1 X 144.553 Y1635.730
G1 X 144.844 Y1635.980
G1 X 145.172 Y1636.183
G1 X 145.531 Y1636.335
G1 X 145.915 Y1636.429
F150
G1 Z  -3.000
F400
G41
G1 X 145.531 Y1636.335
G1 X 145.172 Y1636.183
G1 X 144.844 Y1635.980
G1 X 144.553 Y1635.730
G1 X 144.303 Y1635.439
G1 X 144.100 Y1635.111
G1 X 143.948 Y1634.752
G1 X 143.853 Y1634.368
G1 X 143.821 Y1633.962
G1 X 143.853 Y1633.557
G1 X 143.948 Y1633.172
G1 X 144.100 Y1632.813
G1 X 144.303 Y1632.486
G1 X 144.553 Y1632.194
G1 X 144.844 Y1631.944
G1 X 145.172 Y1631.741
G1 X 145.531 Y1631.590
G1 X 145.915 Y1631.495
G1 X 146.321 Y1631.462
G1 X 146.726 Y1631.495
G1 X 147.111 Y1631.590
G1 X 147.470 Y1631.741
G1 X 147.797 Y1631.945
G1 X 148.088 Y1632.194
G1 X 148.338 Y1632.486
G1 X 148.542 Y1632.813
G1 X 148.693 Y1633.172
G1 X 148.788 Y1633.557
G1 X 148.821 Y1633.962
G1 X 148.788 Y1634.368
G1 X 148.693 Y1634.752
G1 X 148.542 Y1635.111
G1 X 148.338 Y1635.439
G1 X 148.088 Y1635.730
G1 X 147.797 Y1635.980
G1 X 147.470 Y1636.183
G1 X 147.111 Y1636.335
G1 X 146.726 Y1636.429
G1 X 146.321 Y1636.462
F150
G1 Z   3.000
G0 Z  15.000 
G40
M9 M5

(* SHAPE Nr: 4 *)
G0 X 153.622 Y1577.692
M3 M8
G42
F400
G1 X 152.641 Y1577.972
G2 X 153.934 Y1579.071 I   1.196 J  -0.096
G0 Z   3.000 
F150
G1 Z  -1.500
F400
G1 X 154.339 Y1579.039
G1 X 154.724 Y1578.944
G1 X 155.083 Y1578.792
G1 X 155.410 Y1578.589
G1 X 155.702 Y1578.339
G1 X 155.952 Y1578.048
G1 X 156.155 Y1577.720
G1 X 156.306 Y1577.362
G1 X 156.401 Y1576.977
G1 X 156.434 Y1576.571
G1 X 156.401 Y1576.166
G1 X 156.306 Y1575.781
G1 X 156.155 Y1575.423
G1 X 155.952 Y1575.095
G1 X 155.702 Y1574.804
G1 X 155.410 Y1574.554
G1 X 155.083 Y1574.351
G1 X 154.724 Y1574.199
G1 X 154.339 Y1574.104
G1 X 153.934 Y1574.071
G1 X 153.528 Y1574.104
G1 X 153.144 Y1574.199
G1 X 152.785 Y1574.350
G1 X 152.457 Y1574.554
G1 X 152.166 Y1574.804
G1 X 151.916 Y1575.095
G1 X 151.713 Y1575.423
G1 X 151.561 Y1575.781
G1 X 151.467 Y1576.166
G1 X 151.434 Y1576.571
G1 X 151.467 Y1576.977
G1 X 151.561 Y1577.362
G1 X 151.713 Y1577.720
G1 X 151.916 Y1578.048
G1 X 152.166 Y1578.339
G1 X 152.457 Y1578.589
G1 X 152.785 Y1578.792
G1 X 153.144 Y1578.944
G1 X 153.528 Y1579.039
F150
G1 Z  -3.000
F400
G41
G1 X 153.144 Y1578.944
G1 X 152.785 Y1578.792
G1 X 152.457 Y1578.589
G1 X 152.166 Y1578.339
G1 X 151.916 Y1578.048
G1 X 151.713 Y1577.720
G1 X 151.561 Y1577.362
G1 X 151.467 Y1576.977
G1 X 151.434 Y1576.571
G1 X 151.467 Y1576.166
G1 X 151.561 Y1575.781
G1 X 151.713 Y1575.423
G1 X 151.916 Y1575.095
G1 X 152.166 Y1574.804
G1 X 152.457 Y1574.554
G1 X 152.785 Y1574.350
G1 X 153.144 Y1574.199
G1 X 153.528 Y1574.104
G1 X 153.934 Y1574.071
G1 X 154.339 Y1574.104
G1 X 154.724 Y1574.199
G1 X 155.083 Y1574.351
G1 X 155.410 Y1574.554
G1 X 155.702 Y1574.804
G1 X 155.952 Y1575.095
G1 X 156.155 Y1575.423
G1 X 156.306 Y1575.781
G1 X 156.401 Y1576.166
G1 X 156.434 Y1576.571
G1 X 156.401 Y1576.977
G1 X 156.306 Y1577.362
G1 X 156.155 Y1577.720
G1 X 155.952 Y1578.048
G1 X 155.702 Y1578.339
G1 X 155.410 Y1578.589
G1 X 155.083 Y1578.792
G1 X 154.724 Y1578.944
G1 X 154.339 Y1579.039
G1 X 153.934 Y1579.071
F150
G1 Z   3.000
G0 Z  15.000 
G40
M9 M5

(* SHAPE Nr: 5 *)
G0 X 157.080 Y1556.979
M3 M8
G42
F400
G1 X 156.099 Y1557.258
G2 X 157.391 Y1558.358 I   1.196 J  -0.096
G0 Z   3.000 
F150
G1 Z  -1.500
F400
G1 X 157.797 Y1558.325
G1 X 158.182 Y1558.231
G1 X 158.540 Y1558.079
G1 X 158.868 Y1557.876
G1 X 159.159 Y1557.626
G1 X 159.409 Y1557.335
G1 X 159.612 Y1557.007
G1 X 159.764 Y1556.648
G1 X 159.859 Y1556.264
G1 X 159.891 Y1555.858
G1 X 159.859 Y1555.453
G1 X 159.764 Y1555.068
G1 X 159.612 Y1554.709
G1 X 159.409 Y1554.382
G1 X 159.159 Y1554.090
G1 X 158.868 Y1553.840
G1 X 158.540 Y1553.637
G1 X 158.182 Y1553.486
G1 X 157.797 Y1553.391
G1 X 157.391 Y1553.358
G1 X 156.986 Y1553.391
G1 X 156.601 Y1553.486
G1 X 156.243 Y1553.637
G1 X 155.915 Y1553.840
G1 X 155.624 Y1554.090
G1 X 155.374 Y1554.382
G1 X 155.170 Y1554.709
G1 X 155.019 Y1555.068
G1 X 154.924 Y1555.453
G1 X 154.891 Y1555.858
G1 X 154.924 Y1556.264
G1 X 155.019 Y1556.648
G1 X 155.170 Y1557.007
G1 X 155.374 Y1557.335
G1 X 155.624 Y1557.626
G1 X 155.915 Y1557.876
G1 X 156.243 Y1558.079
G1 X 156.601 Y1558.231
G1 X 156.986 Y1558.325
F150
G1 Z  -3.000
F400
G41
G1 X 156.601 Y1558.231
G1 X 156.243 Y1558.079
G1 X 155.915 Y1557.876
G1 X 155.624 Y1557.626
G1 X 155.374 Y1557.335
G1 X 155.170 Y1557.007
G1 X 155.019 Y1556.648
G1 X 154.924 Y1556.264
G1 X 154.891 Y1555.858
G1 X 154.924 Y1555.453
G1 X 155.019 Y1555.068
G1 X 155.170 Y1554.709
G1 X 155.374 Y1554.382
G1 X 155.624 Y1554.090
G1 X 155.915 Y1553.840
G1 X 156.243 Y1553.637
G1 X 156.601 Y1553.486
G1 X 156.986 Y1553.391
G1 X 157.391 Y1553.358
G1 X 157.797 Y1553.391
G1 X 158.182 Y1553.486
G1 X 158.540 Y1553.637
G1 X 158.868 Y1553.840
G1 X 159.159 Y1554.090
G1 X 159.409 Y1554.382
G1 X 159.612 Y1554.709
G1 X 159.764 Y1555.068
G1 X 159.859 Y1555.453
G1 X 159.891 Y1555.858
G1 X 159.859 Y1556.264
G1 X 159.764 Y1556.648
G1 X 159.612 Y1557.007
G1 X 159.409 Y1557.335
G1 X 159.159 Y1557.626
G1 X 158.868 Y1557.876
G1 X 158.540 Y1558.079
G1 X 158.182 Y1558.231
G1 X 157.797 Y1558.325
G1 X 157.391 Y1558.358
F150
G1 Z   3.000
G0 Z  15.000 
G40
M9 M5

(* SHAPE Nr: 6 *)
G0 X 164.956 Y1499.989
M3 M8
G42
F400
G1 X 163.975 Y1500.268
G2 X 165.268 Y1501.368 I   1.196 J  -0.096
G0 Z   3.000 
F150
G1 Z  -1.500
F400
G1 X 165.673 Y1501.335
G1 X 166.058 Y1501.241
G1 X 166.416 Y1501.089
G1 X 166.744 Y1500.886
G1 X 167.035 Y1500.636
G1 X 167.285 Y1500.344
G1 X 167.488 Y1500.017
G1 X 167.640 Y1499.658
G1 X 167.735 Y1499.274
G1 X 167.768 Y1498.868
G1 X 167.735 Y1498.462
G1 X 167.640 Y1498.078
G1 X 167.488 Y1497.719
G1 X 167.285 Y1497.391
G1 X 167.035 Y1497.100
G1 X 166.744 Y1496.850
G1 X 166.416 Y1496.647
G1 X 166.058 Y1496.495
G1 X 165.673 Y1496.401
G1 X 165.268 Y1496.368
G1 X 164.862 Y1496.401
G1 X 164.477 Y1496.495
G1 X 164.119 Y1496.647
G1 X 163.791 Y1496.850
G1 X 163.500 Y1497.100
G1 X 163.250 Y1497.391
G1 X 163.047 Y1497.719
G1 X 162.895 Y1498.078
G1 X 162.800 Y1498.462
G1 X 162.768 Y1498.868
G1 X 162.800 Y1499.274
G1 X 162.895 Y1499.658
G1 X 163.047 Y1500.017
G1 X 163.250 Y1500.344
G1 X 163.500 Y1500.636
G1 X 163.791 Y1500.886
G1 X 164.119 Y1501.089
G1 X 164.477 Y1501.241
G1 X 164.862 Y1501.335
F150
G1 Z  -3.000
F400
G41
G1 X 164.477 Y1501.241
G1 X 164.119 Y1501.089
G1 X 163.791 Y1500.886
G1 X 163.500 Y1500.636
G1 X 163.250 Y1500.344
G1 X 163.047 Y1500.017
G1 X 162.895 Y1499.658
G1 X 162.800 Y1499.274
G1 X 162.768 Y1498.868
G1 X 162.800 Y1498.462
G1 X 162.895 Y1498.078
G1 X 163.047 Y1497.719
G1 X 163.250 Y1497.391
G1 X 163.500 Y1497.100
G1 X 163.791 Y1496.850
G1 X 164.119 Y1496.647
G1 X 164.477 Y1496.495
G1 X 164.862 Y1496.401
G1 X 165.268 Y1496.368
G1 X 165.673 Y1496.401
G1 X 166.058 Y1496.495
G1 X 166.416 Y1496.647
G1 X 166.744 Y1496.850
G1 X 167.035 Y1497.100
G1 X 167.285 Y1497.391
G1 X 167.488 Y1497.719
G1 X 167.640 Y1498.078
G1 X 167.735 Y1498.462
G1 X 167.768 Y1498.868
G1 X 167.735 Y1499.274
G1 X 167.640 Y1499.658
G1 X 167.488 Y1500.017
G1 X 167.285 Y1500.344
G1 X 167.035 Y1500.636
G1 X 166.744 Y1500.886
G1 X 166.416 Y1501.089
G1 X 166.058 Y1501.241
G1 X 165.673 Y1501.335
G1 X 165.268 Y1501.368
F150
G1 Z   3.000
G0 Z  15.000 
G40
M9 M5

(* SHAPE Nr: 7 *)
G0 X 168.296 Y1479.256
M3 M8
G42
F400
G1 X 167.316 Y1479.536
G2 X 168.608 Y1480.635 I   1.196 J  -0.096
G0 Z   3.000 
F150
G1 Z  -1.500
F400
G1 X 169.014 Y1480.603
G1 X 169.398 Y1480.508
G1 X 169.757 Y1480.356
G1 X 170.085 Y1480.153
G1 X 170.376 Y1479.903
G1 X 170.626 Y1479.612
G1 X 170.829 Y1479.284
G1 X 170.981 Y1478.926
G1 X 171.076 Y1478.541
G1 X 171.108 Y1478.135
G1 X 171.076 Y1477.730
G1 X 170.981 Y1477.345
G1 X 170.829 Y1476.986
G1 X 170.626 Y1476.659
G1 X 170.376 Y1476.368
G1 X 170.085 Y1476.118
G1 X 169.757 Y1475.914
G1 X 169.398 Y1475.763
G1 X 169.014 Y1475.668
G1 X 168.608 Y1475.635
G1 X 168.203 Y1475.668
G1 X 167.818 Y1475.763
G1 X 167.459 Y1475.914
G1 X 167.132 Y1476.118
G1 X 166.840 Y1476.368
G1 X 166.591 Y1476.659
G1 X 166.387 Y1476.986
G1 X 166.236 Y1477.345
G1 X 166.141 Y1477.730
G1 X 166.108 Y1478.135
G1 X 166.141 Y1478.541
G1 X 166.236 Y1478.926
G1 X 166.387 Y1479.284
G1 X 166.591 Y1479.612
G1 X 166.840 Y1479.903
G1 X 167.132 Y1480.153
G1 X 167.459 Y1480.356
G1 X 167.818 Y1480.508
G1 X 168.203 Y1480.603
F150
G1 Z  -3.000
F400
G41
G1 X 167.818 Y1480.508
G1 X 167.459 Y1480.356
G1 X 167.132 Y1480.153
G1 X 166.840 Y1479.903
G1 X 166.591 Y1479.612
G1 X 166.387 Y1479.284
G1 X 166.236 Y1478.926
G1 X 166.141 Y1478.541
G1 X 166.108 Y1478.135
G1 X 166.141 Y1477.730
G1 X 166.236 Y1477.345
G1 X 166.387 Y1476.986
G1 X 166.591 Y1476.659
G1 X 166.840 Y1476.368
G1 X 167.132 Y1476.118
G1 X 167.459 Y1475.914
G1 X 167.818 Y1475.763
G1 X 168.203 Y1475.668
G1 X 168.608 Y1475.635
G1 X 169.014 Y1475.668
G1 X 169.398 Y1475.763
G1 X 169.757 Y1475.914
G1 X 170.085 Y1476.118
G1 X 170.376 Y1476.368
G1 X 170.626 Y1476.659
G1 X 170.829 Y1476.986
G1 X 170.981 Y1477.345
G1 X 171.076 Y1477.730
G1 X 171.108 Y1478.135
G1 X 171.076 Y1478.541
G1 X 170.981 Y1478.926
G1 X 170.829 Y1479.284
G1 X 170.626 Y1479.612
G1 X 170.376 Y1479.903
G1 X 170.085 Y1480.153
G1 X 169.757 Y1480.356
G1 X 169.398 Y1480.508
G1 X 169.014 Y1480.603
G1 X 168.608 Y1480.635
F150
G1 Z   3.000
G0 Z  15.000 
G40
M9 M5

(* SHAPE Nr: 8 *)
G0 X 178.312 Y1422.706
M3 M8
G42
F400
G1 X 177.331 Y1422.985
G2 X 178.624 Y1424.085 I   1.196 J  -0.096
G0 Z   3.000 
F150
G1 Z  -1.500
F400
G1 X 179.029 Y1424.052
G1 X 179.414 Y1423.957
G1 X 179.773 Y1423.806
G1 X 180.100 Y1423.603
G1 X 180.392 Y1423.353
G1 X 180.641 Y1423.061
G1 X 180.845 Y1422.734
G1 X 180.996 Y1422.375
G1 X 181.091 Y1421.990
G1 X 181.124 Y1421.585
G1 X 181.091 Y1421.179
G1 X 180.996 Y1420.795
G1 X 180.845 Y1420.436
G1 X 180.641 Y1420.108
G1 X 180.392 Y1419.817
G1 X 180.100 Y1419.567
G1 X 179.773 Y1419.364
G1 X 179.414 Y1419.212
G1 X 179.029 Y1419.118
G1 X 178.624 Y1419.085
G1 X 178.218 Y1419.118
G1 X 177.834 Y1419.212
G1 X 177.475 Y1419.364
G1 X 177.147 Y1419.567
G1 X 176.856 Y1419.817
G1 X 176.606 Y1420.108
G1 X 176.403 Y1420.436
G1 X 176.251 Y1420.795
G1 X 176.157 Y1421.179
G1 X 176.124 Y1421.585
G1 X 176.157 Y1421.990
G1 X 176.251 Y1422.375
G1 X 176.403 Y1422.734
G1 X 176.606 Y1423.061
G1 X 176.856 Y1423.353
G1 X 177.147 Y1423.603
G1 X 177.475 Y1423.806
G1 X 177.834 Y1423.957
G1 X 178.218 Y1424.052
F150
G1 Z  -3.000
F400
G41
G1 X 177.834 Y1423.957
G1 X 177.475 Y1423.806
G1 X 177.147 Y1423.603
G1 X 176.856 Y1423.353
G1 X 176.606 Y1423.061
G1 X 176.403 Y1422.734
G1 X 176.251 Y1422.375
G1 X 176.157 Y1421.990
G1 X 176.124 Y1421.585
G1 X 176.157 Y1421.179
G1 X 176.251 Y1420.795
G1 X 176.403 Y1420.436
G1 X 176.606 Y1420.108
G1 X 176.856 Y1419.817
G1 X 177.147 Y1419.567
G1 X 177.475 Y1419.364
G1 X 177.834 Y1419.212
G1 X 178.218 Y1419.118
G1 X 178.624 Y1419.085
G1 X 179.029 Y1419.118
G1 X 179.414 Y1419.212
G1 X 179.773 Y1419.364
G1 X 180.100 Y1419.567
G1 X 180.392 Y1419.817
G1 X 180.641 Y1420.108
G1 X 180.845 Y1420.436
G1 X 180.996 Y1420.795
G1 X 181.091 Y1421.179
G1 X 181.124 Y1421.585
G1 X 181.091 Y1421.990
G1 X 180.996 Y1422.375
G1 X 180.845 Y1422.734
G1 X 180.641 Y1423.061
G1 X 180.392 Y1423.353
G1 X 180.100 Y1423.603
G1 X 179.773 Y1423.806
G1 X 179.414 Y1423.957
G1 X 179.029 Y1424.052
G1 X 178.624 Y1424.085
F150
G1 Z   3.000
G0 Z  15.000 
G40
M9 M5

(* SHAPE Nr: 9 *)
G0 X 182.259 Y1402.080
M3 M8
G42
F400
G1 X 181.278 Y1402.359
G2 X 182.571 Y1403.459 I   1.196 J  -0.096
G0 Z   3.000 
F150
G1 Z  -1.500
F400
G1 X 182.976 Y1403.427
G1 X 183.361 Y1403.332
G1 X 183.720 Y1403.180
G1 X 184.047 Y1402.977
G1 X 184.338 Y1402.727
G1 X 184.588 Y1402.436
G1 X 184.792 Y1402.108
G1 X 184.943 Y1401.749
G1 X 185.038 Y1401.365
G1 X 185.071 Y1400.959
G1 X 185.038 Y1400.554
G1 X 184.943 Y1400.169
G1 X 184.792 Y1399.810
G1 X 184.588 Y1399.483
G1 X 184.338 Y1399.191
G1 X 184.047 Y1398.942
G1 X 183.720 Y1398.738
G1 X 183.361 Y1398.587
G1 X 182.976 Y1398.492
G1 X 182.571 Y1398.459
G1 X 182.165 Y1398.492
G1 X 181.781 Y1398.587
G1 X 181.422 Y1398.738
G1 X 181.094 Y1398.941
G1 X 180.803 Y1399.191
G1 X 180.553 Y1399.483
G1 X 180.350 Y1399.810
G1 X 180.198 Y1400.169
G1 X 180.103 Y1400.554
G1 X 180.071 Y1400.959
G1 X 180.103 Y1401.365
G1 X 180.198 Y1401.749
G1 X 180.350 Y1402.108
G1 X 180.553 Y1402.436
G1 X 180.803 Y1402.727
G1 X 181.094 Y1402.977
G1 X 181.422 Y1403.180
G1 X 181.781 Y1403.332
G1 X 182.165 Y1403.426
F150
G1 Z  -3.000
F400
G41
G1 X 181.781 Y1403.332
G1 X 181.422 Y1403.180
G1 X 181.094 Y1402.977
G1 X 180.803 Y1402.727
G1 X 180.553 Y1402.436
G1 X 180.350 Y1402.108
G1 X 180.198 Y1401.749
G1 X 180.103 Y1401.365
G1 X 180.071 Y1400.959
G1 X 180.103 Y1400.554
G1 X 180.198 Y1400.169
G1 X 180.350 Y1399.810
G1 X 180.553 Y1399.483
G1 X 180.803 Y1399.191
G1 X 181.094 Y1398.941
G1 X 181.422 Y1398.738
G1 X 181.781 Y1398.587
G1 X 182.165 Y1398.492
G1 X 182.571 Y1398.459
G1 X 182.976 Y1398.492
G1 X 183.361 Y1398.587
G1 X 183.720 Y1398.738
G1 X 184.047 Y1398.942
G1 X 184.338 Y1399.191
G1 X 184.588 Y1399.483
G1 X 184.792 Y1399.810
G1 X 184.943 Y1400.169
G1 X 185.038 Y1400.554
G1 X 185.071 Y1400.959
G1 X 185.038 Y1401.365
G1 X 184.943 Y1401.749
G1 X 184.792 Y1402.108
G1 X 184.588 Y1402.436
G1 X 184.338 Y1402.727
G1 X 184.047 Y1402.977
G1 X 183.720 Y1403.180
G1 X 183.361 Y1403.332
G1 X 182.976 Y1403.427
G1 X 182.571 Y1403.459
F150
G1 Z   3.000
G0 Z  15.000 
G40
M9 M5

(* SHAPE Nr: 10 *)
G0 X 530.167 Y1346.728
M3 M8
G42
F400
G1 X 529.186 Y1347.008
G2 X 530.479 Y1348.107 I   1.196 J  -0.096
G0 Z   3.000 
F150
G1 Z  -1.500
F400
G1 X 530.884 Y1348.075
G1 X 531.269 Y1347.980
G1 X 531.628 Y1347.828
G1 X 531.955 Y1347.625
G1 X 532.246 Y1347.375
G1 X 532.496 Y1347.084
G1 X 532.700 Y1346.756
G1 X 532.851 Y1346.398
G1 X 532.946 Y1346.013
G1 X 532.979 Y1345.607
G1 X 532.946 Y1345.202
G1 X 532.851 Y1344.817
G1 X 532.700 Y1344.458
G1 X 532.496 Y1344.131
G1 X 532.246 Y1343.840
G1 X 531.955 Y1343.590
G1 X 531.628 Y1343.386
G1 X 531.269 Y1343.235
G1 X 530.884 Y1343.140
G1 X 530.479 Y1343.107
G1 X 530.073 Y1343.140
G1 X 529.689 Y1343.235
G1 X 529.330 Y1343.386
G1 X 529.002 Y1343.590
G1 X 528.711 Y1343.840
G1 X 528.461 Y1344.131
G1 X 528.258 Y1344.458
G1 X 528.106 Y1344.817
G1 X 528.011 Y1345.202
G1 X 527.979 Y1345.607
G1 X 528.011 Y1346.013
G1 X 528.106 Y1346.398
G1 X 528.258 Y1346.756
G1 X 528.461 Y1347.084
G1 X 528.711 Y1347.375
G1 X 529.002 Y1347.625
G1 X 529.330 Y1347.828
G1 X 529.689 Y1347.980
G1 X 530.073 Y1348.075
F150
G1 Z  -3.000
F400
G41
G1 X 529.689 Y1347.980
G1 X 529.330 Y1347.828
G1 X 529.002 Y1347.625
G1 X 528.711 Y1347.375
G1 X 528.461 Y1347.084
G1 X 528.258 Y1346.756
G1 X 528.106 Y1346.398
G1 X 528.011 Y1346.013
G1 X 527.979 Y1345.607
G1 X 528.011 Y1345.202
G1 X 528.106 Y1344.817
G1 X 528.258 Y1344.458
G1 X 528.461 Y1344.131
G1 X 528.711 Y1343.840
G1 X 529.002 Y1343.590
G1 X 529.330 Y1343.386
G1 X 529.689 Y1343.235
G1 X 530.073 Y1343.140
G1 X 530.479 Y1343.107
G1 X 530.884 Y1343.140
G1 X 531.269 Y1343.235
G1 X 531.628 Y1343.386
G1 X 531.955 Y1343.590
G1 X 532.246 Y1343.840
G1 X 532.496 Y1344.131
G1 X 532.700 Y1344.458
G1 X 532.851 Y1344.817
G1 X 532.946 Y1345.202
G1 X 532.979 Y1345.607
G1 X 532.946 Y1346.013
G1 X 532.851 Y1346.398
G1 X 532.700 Y1346.756
G1 X 532.496 Y1347.084
G1 X 532.246 Y1347.375
G1 X 531.955 Y1347.625
G1 X 531.628 Y1347.828
G1 X 531.269 Y1347.980
G1 X 530.884 Y1348.075
G1 X 530.479 Y1348.107
F150
G1 Z   3.000
G0 Z  15.000 
G40
M9 M5

(* SHAPE Nr: 11 *)
G0 X 470.484 Y1345.733
M3 M8
G42
F400
G1 X 469.503 Y1346.013
G2 X 470.796 Y1347.112 I   1.196 J  -0.096
G0 Z   3.000 
F150
G1 Z  -1.500
F400
G1 X 471.201 Y1347.080
G1 X 471.586 Y1346.985
G1 X 471.945 Y1346.833
G1 X 472.272 Y1346.630
G1 X 472.564 Y1346.380
G1 X 472.813 Y1346.089
G1 X 473.017 Y1345.761
G1 X 473.168 Y1345.403
G1 X 473.263 Y1345.018
G1 X 473.296 Y1344.612
G1 X 473.263 Y1344.207
G1 X 473.168 Y1343.822
G1 X 473.017 Y1343.463
G1 X 472.813 Y1343.136
G1 X 472.564 Y1342.845
G1 X 472.272 Y1342.595
G1 X 471.945 Y1342.391
G1 X 471.586 Y1342.240
G1 X 471.201 Y1342.145
G1 X 470.796 Y1342.112
G1 X 470.390 Y1342.145
G1 X 470.006 Y1342.240
G1 X 469.647 Y1342.391
G1 X 469.319 Y1342.595
G1 X 469.028 Y1342.845
G1 X 468.778 Y1343.136
G1 X 468.575 Y1343.463
G1 X 468.423 Y1343.822
G1 X 468.329 Y1344.207
G1 X 468.296 Y1344.612
G1 X 468.328 Y1345.018
G1 X 468.423 Y1345.403
G1 X 468.575 Y1345.761
G1 X 468.778 Y1346.089
G1 X 469.028 Y1346.380
G1 X 469.319 Y1346.630
G1 X 469.647 Y1346.833
G1 X 470.006 Y1346.985
G1 X 470.390 Y1347.080
F150
G1 Z  -3.000
F400
G41
G1 X 470.006 Y1346.985
G1 X 469.647 Y1346.833
G1 X 469.319 Y1346.630
G1 X 469.028 Y1346.380
G1 X 468.778 Y1346.089
G1 X 468.575 Y1345.761
G1 X 468.423 Y1345.403
G1 X 468.328 Y1345.018
G1 X 468.296 Y1344.612
G1 X 468.329 Y1344.207
G1 X 468.423 Y1343.822
G1 X 468.575 Y1343.463
G1 X 468.778 Y1343.136
G1 X 469.028 Y1342.845
G1 X 469.319 Y1342.595
G1 X 469.647 Y1342.391
G1 X 470.006 Y1342.240
G1 X 470.390 Y1342.145
G1 X 470.796 Y1342.112
G1 X 471.201 Y1342.145
G1 X 471.586 Y1342.240
G1 X 471.945 Y1342.391
G1 X 472.272 Y1342.595
G1 X 472.564 Y1342.845
G1 X 472.813 Y1343.136
G1 X 473.017 Y1343.463
G1 X 473.168 Y1343.822
G1 X 473.263 Y1344.207
G1 X 473.296 Y1344.612
G1 X 473.263 Y1345.018
G1 X 473.168 Y1345.403
G1 X 473.017 Y1345.761
G1 X 472.813 Y1346.089
G1 X 472.564 Y1346.380
G1 X 472.272 Y1346.630
G1 X 471.945 Y1346.833
G1 X 471.586 Y1346.985
G1 X 471.201 Y1347.080
G1 X 470.796 Y1347.112
F150
G1 Z   3.000
G0 Z  15.000 
G40
M9 M5

(* SHAPE Nr: 12 *)
G0 X 509.271 Y1344.639
M3 M8
G42
F400
G1 X 508.290 Y1344.919
G2 X 509.583 Y1346.018 I   1.196 J  -0.096
G0 Z   3.000 
F150
G1 Z  -1.500
F400
G1 X 509.988 Y1345.986
G1 X 510.373 Y1345.891
G1 X 510.732 Y1345.739
G1 X 511.059 Y1345.536
G1 X 511.351 Y1345.286
G1 X 511.600 Y1344.995
G1 X 511.804 Y1344.667
G1 X 511.955 Y1344.308
G1 X 512.050 Y1343.924
G1 X 512.083 Y1343.518
G1 X 512.050 Y1343.113
G1 X 511.955 Y1342.728
G1 X 511.804 Y1342.369
G1 X 511.601 Y1342.042
G1 X 511.351 Y1341.750
G1 X 511.059 Y1341.501
G1 X 510.732 Y1341.297
G1 X 510.373 Y1341.146
G1 X 509.988 Y1341.051
G1 X 509.583 Y1341.018
G1 X 509.177 Y1341.051
G1 X 508.793 Y1341.146
G1 X 508.434 Y1341.297
G1 X 508.106 Y1341.501
G1 X 507.815 Y1341.750
G1 X 507.565 Y1342.042
G1 X 507.362 Y1342.369
G1 X 507.210 Y1342.728
G1 X 507.116 Y1343.113
G1 X 507.083 Y1343.518
G1 X 507.115 Y1343.924
G1 X 507.210 Y1344.308
G1 X 507.362 Y1344.667
G1 X 507.565 Y1344.995
G1 X 507.815 Y1345.286
G1 X 508.106 Y1345.536
G1 X 508.434 Y1345.739
G1 X 508.793 Y1345.891
G1 X 509.177 Y1345.986
F150
G1 Z  -3.000
F400
G41
G1 X 508.793 Y1345.891
G1 X 508.434 Y1345.739
G1 X 508.106 Y1345.536
G1 X 507.815 Y1345.286
G1 X 507.565 Y1344.995
G1 X 507.362 Y1344.667
G1 X 507.210 Y1344.308
G1 X 507.115 Y1343.924
G1 X 507.083 Y1343.518
G1 X 507.116 Y1343.113
G1 X 507.210 Y1342.728
G1 X 507.362 Y1342.369
G1 X 507.565 Y1342.042
G1 X 507.815 Y1341.750
G1 X 508.106 Y1341.501
G1 X 508.434 Y1341.297
G1 X 508.793 Y1341.146
G1 X 509.177 Y1341.051
G1 X 509.583 Y1341.018
G1 X 509.988 Y1341.051
G1 X 510.373 Y1341.146
G1 X 510.732 Y1341.297
G1 X 511.059 Y1341.501
G1 X 511.351 Y1341.750
G1 X 511.601 Y1342.042
G1 X 511.804 Y1342.369
G1 X 511.955 Y1342.728
G1 X 512.050 Y1343.113
G1 X 512.083 Y1343.518
G1 X 512.050 Y1343.924
G1 X 511.955 Y1344.308
G1 X 511.804 Y1344.667
G1 X 511.600 Y1344.995
G1 X 511.351 Y1345.286
G1 X 511.059 Y1345.536
G1 X 510.732 Y1345.739
G1 X 510.373 Y1345.891
G1 X 509.988 Y1345.986
G1 X 509.583 Y1346.018
F150
G1 Z   3.000
G0 Z  15.000 
G40
M9 M5

(* SHAPE Nr: 13 *)
G0 X 449.751 Y1342.392
M3 M8
G42
F400
G1 X 448.771 Y1342.672
G2 X 450.063 Y1343.772 I   1.196 J  -0.096
G0 Z   3.000 
F150
G1 Z  -1.500
F400
G1 X 450.469 Y1343.739
G1 X 450.854 Y1343.644
G1 X 451.212 Y1343.493
G1 X 451.540 Y1343.289
G1 X 451.831 Y1343.039
G1 X 452.081 Y1342.748
G1 X 452.284 Y1342.420
G1 X 452.436 Y1342.062
G1 X 452.531 Y1341.677
G1 X 452.563 Y1341.272
G1 X 452.531 Y1340.866
G1 X 452.436 Y1340.481
G1 X 452.284 Y1340.123
G1 X 452.081 Y1339.795
G1 X 451.831 Y1339.504
G1 X 451.540 Y1339.254
G1 X 451.212 Y1339.051
G1 X 450.853 Y1338.899
G1 X 450.469 Y1338.804
G1 X 450.063 Y1338.772
G1 X 449.658 Y1338.804
G1 X 449.273 Y1338.899
G1 X 448.914 Y1339.051
G1 X 448.587 Y1339.254
G1 X 448.295 Y1339.504
G1 X 448.046 Y1339.795
G1 X 447.842 Y1340.123
G1 X 447.691 Y1340.481
G1 X 447.596 Y1340.866
G1 X 447.563 Y1341.272
G1 X 447.596 Y1341.677
G1 X 447.691 Y1342.062
G1 X 447.842 Y1342.420
G1 X 448.046 Y1342.748
G1 X 448.295 Y1343.039
G1 X 448.587 Y1343.289
G1 X 448.914 Y1343.493
G1 X 449.273 Y1343.644
G1 X 449.658 Y1343.739
F150
G1 Z  -3.000
F400
G41
G1 X 449.273 Y1343.644
G1 X 448.914 Y1343.493
G1 X 448.587 Y1343.289
G1 X 448.295 Y1343.039
G1 X 448.046 Y1342.748
G1 X 447.842 Y1342.420
G1 X 447.691 Y1342.062
G1 X 447.596 Y1341.677
G1 X 447.563 Y1341.272
G1 X 447.596 Y1340.866
G1 X 447.691 Y1340.481
G1 X 447.842 Y1340.123
G1 X 448.046 Y1339.795
G1 X 448.295 Y1339.504
G1 X 448.587 Y1339.254
G1 X 448.914 Y1339.051
G1 X 449.273 Y1338.899
G1 X 449.658 Y1338.804
G1 X 450.063 Y1338.772
G1 X 450.469 Y1338.804
G1 X 450.853 Y1338.899
G1 X 451.212 Y1339.051
G1 X 451.540 Y1339.254
G1 X 451.831 Y1339.504
G1 X 452.081 Y1339.795
G1 X 452.284 Y1340.123
G1 X 452.436 Y1340.481
G1 X 452.531 Y1340.866
G1 X 452.563 Y1341.272
G1 X 452.531 Y1341.677
G1 X 452.436 Y1342.062
G1 X 452.284 Y1342.420
G1 X 452.081 Y1342.748
G1 X 451.831 Y1343.039
G1 X 451.540 Y1343.289
G1 X 451.212 Y1343.493
G1 X 450.854 Y1343.644
G1 X 450.469 Y1343.739
G1 X 450.063 Y1343.772
F150
G1 Z   3.000
G0 Z  15.000 
G40
M9 M5

(* SHAPE Nr: 14 *)
G0 X 409.289 Y1340.659
M3 M8
G42
F400
G1 X 408.308 Y1340.939
G2 X 409.601 Y1342.038 I   1.196 J  -0.096
G0 Z   3.000 
F150
G1 Z  -1.500
F400
G1 X 410.006 Y1342.005
G1 X 410.391 Y1341.911
G1 X 410.750 Y1341.759
G1 X 411.077 Y1341.556
G1 X 411.368 Y1341.306
G1 X 411.618 Y1341.015
G1 X 411.822 Y1340.687
G1 X 411.973 Y1340.328
G1 X 412.068 Y1339.944
G1 X 412.101 Y1339.538
G1 X 412.068 Y1339.133
G1 X 411.973 Y1338.748
G1 X 411.822 Y1338.389
G1 X 411.618 Y1338.062
G1 X 411.368 Y1337.770
G1 X 411.077 Y1337.521
G1 X 410.750 Y1337.317
G1 X 410.391 Y1337.166
G1 X 410.006 Y1337.071
G1 X 409.601 Y1337.038
G1 X 409.195 Y1337.071
G1 X 408.810 Y1337.166
G1 X 408.452 Y1337.317
G1 X 408.124 Y1337.520
G1 X 407.833 Y1337.770
G1 X 407.583 Y1338.062
G1 X 407.380 Y1338.389
G1 X 407.228 Y1338.748
G1 X 407.133 Y1339.133
G1 X 407.101 Y1339.538
G1 X 407.133 Y1339.944
G1 X 407.228 Y1340.328
G1 X 407.380 Y1340.687
G1 X 407.583 Y1341.015
G1 X 407.833 Y1341.306
G1 X 408.124 Y1341.556
G1 X 408.452 Y1341.759
G1 X 408.810 Y1341.911
G1 X 409.195 Y1342.005
F150
G1 Z  -3.000
F400
G41
G1 X 408.810 Y1341.911
G1 X 408.452 Y1341.759
G1 X 408.124 Y1341.556
G1 X 407.833 Y1341.306
G1 X 407.583 Y1341.015
G1 X 407.380 Y1340.687
G1 X 407.228 Y1340.328
G1 X 407.133 Y1339.944
G1 X 407.101 Y1339.538
G1 X 407.133 Y1339.133
G1 X 407.228 Y1338.748
G1 X 407.380 Y1338.389
G1 X 407.583 Y1338.062
G1 X 407.833 Y1337.770
G1 X 408.124 Y1337.520
G1 X 408.452 Y1337.317
G1 X 408.810 Y1337.166
G1 X 409.195 Y1337.071
G1 X 409.601 Y1337.038
G1 X 410.006 Y1337.071
G1 X 410.391 Y1337.166
G1 X 410.750 Y1337.317
G1 X 411.077 Y1337.521
G1 X 411.368 Y1337.770
G1 X 411.618 Y1338.062
G1 X 411.822 Y1338.389
G1 X 411.973 Y1338.748
G1 X 412.068 Y1339.133
G1 X 412.101 Y1339.538
G1 X 412.068 Y1339.944
G1 X 411.973 Y1340.328
G1 X 411.822 Y1340.687
G1 X 411.618 Y1341.015
G1 X 411.368 Y1341.306
G1 X 411.077 Y1341.556
G1 X 410.750 Y1341.759
G1 X 410.391 Y1341.911
G1 X 410.006 Y1342.005
G1 X 409.601 Y1342.038
F150
G1 Z   3.000
G0 Z  15.000 
G40
M9 M5

(* SHAPE Nr: 15 *)
G0 X 388.454 Y1338.033
M3 M8
G42
F400
G1 X 387.473 Y1338.312
G2 X 388.765 Y1339.412 I   1.196 J  -0.096
G0 Z   3.000 
F150
G1 Z  -1.500
F400
G1 X 389.171 Y1339.379
G1 X 389.556 Y1339.284
G1 X 389.914 Y1339.133
G1 X 390.242 Y1338.930
G1 X 390.533 Y1338.680
G1 X 390.783 Y1338.388
G1 X 390.986 Y1338.061
G1 X 391.138 Y1337.702
G1 X 391.233 Y1337.317
G1 X 391.265 Y1336.912
G1 X 391.233 Y1336.506
G1 X 391.138 Y1336.122
G1 X 390.986 Y1335.763
G1 X 390.783 Y1335.435
G1 X 390.533 Y1335.144
G1 X 390.242 Y1334.894
G1 X 389.914 Y1334.691
G1 X 389.556 Y1334.539
G1 X 389.171 Y1334.445
G1 X 388.765 Y1334.412
G1 X 388.360 Y1334.445
G1 X 387.975 Y1334.539
G1 X 387.617 Y1334.691
G1 X 387.289 Y1334.894
G1 X 386.998 Y1335.144
G1 X 386.748 Y1335.435
G1 X 386.545 Y1335.763
G1 X 386.393 Y1336.122
G1 X 386.298 Y1336.506
G1 X 386.265 Y1336.912
G1 X 386.298 Y1337.317
G1 X 386.393 Y1337.702
G1 X 386.544 Y1338.061
G1 X 386.748 Y1338.388
G1 X 386.998 Y1338.680
G1 X 387.289 Y1338.930
G1 X 387.617 Y1339.133
G1 X 387.975 Y1339.284
G1 X 388.360 Y1339.379
F150
G1 Z  -3.000
F400
G41
G1 X 387.975 Y1339.284
G1 X 387.617 Y1339.133
G1 X 387.289 Y1338.930
G1 X 386.998 Y1338.680
G1 X 386.748 Y1338.388
G1 X 386.544 Y1338.061
G1 X 386.393 Y1337.702
G1 X 386.298 Y1337.317
G1 X 386.265 Y1336.912
G1 X 386.298 Y1336.506
G1 X 386.393 Y1336.122
G1 X 386.545 Y1335.763
G1 X 386.748 Y1335.435
G1 X 386.998 Y1335.144
G1 X 387.289 Y1334.894
G1 X 387.617 Y1334.691
G1 X 387.975 Y1334.539
G1 X 388.360 Y1334.445
G1 X 388.765 Y1334.412
G1 X 389.171 Y1334.445
G1 X 389.556 Y1334.539
G1 X 389.914 Y1334.691
G1 X 390.242 Y1334.894
G1 X 390.533 Y1335.144
G1 X 390.783 Y1335.435
G1 X 390.986 Y1335.763
G1 X 391.138 Y1336.122
G1 X 391.233 Y1336.506
G1 X 391.265 Y1336.912
G1 X 391.233 Y1337.317
G1 X 391.138 Y1337.702
G1 X 390.986 Y1338.061
G1 X 390.783 Y1338.388
G1 X 390.533 Y1338.680
G1 X 390.242 Y1338.930
G1 X 389.914 Y1339.133
G1 X 389.556 Y1339.284
G1 X 389.171 Y1339.379
G1 X 388.765 Y1339.412
F150
G1 Z   3.000
G0 Z  15.000 
G40
M9 M5

(* SHAPE Nr: 16 *)
G0 X 348.470 Y1336.052
M3 M8
G42
F400
G1 X 347.489 Y1336.332
G2 X 348.782 Y1337.432 I   1.196 J  -0.096
G0 Z   3.000 
F150
G1 Z  -1.500
F400
G1 X 349.187 Y1337.399
G1 X 349.572 Y1337.304
G1 X 349.931 Y1337.153
G1 X 350.258 Y1336.949
G1 X 350.550 Y1336.699
G1 X 350.799 Y1336.408
G1 X 351.003 Y1336.080
G1 X 351.154 Y1335.722
G1 X 351.249 Y1335.337
G1 X 351.282 Y1334.932
G1 X 351.249 Y1334.526
G1 X 351.154 Y1334.141
G1 X 351.003 Y1333.783
G1 X 350.799 Y1333.455
G1 X 350.550 Y1333.164
G1 X 350.258 Y1332.914
G1 X 349.931 Y1332.711
G1 X 349.572 Y1332.559
G1 X 349.187 Y1332.464
G1 X 348.782 Y1332.432
G1 X 348.376 Y1332.464
G1 X 347.992 Y1332.559
G1 X 347.633 Y1332.711
G1 X 347.305 Y1332.914
G1 X 347.014 Y1333.164
G1 X 346.764 Y1333.455
G1 X 346.561 Y1333.783
G1 X 346.409 Y1334.141
G1 X 346.315 Y1334.526
G1 X 346.282 Y1334.932
G1 X 346.314 Y1335.337
G1 X 346.409 Y1335.722
G1 X 346.561 Y1336.080
G1 X 346.764 Y1336.408
G1 X 347.014 Y1336.699
G1 X 347.305 Y1336.949
G1 X 347.633 Y1337.153
G1 X 347.992 Y1337.304
G1 X 348.376 Y1337.399
F150
G1 Z  -3.000
F400
G41
G1 X 347.992 Y1337.304
G1 X 347.633 Y1337.153
G1 X 347.305 Y1336.949
G1 X 347.014 Y1336.699
G1 X 346.764 Y1336.408
G1 X 346.561 Y1336.080
G1 X 346.409 Y1335.722
G1 X 346.314 Y1335.337
G1 X 346.282 Y1334.932
G1 X 346.315 Y1334.526
G1 X 346.409 Y1334.141
G1 X 346.561 Y1333.783
G1 X 346.764 Y1333.455
G1 X 347.014 Y1333.164
G1 X 347.305 Y1332.914
G1 X 347.633 Y1332.711
G1 X 347.992 Y1332.559
G1 X 348.376 Y1332.464
G1 X 348.782 Y1332.432
G1 X 349.187 Y1332.464
G1 X 349.572 Y1332.559
G1 X 349.931 Y1332.711
G1 X 350.258 Y1332.914
G1 X 350.550 Y1333.164
G1 X 350.799 Y1333.455
G1 X 351.003 Y1333.783
G1 X 351.154 Y1334.141
G1 X 351.249 Y1334.526
G1 X 351.282 Y1334.932
G1 X 351.249 Y1335.337
G1 X 351.154 Y1335.722
G1 X 351.003 Y1336.080
G1 X 350.799 Y1336.408
G1 X 350.550 Y1336.699
G1 X 350.258 Y1336.949
G1 X 349.931 Y1337.153
G1 X 349.572 Y1337.304
G1 X 349.187 Y1337.399
G1 X 348.782 Y1337.432
F150
G1 Z   3.000
G0 Z  15.000 
G40
M9 M5

(* SHAPE Nr: 17 *)
G0 X 327.569 Y1334.013
M3 M8
G42
F400
G1 X 326.588 Y1334.293
G2 X 327.881 Y1335.392 I   1.196 J  -0.096
G0 Z   3.000 
F150
G1 Z  -1.500
F400
G1 X 328.286 Y1335.360
G1 X 328.671 Y1335.265
G1 X 329.030 Y1335.113
G1 X 329.358 Y1334.910
G1 X 329.649 Y1334.660
G1 X 329.899 Y1334.369
G1 X 330.102 Y1334.041
G1 X 330.254 Y1333.682
G1 X 330.348 Y1333.298
G1 X 330.381 Y1332.892
G1 X 330.348 Y1332.487
G1 X 330.254 Y1332.102
G1 X 330.102 Y1331.743
G1 X 329.899 Y1331.416
G1 X 329.649 Y1331.125
G1 X 329.358 Y1330.875
G1 X 329.030 Y1330.671
G1 X 328.671 Y1330.520
G1 X 328.287 Y1330.425
G1 X 327.881 Y1330.392
G1 X 327.475 Y1330.425
G1 X 327.091 Y1330.520
G1 X 326.732 Y1330.671
G1 X 326.405 Y1330.875
G1 X 326.113 Y1331.125
G1 X 325.863 Y1331.416
G1 X 325.660 Y1331.743
G1 X 325.508 Y1332.102
G1 X 325.414 Y1332.487
G1 X 325.381 Y1332.892
G1 X 325.414 Y1333.298
G1 X 325.508 Y1333.682
G1 X 325.660 Y1334.041
G1 X 325.863 Y1334.369
G1 X 326.113 Y1334.660
G1 X 326.405 Y1334.910
G1 X 326.732 Y1335.113
G1 X 327.091 Y1335.265
G1 X 327.476 Y1335.360
F150
G1 Z  -3.000
F400
G41
G1 X 327.091 Y1335.265
G1 X 326.732 Y1335.113
G1 X 326.405 Y1334.910
G1 X 326.113 Y1334.660
G1 X 325.863 Y1334.369
G1 X 325.660 Y1334.041
G1 X 325.508 Y1333.682
G1 X 325.414 Y1333.298
G1 X 325.381 Y1332.892
G1 X 325.414 Y1332.487
G1 X 325.508 Y1332.102
G1 X 325.660 Y1331.743
G1 X 325.863 Y1331.416
G1 X 326.113 Y1331.125
G1 X 326.405 Y1330.875
G1 X 326.732 Y1330.671
G1 X 327.091 Y1330.520
G1 X 327.475 Y1330.425
G1 X 327.881 Y1330.392
G1 X 328.287 Y1330.425
G1 X 328.671 Y1330.520
G1 X 329.030 Y1330.671
G1 X 329.358 Y1330.875
G1 X 329.649 Y1331.125
G1 X 329.899 Y1331.416
G1 X 330.102 Y1331.743
G1 X 330.254 Y1332.102
G1 X 330.348 Y1332.487
G1 X 330.381 Y1332.892
G1 X 330.348 Y1333.298
G1 X 330.254 Y1333.682
G1 X 330.102 Y1334.041
G1 X 329.899 Y1334.369
G1 X 329.649 Y1334.660
G1 X 329.358 Y1334.910
G1 X 329.030 Y1335.113
G1 X 328.671 Y1335.265
G1 X 328.286 Y1335.360
G1 X 327.881 Y1335.392
F150
G1 Z   3.000
G0 Z  15.000 
G40
M9 M5

(* SHAPE Nr: 18 *)
G0 X 265.377 Y1333.118
M3 M8
G42
F400
G1 X 264.396 Y1333.398
G2 X 265.689 Y1334.498 I   1.196 J  -0.097
G0 Z   3.000 
F150
G1 Z  -1.500
F400
G1 X 266.094 Y1334.465
G1 X 266.479 Y1334.370
G1 X 266.838 Y1334.219
G1 X 267.165 Y1334.015
G1 X 267.456 Y1333.766
G1 X 267.706 Y1333.474
G1 X 267.910 Y1333.147
G1 X 268.061 Y1332.788
G1 X 268.156 Y1332.403
G1 X 268.189 Y1331.998
G1 X 268.156 Y1331.592
G1 X 268.061 Y1331.208
G1 X 267.910 Y1330.849
G1 X 267.706 Y1330.521
G1 X 267.456 Y1330.230
G1 X 267.165 Y1329.980
G1 X 266.838 Y1329.777
G1 X 266.479 Y1329.625
G1 X 266.094 Y1329.531
G1 X 265.689 Y1329.498
G1 X 265.283 Y1329.531
G1 X 264.898 Y1329.625
G1 X 264.540 Y1329.777
G1 X 264.212 Y1329.980
G1 X 263.921 Y1330.230
G1 X 263.671 Y1330.521
G1 X 263.468 Y1330.849
G1 X 263.316 Y1331.208
G1 X 263.221 Y1331.592
G1 X 263.189 Y1331.998
G1 X 263.221 Y1332.403
G1 X 263.316 Y1332.788
G1 X 263.468 Y1333.147
G1 X 263.671 Y1333.474
G1 X 263.921 Y1333.766
G1 X 264.212 Y1334.016
G1 X 264.540 Y1334.219
G1 X 264.898 Y1334.370
G1 X 265.283 Y1334.465
F150
G1 Z  -3.000
F400
G41
G1 X 264.898 Y1334.370
G1 X 264.540 Y1334.219
G1 X 264.212 Y1334.016
G1 X 263.921 Y1333.766
G1 X 263.671 Y1333.474
G1 X 263.468 Y1333.147
G1 X 263.316 Y1332.788
G1 X 263.221 Y1332.403
G1 X 263.189 Y1331.998
G1 X 263.221 Y1331.592
G1 X 263.316 Y1331.208
G1 X 263.468 Y1330.849
G1 X 263.671 Y1330.521
G1 X 263.921 Y1330.230
G1 X 264.212 Y1329.980
G1 X 264.540 Y1329.777
G1 X 264.898 Y1329.625
G1 X 265.283 Y1329.531
G1 X 265.689 Y1329.498
G1 X 266.094 Y1329.531
G1 X 266.479 Y1329.625
G1 X 266.838 Y1329.777
G1 X 267.165 Y1329.980
G1 X 267.456 Y1330.230
G1 X 267.706 Y1330.521
G1 X 267.910 Y1330.849
G1 X 268.061 Y1331.208
G1 X 268.156 Y1331.592
G1 X 268.189 Y1331.998
G1 X 268.156 Y1332.403
G1 X 268.061 Y1332.788
G1 X 267.910 Y1333.147
G1 X 267.706 Y1333.474
G1 X 267.456 Y1333.766
G1 X 267.165 Y1334.015
G1 X 266.838 Y1334.219
G1 X 266.479 Y1334.370
G1 X 266.094 Y1334.465
G1 X 265.689 Y1334.498
F150
G1 Z   3.000
G0 Z  15.000 
G40
M9 M5

(* SHAPE Nr: 19 *)
G0 X 286.341 Y1331.884
M3 M8
G42
F400
G1 X 285.360 Y1332.163
G2 X 286.652 Y1333.263 I   1.196 J  -0.096
G0 Z   3.000 
F150
G1 Z  -1.500
F400
G1 X 287.058 Y1333.231
G1 X 287.443 Y1333.136
G1 X 287.801 Y1332.984
G1 X 288.129 Y1332.781
G1 X 288.420 Y1332.531
G1 X 288.670 Y1332.240
G1 X 288.873 Y1331.912
G1 X 289.025 Y1331.553
G1 X 289.120 Y1331.169
G1 X 289.152 Y1330.763
G1 X 289.120 Y1330.358
G1 X 289.025 Y1329.973
G1 X 288.873 Y1329.614
G1 X 288.670 Y1329.287
G1 X 288.420 Y1328.995
G1 X 288.129 Y1328.746
G1 X 287.801 Y1328.542
G1 X 287.443 Y1328.391
G1 X 287.058 Y1328.296
G1 X 286.652 Y1328.263
G1 X 286.247 Y1328.296
G1 X 285.862 Y1328.391
G1 X 285.503 Y1328.542
G1 X 285.176 Y1328.746
G1 X 284.885 Y1328.995
G1 X 284.635 Y1329.287
G1 X 284.431 Y1329.614
G1 X 284.280 Y1329.973
G1 X 284.185 Y1330.358
G1 X 284.152 Y1330.763
G1 X 284.185 Y1331.169
G1 X 284.280 Y1331.553
G1 X 284.431 Y1331.912
G1 X 284.635 Y1332.240
G1 X 284.885 Y1332.531
G1 X 285.176 Y1332.781
G1 X 285.503 Y1332.984
G1 X 285.862 Y1333.136
G1 X 286.247 Y1333.231
F150
G1 Z  -3.000
F400
G41
G1 X 285.862 Y1333.136
G1 X 285.503 Y1332.984
G1 X 285.176 Y1332.781
G1 X 284.885 Y1332.531
G1 X 284.635 Y1332.240
G1 X 284.431 Y1331.912
G1 X 284.280 Y1331.553
G1 X 284.185 Y1331.169
G1 X 284.152 Y1330.763
G1 X 284.185 Y1330.358
G1 X 284.280 Y1329.973
G1 X 284.431 Y1329.614
G1 X 284.635 Y1329.287
G1 X 284.885 Y1328.995
G1 X 285.176 Y1328.746
G1 X 285.503 Y1328.542
G1 X 285.862 Y1328.391
G1 X 286.247 Y1328.296
G1 X 286.652 Y1328.263
G1 X 287.058 Y1328.296
G1 X 287.443 Y1328.391
G1 X 287.801 Y1328.542
G1 X 288.129 Y1328.746
G1 X 288.420 Y1328.995
G1 X 288.670 Y1329.287
G1 X 288.873 Y1329.614
G1 X 289.025 Y1329.973
G1 X 289.120 Y1330.358
G1 X 289.152 Y1330.763
G1 X 289.120 Y1331.169
G1 X 289.025 Y1331.553
G1 X 288.873 Y1331.912
G1 X 288.670 Y1332.240
G1 X 288.420 Y1332.531
G1 X 288.129 Y1332.781
G1 X 287.801 Y1332.984
G1 X 287.443 Y1333.136
G1 X 287.058 Y1333.231
G1 X 286.652 Y1333.263
F150
G1 Z   3.000
G0 Z  15.000 
G40
M9 M5

(* SHAPE Nr: 20 *)
G0 X 137.173 Y1160.729
M3 M8
G42
F400
G1 X 136.193 Y1161.008
G2 X 137.485 Y1162.108 I   1.196 J  -0.097
G0 Z   3.000 
F150
G1 Z  -1.500
F400
G1 X 137.891 Y1162.075
G1 X 138.275 Y1161.980
G1 X 138.634 Y1161.829
G1 X 138.962 Y1161.625
G1 X 139.253 Y1161.376
G1 X 139.503 Y1161.084
G1 X 139.706 Y1160.757
G1 X 139.858 Y1160.398
G1 X 139.953 Y1160.013
G1 X 139.985 Y1159.608
G1 X 139.952 Y1159.202
G1 X 139.858 Y1158.818
G1 X 139.706 Y1158.459
G1 X 139.503 Y1158.131
G1 X 139.253 Y1157.840
G1 X 138.962 Y1157.590
G1 X 138.634 Y1157.387
G1 X 138.275 Y1157.235
G1 X 137.891 Y1157.141
G1 X 137.485 Y1157.108
G1 X 137.080 Y1157.141
G1 X 136.695 Y1157.235
G1 X 136.336 Y1157.387
G1 X 136.009 Y1157.590
G1 X 135.717 Y1157.840
G1 X 135.468 Y1158.131
G1 X 135.264 Y1158.459
G1 X 135.113 Y1158.818
G1 X 135.018 Y1159.202
G1 X 134.985 Y1159.608
G1 X 135.018 Y1160.013
G1 X 135.113 Y1160.398
G1 X 135.264 Y1160.757
G1 X 135.468 Y1161.084
G1 X 135.717 Y1161.376
G1 X 136.009 Y1161.626
G1 X 136.336 Y1161.829
G1 X 136.695 Y1161.980
G1 X 137.080 Y1162.075
F150
G1 Z  -3.000
F400
G41
G1 X 136.695 Y1161.980
G1 X 136.336 Y1161.829
G1 X 136.009 Y1161.626
G1 X 135.717 Y1161.376
G1 X 135.468 Y1161.084
G1 X 135.264 Y1160.757
G1 X 135.113 Y1160.398
G1 X 135.018 Y1160.013
G1 X 134.985 Y1159.608
G1 X 135.018 Y1159.202
G1 X 135.113 Y1158.818
G1 X 135.264 Y1158.459
G1 X 135.468 Y1158.131
G1 X 135.717 Y1157.840
G1 X 136.009 Y1157.590
G1 X 136.336 Y1157.387
G1 X 136.695 Y1157.235
G1 X 137.080 Y1157.141
G1 X 137.485 Y1157.108
G1 X 137.891 Y1157.141
G1 X 138.275 Y1157.235
G1 X 138.634 Y1157.387
G1 X 138.962 Y1157.590
G1 X 139.253 Y1157.840
G1 X 139.503 Y1158.131
G1 X 139.706 Y1158.459
G1 X 139.858 Y1158.818
G1 X 139.952 Y1159.202
G1 X 139.985 Y1159.608
G1 X 139.953 Y1160.013
G1 X 139.858 Y1160.398
G1 X 139.706 Y1160.757
G1 X 139.503 Y1161.084
G1 X 139.253 Y1161.376
G1 X 138.962 Y1161.625
G1 X 138.634 Y1161.829
G1 X 138.275 Y1161.980
G1 X 137.891 Y1162.075
G1 X 137.485 Y1162.108
F150
G1 Z   3.000
G0 Z  15.000 
G40
M9 M5

(* SHAPE Nr: 21 *)
G0 X 624.882 Y1156.431
M3 M8
G42
F400
G1 X 623.901 Y1156.711
G2 X 625.194 Y1157.810 I   1.196 J  -0.096
G0 Z   3.000 
F150
G1 Z  -1.500
F400
G1 X 625.599 Y1157.778
G1 X 625.984 Y1157.683
G1 X 626.342 Y1157.531
G1 X 626.670 Y1157.328
G1 X 626.961 Y1157.078
G1 X 627.211 Y1156.787
G1 X 627.414 Y1156.459
G1 X 627.566 Y1156.100
G1 X 627.661 Y1155.716
G1 X 627.694 Y1155.310
G1 X 627.661 Y1154.905
G1 X 627.566 Y1154.520
G1 X 627.414 Y1154.161
G1 X 627.211 Y1153.834
G1 X 626.961 Y1153.542
G1 X 626.670 Y1153.293
G1 X 626.342 Y1153.089
G1 X 625.984 Y1152.938
G1 X 625.599 Y1152.843
G1 X 625.194 Y1152.810
G1 X 624.788 Y1152.843
G1 X 624.403 Y1152.938
G1 X 624.045 Y1153.089
G1 X 623.717 Y1153.293
G1 X 623.426 Y1153.542
G1 X 623.176 Y1153.834
G1 X 622.973 Y1154.161
G1 X 622.821 Y1154.520
G1 X 622.726 Y1154.905
G1 X 622.694 Y1155.310
G1 X 622.726 Y1155.716
G1 X 622.821 Y1156.100
G1 X 622.973 Y1156.459
G1 X 623.176 Y1156.787
G1 X 623.426 Y1157.078
G1 X 623.717 Y1157.328
G1 X 624.045 Y1157.531
G1 X 624.403 Y1157.683
G1 X 624.788 Y1157.778
F150
G1 Z  -3.000
F400
G41
G1 X 624.403 Y1157.683
G1 X 624.045 Y1157.531
G1 X 623.717 Y1157.328
G1 X 623.426 Y1157.078
G1 X 623.176 Y1156.787
G1 X 622.973 Y1156.459
G1 X 622.821 Y1156.100
G1 X 622.726 Y1155.716
G1 X 622.694 Y1155.310
G1 X 622.726 Y1154.905
G1 X 622.821 Y1154.520
G1 X 622.973 Y1154.161
G1 X 623.176 Y1153.834
G1 X 623.426 Y1153.542
G1 X 623.717 Y1153.293
G1 X 624.045 Y1153.089
G1 X 624.403 Y1152.938
G1 X 624.788 Y1152.843
G1 X 625.194 Y1152.810
G1 X 625.599 Y1152.843
G1 X 625.984 Y1152.938
G1 X 626.342 Y1153.089
G1 X 626.670 Y1153.293
G1 X 626.961 Y1153.542
G1 X 627.211 Y1153.834
G1 X 627.414 Y1154.161
G1 X 627.566 Y1154.520
G1 X 627.661 Y1154.905
G1 X 627.694 Y1155.310
G1 X 627.661 Y1155.716
G1 X 627.566 Y1156.100
G1 X 627.414 Y1156.459
G1 X 627.211 Y1156.787
G1 X 626.961 Y1157.078
G1 X 626.670 Y1157.328
G1 X 626.342 Y1157.531
G1 X 625.984 Y1157.683
G1 X 625.599 Y1157.778
G1 X 625.194 Y1157.810
F150
G1 Z   3.000
G0 Z  15.000 
G40
M9 M5

(* SHAPE Nr: 22 *)
G0 X 156.871 Y1153.449
M3 M8
G42
F400
G1 X 155.891 Y1153.728
G2 X 157.183 Y1154.828 I   1.196 J  -0.096
G0 Z   3.000 
F150
G1 Z  -1.500
F400
G1 X 157.589 Y1154.795
G1 X 157.973 Y1154.701
G1 X 158.332 Y1154.549
G1 X 158.660 Y1154.346
G1 X 158.951 Y1154.096
G1 X 159.201 Y1153.805
G1 X 159.404 Y1153.477
G1 X 159.556 Y1153.118
G1 X 159.650 Y1152.734
G1 X 159.683 Y1152.328
G1 X 159.650 Y1151.923
G1 X 159.556 Y1151.538
G1 X 159.404 Y1151.179
G1 X 159.201 Y1150.851
G1 X 158.951 Y1150.560
G1 X 158.660 Y1150.310
G1 X 158.332 Y1150.107
G1 X 157.973 Y1149.956
G1 X 157.589 Y1149.861
G1 X 157.183 Y1149.828
G1 X 156.778 Y1149.861
G1 X 156.393 Y1149.956
G1 X 156.034 Y1150.107
G1 X 155.707 Y1150.310
G1 X 155.415 Y1150.560
G1 X 155.165 Y1150.852
G1 X 154.962 Y1151.179
G1 X 154.811 Y1151.538
G1 X 154.716 Y1151.923
G1 X 154.683 Y1152.328
G1 X 154.716 Y1152.734
G1 X 154.811 Y1153.118
G1 X 154.962 Y1153.477
G1 X 155.165 Y1153.804
G1 X 155.415 Y1154.096
G1 X 155.707 Y1154.346
G1 X 156.034 Y1154.549
G1 X 156.393 Y1154.701
G1 X 156.778 Y1154.795
F150
G1 Z  -3.000
F400
G41
G1 X 156.393 Y1154.701
G1 X 156.034 Y1154.549
G1 X 155.707 Y1154.346
G1 X 155.415 Y1154.096
G1 X 155.165 Y1153.804
G1 X 154.962 Y1153.477
G1 X 154.811 Y1153.118
G1 X 154.716 Y1152.734
G1 X 154.683 Y1152.328
G1 X 154.716 Y1151.923
G1 X 154.811 Y1151.538
G1 X 154.962 Y1151.179
G1 X 155.165 Y1150.852
G1 X 155.415 Y1150.560
G1 X 155.707 Y1150.310
G1 X 156.034 Y1150.107
G1 X 156.393 Y1149.956
G1 X 156.778 Y1149.861
G1 X 157.183 Y1149.828
G1 X 157.589 Y1149.861
G1 X 157.973 Y1149.956
G1 X 158.332 Y1150.107
G1 X 158.660 Y1150.310
G1 X 158.951 Y1150.560
G1 X 159.201 Y1150.851
G1 X 159.404 Y1151.179
G1 X 159.556 Y1151.538
G1 X 159.650 Y1151.923
G1 X 159.683 Y1152.328
G1 X 159.650 Y1152.734
G1 X 159.556 Y1153.118
G1 X 159.404 Y1153.477
G1 X 159.201 Y1153.805
G1 X 158.951 Y1154.096
G1 X 158.660 Y1154.346
G1 X 158.332 Y1154.549
G1 X 157.973 Y1154.701
G1 X 157.589 Y1154.795
G1 X 157.183 Y1154.828
F150
G1 Z   3.000
G0 Z  15.000 
G40
M9 M5

(* SHAPE Nr: 23 *)
G0 X 604.237 Y1152.584
M3 M8
G42
F400
G1 X 603.256 Y1152.864
G2 X 604.549 Y1153.963 I   1.196 J  -0.096
G0 Z   3.000 
F150
G1 Z  -1.500
F400
G1 X 604.954 Y1153.931
G1 X 605.339 Y1153.836
G1 X 605.698 Y1153.684
G1 X 606.025 Y1153.481
G1 X 606.317 Y1153.231
G1 X 606.567 Y1152.940
G1 X 606.770 Y1152.612
G1 X 606.921 Y1152.253
G1 X 607.016 Y1151.869
G1 X 607.049 Y1151.463
G1 X 607.016 Y1151.058
G1 X 606.921 Y1150.673
G1 X 606.770 Y1150.314
G1 X 606.567 Y1149.987
G1 X 606.317 Y1149.695
G1 X 606.025 Y1149.446
G1 X 605.698 Y1149.242
G1 X 605.339 Y1149.091
G1 X 604.954 Y1148.996
G1 X 604.549 Y1148.963
G1 X 604.143 Y1148.996
G1 X 603.759 Y1149.091
G1 X 603.400 Y1149.242
G1 X 603.072 Y1149.446
G1 X 602.781 Y1149.695
G1 X 602.531 Y1149.987
G1 X 602.328 Y1150.314
G1 X 602.176 Y1150.673
G1 X 602.082 Y1151.058
G1 X 602.049 Y1151.463
G1 X 602.082 Y1151.869
G1 X 602.176 Y1152.253
G1 X 602.328 Y1152.612
G1 X 602.531 Y1152.940
G1 X 602.781 Y1153.231
G1 X 603.072 Y1153.481
G1 X 603.400 Y1153.684
G1 X 603.759 Y1153.836
G1 X 604.143 Y1153.931
F150
G1 Z  -3.000
F400
G41
G1 X 603.759 Y1153.836
G1 X 603.400 Y1153.684
G1 X 603.072 Y1153.481
G1 X 602.781 Y1153.231
G1 X 602.531 Y1152.940
G1 X 602.328 Y1152.612
G1 X 602.176 Y1152.253
G1 X 602.082 Y1151.869
G1 X 602.049 Y1151.463
G1 X 602.082 Y1151.058
G1 X 602.176 Y1150.673
G1 X 602.328 Y1150.314
G1 X 602.531 Y1149.987
G1 X 602.781 Y1149.695
G1 X 603.072 Y1149.446
G1 X 603.400 Y1149.242
G1 X 603.759 Y1149.091
G1 X 604.143 Y1148.996
G1 X 604.549 Y1148.963
G1 X 604.954 Y1148.996
G1 X 605.339 Y1149.091
G1 X 605.698 Y1149.242
G1 X 606.025 Y1149.446
G1 X 606.317 Y1149.695
G1 X 606.567 Y1149.987
G1 X 606.770 Y1150.314
G1 X 606.921 Y1150.673
G1 X 607.016 Y1151.058
G1 X 607.049 Y1151.463
G1 X 607.016 Y1151.869
G1 X 606.921 Y1152.253
G1 X 606.770 Y1152.612
G1 X 606.567 Y1152.940
G1 X 606.317 Y1153.231
G1 X 606.025 Y1153.481
G1 X 605.698 Y1153.684
G1 X 605.339 Y1153.836
G1 X 604.954 Y1153.931
G1 X 604.549 Y1153.963
F150
G1 Z   3.000
G0 Z  15.000 
G40
M9 M5

(* SHAPE Nr: 24 *)
G0 X 138.195 Y1760.524
M3 M8
G41
F400
G1 X 139.158 Y1760.858
G3 X 137.806 Y1761.884 I  -1.189 J  -0.163
G0 Z   3.000 
F150
G1 Z  -1.500
F400
G1 X 131.658 Y1761.039
G1 X 125.619 Y1758.727
G1 X 119.843 Y1755.279
G1 X 114.482 Y1751.027
G1 X 109.690 Y1746.304
G1 X 105.620 Y1741.442
G1 X 102.423 Y1736.773
G1 X 100.254 Y1732.628
G1 X  99.265 Y1729.340
G1 X  99.609 Y1727.241
G1 X 104.681 Y1715.337
G1 X 111.618 Y1688.691
G1 X 119.866 Y1650.595
G1 X 128.875 Y1604.339
G1 X 138.092 Y1553.213
G1 X 146.966 Y1500.510
G1 X 154.944 Y1449.519
G1 X 161.475 Y1403.531
G1 X 166.007 Y1365.836
G1 X 167.988 Y1339.726
G1 X 167.926 Y1326.471
G1 X 167.109 Y1313.579
G1 X 165.716 Y1301.295
G1 X 163.927 Y1289.860
G1 X 161.921 Y1279.517
G1 X 159.878 Y1270.510
G1 X 157.977 Y1263.082
G1 X 156.397 Y1257.476
G1 X 155.317 Y1253.934
G1 X 154.918 Y1252.699
G1 X 154.920 Y1252.698
G1 X 154.926 Y1252.695
G1 X 154.936 Y1252.690
G1 X 154.951 Y1252.683
G1 X 154.970 Y1252.675
G1 X 154.992 Y1252.664
G1 X 155.019 Y1252.652
G1 X 155.050 Y1252.638
G1 X 155.085 Y1252.622
G1 X 155.123 Y1252.604
G1 X 143.027 Y1217.402
G1 X 129.531 Y1178.123
G1 X 115.263 Y1136.600
G1 X 100.854 Y1094.667
G1 X  86.934 Y1054.156
G1 X  74.133 Y1016.900
G1 X  63.080 Y 984.733
G1 X  54.405 Y 959.487
G1 X  48.738 Y 942.995
G1 X  46.709 Y 937.090
G1 X  47.814 Y 937.090
G1 X  50.814 Y 937.090
G1 X  55.235 Y 937.090
G1 X  60.603 Y 937.090
G1 X  66.444 Y 937.090
G1 X  72.286 Y 937.090
G1 X  77.654 Y 937.090
G1 X  82.074 Y 937.090
G1 X  85.074 Y 937.090
G1 X  86.179 Y 937.090
G1 X  88.352 Y 942.564
G1 X  94.425 Y 957.865
G1 X 103.734 Y 981.318
G1 X 115.612 Y1011.245
G1 X 129.394 Y1045.969
G1 X 144.414 Y1083.811
G1 X 160.006 Y1123.095
G1 X 175.504 Y1162.143
G1 X 190.243 Y1199.278
G1 X 203.557 Y1232.822
G1 X 206.562 Y1239.639
G1 X 209.437 Y1246.372
G1 X 212.310 Y1253.003
G1 X 215.314 Y1259.511
G1 X 218.578 Y1265.876
G1 X 222.234 Y1272.078
G1 X 226.413 Y1278.098
G1 X 231.243 Y1283.915
G1 X 236.858 Y1289.509
G1 X 243.386 Y1294.861
G1 X 251.552 Y1298.987
G1 X 264.263 Y1302.859
G1 X 280.832 Y1306.434
G1 X 300.572 Y1309.670
G1 X 322.796 Y1312.525
G1 X 346.816 Y1314.955
G1 X 371.946 Y1316.919
G1 X 397.497 Y1318.375
G1 X 422.784 Y1319.279
G1 X 447.119 Y1319.590
G1 X 458.422 Y1319.514
G1 X 469.257 Y1319.282
G1 X 479.544 Y1318.889
G1 X 489.203 Y1318.331
G1 X 498.156 Y1317.602
G1 X 506.323 Y1316.698
G1 X 513.624 Y1315.613
G1 X 519.980 Y1314.343
G1 X 525.312 Y1312.884
G1 X 529.540 Y1311.229
G1 X 535.860 Y1307.667
G1 X 541.494 Y1303.668
G1 X 546.492 Y1299.262
G1 X 550.906 Y1294.482
G1 X 554.786 Y1289.358
G1 X 558.184 Y1283.922
G1 X 561.151 Y1278.205
G1 X 563.738 Y1272.238
G1 X 565.996 Y1266.053
G1 X 567.977 Y1259.681
G1 X 575.079 Y1226.086
G1 X 583.360 Y1186.916
G1 X 592.366 Y1144.316
G1 X 601.644 Y1100.434
G1 X 610.739 Y1057.415
G1 X 619.197 Y1017.404
G1 X 626.566 Y 982.550
G1 X 632.391 Y 954.996
G1 X 636.219 Y 936.890
G1 X 637.596 Y 930.378
G1 X 638.651 Y 930.378
G1 X 641.513 Y 930.378
G1 X 645.731 Y 930.378
G1 X 650.852 Y 930.378
G1 X 656.426 Y 930.378
G1 X 662.000 Y 930.378
G1 X 667.122 Y 930.378
G1 X 671.339 Y 930.378
G1 X 674.202 Y 930.378
G1 X 675.256 Y 930.378
G1 X 674.442 Y 935.407
G1 X 672.153 Y 949.545
G1 X 668.618 Y 971.372
G1 X 664.069 Y 999.467
G1 X 658.735 Y1032.409
G1 X 652.846 Y1068.777
G1 X 646.633 Y1107.150
G1 X 640.325 Y1146.108
G1 X 634.152 Y1184.230
G1 X 628.345 Y1220.094
G1 X 628.395 Y1220.103
G1 X 628.440 Y1220.111
G1 X 628.480 Y1220.119
G1 X 628.514 Y1220.125
G1 X 628.544 Y1220.130
G1 X 628.568 Y1220.135
G1 X 628.587 Y1220.138
G1 X 628.601 Y1220.141
G1 X 628.609 Y1220.142
G1 X 628.611 Y1220.143
G1 X 628.324 Y1222.397
G1 X 627.542 Y1228.517
G1 X 626.391 Y1237.535
G1 X 624.992 Y1248.486
G1 X 623.470 Y1260.403
G1 X 621.949 Y1272.320
G1 X 620.550 Y1283.271
G1 X 619.399 Y1292.289
G1 X 618.617 Y1298.409
G1 X 618.329 Y1300.663
G1 X 618.222 Y1301.876
G1 X 617.904 Y1305.228
G1 X 617.382 Y1310.287
G1 X 616.665 Y1316.622
G1 X 615.758 Y1323.802
G1 X 614.670 Y1331.397
G1 X 613.406 Y1338.974
G1 X 611.975 Y1346.102
G1 X 610.383 Y1352.351
G1 X 608.638 Y1357.290
G1 X 606.523 Y1361.326
G1 X 604.201 Y1364.843
G1 X 601.707 Y1367.882
G1 X 599.073 Y1370.482
G1 X 596.333 Y1372.685
G1 X 593.521 Y1374.530
G1 X 590.669 Y1376.060
G1 X 587.811 Y1377.313
G1 X 584.981 Y1378.331
G1 X 582.212 Y1379.154
G1 X 583.368 Y1372.949
G1 X 586.506 Y1356.106
G1 X 591.131 Y1331.285
G1 X 596.748 Y1301.145
G1 X 602.859 Y1268.346
G1 X 608.971 Y1235.547
G1 X 614.587 Y1205.408
G1 X 619.212 Y1180.587
G1 X 622.351 Y1163.744
G1 X 605.320 Y1154.150
G1 X 604.126 Y1160.554
G1 X 600.888 Y1177.935
G1 X 596.115 Y1203.549
G1 X 590.319 Y1234.652
G1 X 584.012 Y1268.500
G1 X 577.705 Y1302.347
G1 X 571.909 Y1333.451
G1 X 567.136 Y1359.065
G1 X 563.898 Y1376.446
G1 X 562.704 Y1382.850
G1 X 561.721 Y1382.933
G1 X 560.723 Y1383.007
G1 X 559.711 Y1383.072
G1 X 558.683 Y1383.128
G1 X 557.642 Y1383.175
G1 X 556.586 Y1383.214
G1 X 555.515 Y1383.243
G1 X 554.431 Y1383.264
G1 X 553.333 Y1383.276
G1 X 552.221 Y1383.281
G1 X 549.818 Y1383.262
G1 X 547.354 Y1383.208
G1 X 544.831 Y1383.120
G1 X 542.251 Y1382.997
G1 X 539.614 Y1382.843
G1 X 536.921 Y1382.658
G1 X 534.174 Y1382.442
G1 X 531.374 Y1382.198
G1 X 528.523 Y1381.926
G1 X 525.621 Y1381.628
G1 X 525.715 Y1380.685
G1 X 525.971 Y1378.127
G1 X 526.348 Y1374.358
G1 X 526.806 Y1369.780
G1 X 527.304 Y1364.799
G1 X 527.802 Y1359.818
G1 X 528.259 Y1355.240
G1 X 528.636 Y1351.471
G1 X 528.892 Y1348.913
G1 X 510.578 Y1346.130
G1 X 510.485 Y1347.060
G1 X 510.233 Y1349.585
G1 X 509.861 Y1353.306
G1 X 509.409 Y1357.824
G1 X 508.917 Y1362.741
G1 X 508.426 Y1367.658
G1 X 507.974 Y1372.176
G1 X 507.602 Y1375.897
G1 X 507.349 Y1378.422
G1 X 507.256 Y1379.352
G1 X 503.278 Y1378.793
G1 X 499.238 Y1378.209
G1 X 495.139 Y1377.601
G1 X 490.983 Y1376.971
G1 X 486.772 Y1376.323
G1 X 482.509 Y1375.657
G1 X 478.195 Y1374.977
G1 X 473.834 Y1374.283
G1 X 469.427 Y1373.580
G1 X 464.977 Y1372.868
G1 X 465.094 Y1372.140
G1 X 465.412 Y1370.165
G1 X 465.881 Y1367.255
G1 X 466.451 Y1363.721
G1 X 467.070 Y1359.875
G1 X 467.690 Y1356.029
G1 X 468.260 Y1352.495
G1 X 468.728 Y1349.584
G1 X 469.047 Y1347.609
G1 X 450.900 Y1343.939
G1 X 450.782 Y1344.668
G1 X 450.463 Y1346.646
G1 X 449.994 Y1349.561
G1 X 449.423 Y1353.101
G1 X 448.802 Y1356.953
G1 X 448.182 Y1360.805
G1 X 447.611 Y1364.345
G1 X 447.141 Y1367.261
G1 X 446.823 Y1369.239
G1 X 446.705 Y1369.968
G1 X 442.645 Y1369.336
G1 X 438.563 Y1368.707
G1 X 434.459 Y1368.083
G1 X 430.335 Y1367.466
G1 X 426.192 Y1366.857
G1 X 422.033 Y1366.257
G1 X 417.859 Y1365.668
G1 X 413.671 Y1365.091
G1 X 409.471 Y1364.528
G1 X 405.260 Y1363.980
G1 X 405.338 Y1363.361
G1 X 405.550 Y1361.680
G1 X 405.862 Y1359.203
G1 X 406.241 Y1356.195
G1 X 406.654 Y1352.921
G1 X 407.066 Y1349.648
G1 X 407.446 Y1346.640
G1 X 407.758 Y1344.162
G1 X 407.970 Y1342.481
G1 X 389.693 Y1339.549
G1 X 389.614 Y1340.172
G1 X 389.401 Y1341.864
G1 X 389.087 Y1344.358
G1 X 388.705 Y1347.386
G1 X 388.290 Y1350.681
G1 X 387.874 Y1353.977
G1 X 387.493 Y1357.005
G1 X 387.178 Y1359.498
G1 X 386.965 Y1361.191
G1 X 386.887 Y1361.814
G1 X 382.705 Y1361.379
G1 X 378.522 Y1360.967
G1 X 374.340 Y1360.580
G1 X 370.160 Y1360.221
G1 X 365.983 Y1359.889
G1 X 361.812 Y1359.587
G1 X 357.647 Y1359.315
G1 X 353.490 Y1359.076
G1 X 349.343 Y1358.871
G1 X 345.207 Y1358.700
G1 X 345.265 Y1358.101
G1 X 345.424 Y1356.474
G1 X 345.658 Y1354.077
G1 X 345.942 Y1351.167
G1 X 346.251 Y1347.999
G1 X 346.560 Y1344.832
G1 X 346.844 Y1341.921
G1 X 347.078 Y1339.524
G1 X 347.236 Y1337.898
G1 X 328.882 Y1335.502
G1 X 328.820 Y1336.143
G1 X 328.650 Y1337.884
G1 X 328.400 Y1340.449
G1 X 328.096 Y1343.564
G1 X 327.765 Y1346.954
G1 X 327.434 Y1350.344
G1 X 327.130 Y1353.459
G1 X 326.880 Y1356.024
G1 X 326.710 Y1357.765
G1 X 326.648 Y1358.407
G1 X 322.590 Y1358.456
G1 X 318.554 Y1358.550
G1 X 314.540 Y1358.689
G1 X 310.549 Y1358.876
G1 X 306.584 Y1359.112
G1 X 302.645 Y1359.397
G1 X 298.734 Y1359.734
G1 X 294.853 Y1360.125
G1 X 291.003 Y1360.569
G1 X 287.185 Y1361.069
G1 X 287.139 Y1360.293
G1 X 287.015 Y1358.185
G1 X 286.832 Y1355.078
G1 X 286.610 Y1351.306
G1 X 286.368 Y1347.201
G1 X 286.127 Y1343.096
G1 X 285.904 Y1339.324
G1 X 285.721 Y1336.217
G1 X 285.597 Y1334.109
G1 X 267.083 Y1334.420
G1 X 267.133 Y1335.260
G1 X 267.267 Y1337.539
G1 X 267.465 Y1340.897
G1 X 267.705 Y1344.976
G1 X 267.967 Y1349.414
G1 X 268.228 Y1353.852
G1 X 268.468 Y1357.931
G1 X 268.666 Y1361.289
G1 X 268.800 Y1363.568
G1 X 268.850 Y1364.408
G1 X 267.471 Y1364.729
G1 X 266.099 Y1365.060
G1 X 264.733 Y1365.400
G1 X 263.374 Y1365.750
G1 X 262.020 Y1366.110
G1 X 260.673 Y1366.479
G1 X 259.333 Y1366.858
G1 X 258.000 Y1367.248
G1 X 256.673 Y1367.647
G1 X 255.352 Y1368.056
G1 X 253.330 Y1368.752
G1 X 251.381 Y1369.429
G1 X 249.503 Y1370.092
G1 X 247.692 Y1370.745
G1 X 245.945 Y1371.394
G1 X 244.258 Y1372.043
G1 X 242.628 Y1372.696
G1 X 241.051 Y1373.358
G1 X 239.524 Y1374.034
G1 X 238.042 Y1374.729
G1 X 235.770 Y1368.580
G1 X 229.601 Y1351.889
G1 X 220.511 Y1327.291
G1 X 209.472 Y1297.422
G1 X 197.460 Y1264.918
G1 X 185.447 Y1232.414
G1 X 174.409 Y1202.545
G1 X 165.318 Y1177.947
G1 X 159.150 Y1161.256
G1 X 139.524 Y1161.520
G1 X 141.850 Y1167.812
G1 X 148.162 Y1184.893
G1 X 157.465 Y1210.064
G1 X 168.761 Y1240.629
G1 X 181.053 Y1273.891
G1 X 193.346 Y1307.153
G1 X 204.642 Y1337.719
G1 X 213.944 Y1362.890
G1 X 220.256 Y1379.970
G1 X 222.582 Y1386.263
G1 X 221.550 Y1387.436
G1 X 220.517 Y1388.671
G1 X 219.481 Y1389.972
G1 X 218.438 Y1391.341
G1 X 217.386 Y1392.781
G1 X 216.325 Y1394.295
G1 X 215.250 Y1395.887
G1 X 214.161 Y1397.559
G1 X 213.054 Y1399.314
G1 X 211.928 Y1401.156
G1 X 211.590 Y1401.679
G1 X 211.254 Y1402.220
G1 X 210.919 Y1402.781
G1 X 210.586 Y1403.360
G1 X 210.255 Y1403.957
G1 X 209.925 Y1404.573
G1 X 209.597 Y1405.207
G1 X 209.271 Y1405.859
G1 X 208.947 Y1406.529
G1 X 208.624 Y1407.217
G1 X 207.957 Y1407.090
G1 X 206.145 Y1406.743
G1 X 203.476 Y1406.232
G1 X 200.235 Y1405.612
G1 X 196.708 Y1404.937
G1 X 193.180 Y1404.262
G1 X 189.939 Y1403.642
G1 X 187.270 Y1403.131
G1 X 185.459 Y1402.784
G1 X 181.314 Y1420.827
G1 X 181.905 Y1420.940
G1 X 183.507 Y1421.247
G1 X 185.869 Y1421.699
G1 X 188.737 Y1422.248
G1 X 191.857 Y1422.845
G1 X 194.978 Y1423.442
G1 X 197.846 Y1423.991
G1 X 200.207 Y1424.443
G1 X 201.810 Y1424.749
G1 X 202.400 Y1424.862
G1 X 201.123 Y1429.578
G1 X 199.874 Y1434.573
G1 X 198.653 Y1439.832
G1 X 197.459 Y1445.344
G1 X 196.291 Y1451.094
G1 X 195.148 Y1457.071
G1 X 194.030 Y1463.261
G1 X 192.935 Y1469.651
G1 X 191.863 Y1476.228
G1 X 190.813 Y1482.979
G1 X 190.254 Y1482.889
G1 X 188.739 Y1482.645
G1 X 186.507 Y1482.286
G1 X 183.796 Y1481.849
G1 X 180.845 Y1481.373
G1 X 177.895 Y1480.898
G1 X 175.184 Y1480.461
G1 X 172.951 Y1480.101
G1 X 171.436 Y1479.857
G1 X 167.935 Y1498.032
G1 X 168.501 Y1498.123
G1 X 170.039 Y1498.371
G1 X 172.306 Y1498.736
G1 X 175.058 Y1499.179
G1 X 178.053 Y1499.662
G1 X 181.049 Y1500.145
G1 X 183.801 Y1500.588
G1 X 186.068 Y1500.953
G1 X 187.606 Y1501.201
G1 X 188.172 Y1501.293
G1 X 187.399 Y1507.017
G1 X 186.637 Y1512.815
G1 X 185.885 Y1518.678
G1 X 185.144 Y1524.602
G1 X 184.413 Y1530.580
G1 X 183.691 Y1536.604
G1 X 182.979 Y1542.670
G1 X 182.275 Y1548.770
G1 X 181.580 Y1554.898
G1 X 180.893 Y1561.048
G1 X 180.298 Y1560.949
G1 X 178.683 Y1560.680
G1 X 176.304 Y1560.282
G1 X 173.416 Y1559.800
G1 X 170.272 Y1559.275
G1 X 167.128 Y1558.751
G1 X 164.240 Y1558.268
G1 X 161.861 Y1557.871
G1 X 160.246 Y1557.602
G1 X 156.606 Y1575.750
G1 X 157.229 Y1575.854
G1 X 158.923 Y1576.137
G1 X 161.418 Y1576.553
G1 X 164.447 Y1577.059
G1 X 167.745 Y1577.609
G1 X 171.042 Y1578.160
G1 X 174.071 Y1578.666
G1 X 176.567 Y1579.082
G1 X 178.260 Y1579.365
G1 X 178.883 Y1579.469
G1 X 178.219 Y1585.685
G1 X 177.560 Y1591.892
G1 X 176.906 Y1598.081
G1 X 176.257 Y1604.248
G1 X 175.613 Y1610.384
G1 X 174.974 Y1616.485
G1 X 174.338 Y1622.542
G1 X 173.705 Y1628.550
G1 X 173.075 Y1634.503
G1 X 172.448 Y1640.393
G1 X 171.778 Y1640.260
G1 X 169.960 Y1639.902
G1 X 167.282 Y1639.373
G1 X 164.029 Y1638.731
G1 X 160.489 Y1638.033
G1 X 156.950 Y1637.334
G1 X 153.697 Y1636.692
G1 X 151.019 Y1636.163
G1 X 149.201 Y1635.805
G1 X 144.949 Y1653.822
G1 X 145.663 Y1653.963
G1 X 147.600 Y1654.346
G1 X 150.455 Y1654.909
G1 X 153.922 Y1655.593
G1 X 157.694 Y1656.338
G1 X 161.467 Y1657.082
G1 X 164.933 Y1657.766
G1 X 167.788 Y1658.330
G1 X 169.725 Y1658.712
G1 X 170.439 Y1658.853
G1 X 169.579 Y1666.515
G1 X 168.719 Y1673.988
G1 X 167.857 Y1681.254
G1 X 166.994 Y1688.296
G1 X 166.127 Y1695.097
G1 X 165.256 Y1701.640
G1 X 164.379 Y1707.908
G1 X 163.495 Y1713.882
G1 X 162.604 Y1719.546
G1 X 161.703 Y1724.883
G1 X 160.982 Y1724.608
G1 X 159.024 Y1723.859
G1 X 156.138 Y1722.756
G1 X 152.633 Y1721.417
G1 X 148.820 Y1719.959
G1 X 145.006 Y1718.501
G1 X 141.502 Y1717.162
G1 X 138.616 Y1716.059
G1 X 136.657 Y1715.310
G1 X 129.331 Y1732.315
G1 X 130.129 Y1732.620
G1 X 132.295 Y1733.448
G1 X 135.487 Y1734.668
G1 X 139.363 Y1736.150
G1 X 143.581 Y1737.762
G1 X 147.800 Y1739.374
G1 X 151.676 Y1740.856
G1 X 154.868 Y1742.076
G1 X 157.034 Y1742.904
G1 X 157.832 Y1743.209
G1 X 157.168 Y1745.582
G1 X 156.496 Y1747.751
G1 X 155.816 Y1749.710
G1 X 155.128 Y1751.454
G1 X 154.432 Y1752.976
G1 X 153.726 Y1754.272
G1 X 153.011 Y1755.334
G1 X 152.287 Y1756.159
G1 X 151.553 Y1756.739
G1 X 150.808 Y1757.070
G1 X 149.561 Y1758.031
G1 X 148.299 Y1758.876
G1 X 147.022 Y1759.609
G1 X 145.732 Y1760.233
G1 X 144.430 Y1760.751
G1 X 143.119 Y1761.168
G1 X 141.799 Y1761.486
G1 X 140.473 Y1761.710
G1 X 139.141 Y1761.841
F150
G1 Z  -3.000
F400
G42
G1 X 140.473 Y1761.710
G1 X 141.799 Y1761.486
G1 X 143.119 Y1761.168
G1 X 144.430 Y1760.751
G1 X 145.732 Y1760.233
G1 X 147.022 Y1759.609
G1 X 148.299 Y1758.876
G1 X 149.561 Y1758.031
G1 X 150.808 Y1757.070
G1 X 151.553 Y1756.739
G1 X 152.287 Y1756.159
G1 X 153.011 Y1755.334
G1 X 153.726 Y1754.272
G1 X 154.432 Y1752.976
G1 X 155.128 Y1751.454
G1 X 155.816 Y1749.710
G1 X 156.496 Y1747.751
G1 X 157.168 Y1745.582
G1 X 157.832 Y1743.209
G1 X 157.034 Y1742.904
G1 X 154.868 Y1742.076
G1 X 151.676 Y1740.856
G1 X 147.800 Y1739.374
G1 X 143.581 Y1737.762
G1 X 139.363 Y1736.150
G1 X 135.487 Y1734.668
G1 X 132.295 Y1733.448
G1 X 130.129 Y1732.620
G1 X 129.331 Y1732.315
G1 X 136.657 Y1715.310
G1 X 138.616 Y1716.059
G1 X 141.502 Y1717.162
G1 X 145.006 Y1718.501
G1 X 148.820 Y1719.959
G1 X 152.633 Y1721.417
G1 X 156.138 Y1722.756
G1 X 159.024 Y1723.859
G1 X 160.982 Y1724.608
G1 X 161.703 Y1724.883
G1 X 162.604 Y1719.546
G1 X 163.495 Y1713.882
G1 X 164.379 Y1707.908
G1 X 165.256 Y1701.640
G1 X 166.127 Y1695.097
G1 X 166.994 Y1688.296
G1 X 167.857 Y1681.254
G1 X 168.719 Y1673.988
G1 X 169.579 Y1666.515
G1 X 170.439 Y1658.853
G1 X 169.725 Y1658.712
G1 X 167.788 Y1658.330
G1 X 164.933 Y1657.766
G1 X 161.467 Y1657.082
G1 X 157.694 Y1656.338
G1 X 153.922 Y1655.593
G1 X 150.455 Y1654.909
G1 X 147.600 Y1654.346
G1 X 145.663 Y1653.963
G1 X 144.949 Y1653.822
G1 X 149.201 Y1635.805
G1 X 151.019 Y1636.163
G1 X 153.697 Y1636.692
G1 X 156.950 Y1637.334
G1 X 160.489 Y1638.033
G1 X 164.029 Y1638.731
G1 X 167.282 Y1639.373
G1 X 169.960 Y1639.902
G1 X 171.778 Y1640.260
G1 X 172.448 Y1640.393
G1 X 173.075 Y1634.503
G1 X 173.705 Y1628.550
G1 X 174.338 Y1622.542
G1 X 174.974 Y1616.485
G1 X 175.613 Y1610.384
G1 X 176.257 Y1604.248
G1 X 176.906 Y1598.081
G1 X 177.560 Y1591.892
G1 X 178.219 Y1585.685
G1 X 178.883 Y1579.469
G1 X 178.260 Y1579.365
G1 X 176.567 Y1579.082
G1 X 174.071 Y1578.666
G1 X 171.042 Y1578.160
G1 X 167.745 Y1577.609
G1 X 164.447 Y1577.059
G1 X 161.418 Y1576.553
G1 X 158.923 Y1576.137
G1 X 157.229 Y1575.854
G1 X 156.606 Y1575.750
G1 X 160.246 Y1557.602
G1 X 161.861 Y1557.871
G1 X 164.240 Y1558.268
G1 X 167.128 Y1558.751
G1 X 170.272 Y1559.275
G1 X 173.416 Y1559.800
G1 X 176.304 Y1560.282
G1 X 178.683 Y1560.680
G1 X 180.298 Y1560.949
G1 X 180.893 Y1561.048
G1 X 181.580 Y1554.898
G1 X 182.275 Y1548.770
G1 X 182.979 Y1542.670
G1 X 183.691 Y1536.604
G1 X 184.413 Y1530.580
G1 X 185.144 Y1524.602
G1 X 185.885 Y1518.678
G1 X 186.637 Y1512.815
G1 X 187.399 Y1507.017
G1 X 188.172 Y1501.293
G1 X 187.606 Y1501.201
G1 X 186.068 Y1500.953
G1 X 183.801 Y1500.588
G1 X 181.049 Y1500.145
G1 X 178.053 Y1499.662
G1 X 175.058 Y1499.179
G1 X 172.306 Y1498.736
G1 X 170.039 Y1498.371
G1 X 168.501 Y1498.123
G1 X 167.935 Y1498.032
G1 X 171.436 Y1479.857
G1 X 172.951 Y1480.101
G1 X 175.184 Y1480.461
G1 X 177.895 Y1480.898
G1 X 180.845 Y1481.373
G1 X 183.796 Y1481.849
G1 X 186.507 Y1482.286
G1 X 188.739 Y1482.645
G1 X 190.254 Y1482.889
G1 X 190.813 Y1482.979
G1 X 191.863 Y1476.228
G1 X 192.935 Y1469.651
G1 X 194.030 Y1463.261
G1 X 195.148 Y1457.071
G1 X 196.291 Y1451.094
G1 X 197.459 Y1445.344
G1 X 198.653 Y1439.832
G1 X 199.874 Y1434.573
G1 X 201.123 Y1429.578
G1 X 202.400 Y1424.862
G1 X 201.810 Y1424.749
G1 X 200.207 Y1424.443
G1 X 197.846 Y1423.991
G1 X 194.978 Y1423.442
G1 X 191.857 Y1422.845
G1 X 188.737 Y1422.248
G1 X 185.869 Y1421.699
G1 X 183.507 Y1421.247
G1 X 181.905 Y1420.940
G1 X 181.314 Y1420.827
G1 X 185.459 Y1402.784
G1 X 187.270 Y1403.131
G1 X 189.939 Y1403.642
G1 X 193.180 Y1404.262
G1 X 196.708 Y1404.937
G1 X 200.235 Y1405.612
G1 X 203.476 Y1406.232
G1 X 206.145 Y1406.743
G1 X 207.957 Y1407.090
G1 X 208.624 Y1407.217
G1 X 208.947 Y1406.529
G1 X 209.271 Y1405.859
G1 X 209.597 Y1405.207
G1 X 209.925 Y1404.573
G1 X 210.255 Y1403.957
G1 X 210.586 Y1403.360
G1 X 210.919 Y1402.781
G1 X 211.254 Y1402.220
G1 X 211.590 Y1401.679
G1 X 211.928 Y1401.156
G1 X 213.054 Y1399.314
G1 X 214.161 Y1397.559
G1 X 215.250 Y1395.887
G1 X 216.325 Y1394.295
G1 X 217.386 Y1392.781
G1 X 218.438 Y1391.341
G1 X 219.481 Y1389.972
G1 X 220.517 Y1388.671
G1 X 221.550 Y1387.436
G1 X 222.582 Y1386.263
G1 X 220.256 Y1379.970
G1 X 213.944 Y1362.890
G1 X 204.642 Y1337.719
G1 X 193.346 Y1307.153
G1 X 181.053 Y1273.891
G1 X 168.761 Y1240.629
G1 X 157.465 Y1210.064
G1 X 148.162 Y1184.893
G1 X 141.850 Y1167.812
G1 X 139.524 Y1161.520
G1 X 159.150 Y1161.256
G1 X 165.318 Y1177.947
G1 X 174.409 Y1202.545
G1 X 185.447 Y1232.414
G1 X 197.460 Y1264.918
G1 X 209.472 Y1297.422
G1 X 220.511 Y1327.291
G1 X 229.601 Y1351.889
G1 X 235.770 Y1368.580
G1 X 238.042 Y1374.729
G1 X 239.524 Y1374.034
G1 X 241.051 Y1373.358
G1 X 242.628 Y1372.696
G1 X 244.258 Y1372.043
G1 X 245.945 Y1371.394
G1 X 247.692 Y1370.745
G1 X 249.503 Y1370.092
G1 X 251.381 Y1369.429
G1 X 253.330 Y1368.752
G1 X 255.352 Y1368.056
G1 X 256.673 Y1367.647
G1 X 258.000 Y1367.248
G1 X 259.333 Y1366.858
G1 X 260.673 Y1366.479
G1 X 262.020 Y1366.110
G1 X 263.374 Y1365.750
G1 X 264.733 Y1365.400
G1 X 266.099 Y1365.060
G1 X 267.471 Y1364.729
G1 X 268.850 Y1364.408
G1 X 268.800 Y1363.568
G1 X 268.666 Y1361.289
G1 X 268.468 Y1357.931
G1 X 268.228 Y1353.852
G1 X 267.967 Y1349.414
G1 X 267.705 Y1344.976
G1 X 267.465 Y1340.897
G1 X 267.267 Y1337.539
G1 X 267.133 Y1335.260
G1 X 267.083 Y1334.420
G1 X 285.597 Y1334.109
G1 X 285.721 Y1336.217
G1 X 285.904 Y1339.324
G1 X 286.127 Y1343.096
G1 X 286.368 Y1347.201
G1 X 286.610 Y1351.306
G1 X 286.832 Y1355.078
G1 X 287.015 Y1358.185
G1 X 287.139 Y1360.293
G1 X 287.185 Y1361.069
G1 X 291.003 Y1360.569
G1 X 294.853 Y1360.125
G1 X 298.734 Y1359.734
G1 X 302.645 Y1359.397
G1 X 306.584 Y1359.112
G1 X 310.549 Y1358.876
G1 X 314.540 Y1358.689
G1 X 318.554 Y1358.550
G1 X 322.590 Y1358.456
G1 X 326.648 Y1358.407
G1 X 326.710 Y1357.765
G1 X 326.880 Y1356.024
G1 X 327.130 Y1353.459
G1 X 327.434 Y1350.344
G1 X 327.765 Y1346.954
G1 X 328.096 Y1343.564
G1 X 328.400 Y1340.449
G1 X 328.650 Y1337.884
G1 X 328.820 Y1336.143
G1 X 328.882 Y1335.502
G1 X 347.236 Y1337.898
G1 X 347.078 Y1339.524
G1 X 346.844 Y1341.921
G1 X 346.560 Y1344.832
G1 X 346.251 Y1347.999
G1 X 345.942 Y1351.167
G1 X 345.658 Y1354.077
G1 X 345.424 Y1356.474
G1 X 345.265 Y1358.101
G1 X 345.207 Y1358.700
G1 X 349.343 Y1358.871
G1 X 353.490 Y1359.076
G1 X 357.647 Y1359.315
G1 X 361.812 Y1359.587
G1 X 365.983 Y1359.889
G1 X 370.160 Y1360.221
G1 X 374.340 Y1360.580
G1 X 378.522 Y1360.967
G1 X 382.705 Y1361.379
G1 X 386.887 Y1361.814
G1 X 386.965 Y1361.191
G1 X 387.178 Y1359.498
G1 X 387.493 Y1357.005
G1 X 387.874 Y1353.977
G1 X 388.290 Y1350.681
G1 X 388.705 Y1347.386
G1 X 389.087 Y1344.358
G1 X 389.401 Y1341.864
G1 X 389.614 Y1340.172
G1 X 389.693 Y1339.549
G1 X 407.970 Y1342.481
G1 X 407.758 Y1344.162
G1 X 407.446 Y1346.640
G1 X 407.066 Y1349.648
G1 X 406.654 Y1352.921
G1 X 406.241 Y1356.195
G1 X 405.862 Y1359.203
G1 X 405.550 Y1361.680
G1 X 405.338 Y1363.361
G1 X 405.260 Y1363.980
G1 X 409.471 Y1364.528
G1 X 413.671 Y1365.091
G1 X 417.859 Y1365.668
G1 X 422.033 Y1366.257
G1 X 426.192 Y1366.857
G1 X 430.335 Y1367.466
G1 X 434.459 Y1368.083
G1 X 438.563 Y1368.707
G1 X 442.645 Y1369.336
G1 X 446.705 Y1369.968
G1 X 446.823 Y1369.239
G1 X 447.141 Y1367.261
G1 X 447.611 Y1364.345
G1 X 448.182 Y1360.805
G1 X 448.802 Y1356.953
G1 X 449.423 Y1353.101
G1 X 449.994 Y1349.561
G1 X 450.463 Y1346.646
G1 X 450.782 Y1344.668
G1 X 450.900 Y1343.939
G1 X 469.047 Y1347.609
G1 X 468.728 Y1349.584
G1 X 468.260 Y1352.495
G1 X 467.690 Y1356.029
G1 X 467.070 Y1359.875
G1 X 466.451 Y1363.721
G1 X 465.881 Y1367.255
G1 X 465.412 Y1370.165
G1 X 465.094 Y1372.140
G1 X 464.977 Y1372.868
G1 X 469.427 Y1373.580
G1 X 473.834 Y1374.283
G1 X 478.195 Y1374.977
G1 X 482.509 Y1375.657
G1 X 486.772 Y1376.323
G1 X 490.983 Y1376.971
G1 X 495.139 Y1377.601
G1 X 499.238 Y1378.209
G1 X 503.278 Y1378.793
G1 X 507.256 Y1379.352
G1 X 507.349 Y1378.422
G1 X 507.602 Y1375.897
G1 X 507.974 Y1372.176
G1 X 508.426 Y1367.658
G1 X 508.917 Y1362.741
G1 X 509.409 Y1357.824
G1 X 509.861 Y1353.306
G1 X 510.233 Y1349.585
G1 X 510.485 Y1347.060
G1 X 510.578 Y1346.130
G1 X 528.892 Y1348.913
G1 X 528.636 Y1351.471
G1 X 528.259 Y1355.240
G1 X 527.802 Y1359.818
G1 X 527.304 Y1364.799
G1 X 526.806 Y1369.780
G1 X 526.348 Y1374.358
G1 X 525.971 Y1378.127
G1 X 525.715 Y1380.685
G1 X 525.621 Y1381.628
G1 X 528.523 Y1381.926
G1 X 531.374 Y1382.198
G1 X 534.174 Y1382.442
G1 X 536.921 Y1382.658
G1 X 539.614 Y1382.843
G1 X 542.251 Y1382.997
G1 X 544.831 Y1383.120
G1 X 547.354 Y1383.208
G1 X 549.818 Y1383.262
G1 X 552.221 Y1383.281
G1 X 553.333 Y1383.276
G1 X 554.431 Y1383.264
G1 X 555.515 Y1383.243
G1 X 556.586 Y1383.214
G1 X 557.642 Y1383.175
G1 X 558.683 Y1383.128
G1 X 559.711 Y1383.072
G1 X 560.723 Y1383.007
G1 X 561.721 Y1382.933
G1 X 562.704 Y1382.850
G1 X 563.898 Y1376.446
G1 X 567.136 Y1359.065
G1 X 571.909 Y1333.451
G1 X 577.705 Y1302.347
G1 X 584.012 Y1268.500
G1 X 590.319 Y1234.652
G1 X 596.115 Y1203.549
G1 X 600.888 Y1177.935
G1 X 604.126 Y1160.554
G1 X 605.320 Y1154.150
G1 X 622.351 Y1163.744
G1 X 619.212 Y1180.587
G1 X 614.587 Y1205.408
G1 X 608.971 Y1235.547
G1 X 602.859 Y1268.346
G1 X 596.748 Y1301.145
G1 X 591.131 Y1331.285
G1 X 586.506 Y1356.106
G1 X 583.368 Y1372.949
G1 X 582.212 Y1379.154
G1 X 584.981 Y1378.331
G1 X 587.811 Y1377.313
G1 X 590.669 Y1376.060
G1 X 593.521 Y1374.530
G1 X 596.333 Y1372.685
G1 X 599.073 Y1370.482
G1 X 601.707 Y1367.882
G1 X 604.201 Y1364.843
G1 X 606.523 Y1361.326
G1 X 608.638 Y1357.290
G1 X 610.383 Y1352.351
G1 X 611.975 Y1346.102
G1 X 613.406 Y1338.974
G1 X 614.670 Y1331.397
G1 X 615.758 Y1323.802
G1 X 616.665 Y1316.622
G1 X 617.382 Y1310.287
G1 X 617.904 Y1305.228
G1 X 618.222 Y1301.876
G1 X 618.329 Y1300.663
G1 X 618.617 Y1298.409
G1 X 619.399 Y1292.289
G1 X 620.550 Y1283.271
G1 X 621.949 Y1272.320
G1 X 623.470 Y1260.403
G1 X 624.992 Y1248.486
G1 X 626.391 Y1237.535
G1 X 627.542 Y1228.517
G1 X 628.324 Y1222.397
G1 X 628.611 Y1220.143
G1 X 628.609 Y1220.142
G1 X 628.601 Y1220.141
G1 X 628.587 Y1220.138
G1 X 628.568 Y1220.135
G1 X 628.544 Y1220.130
G1 X 628.514 Y1220.125
G1 X 628.480 Y1220.119
G1 X 628.440 Y1220.111
G1 X 628.395 Y1220.103
G1 X 628.345 Y1220.094
G1 X 634.152 Y1184.230
G1 X 640.325 Y1146.108
G1 X 646.633 Y1107.150
G1 X 652.846 Y1068.777
G1 X 658.735 Y1032.409
G1 X 664.069 Y 999.467
G1 X 668.618 Y 971.372
G1 X 672.153 Y 949.545
G1 X 674.442 Y 935.407
G1 X 675.256 Y 930.378
G1 X 674.202 Y 930.378
G1 X 671.339 Y 930.378
G1 X 667.122 Y 930.378
G1 X 662.000 Y 930.378
G1 X 656.426 Y 930.378
G1 X 650.852 Y 930.378
G1 X 645.731 Y 930.378
G1 X 641.513 Y 930.378
G1 X 638.651 Y 930.378
G1 X 637.596 Y 930.378
G1 X 636.219 Y 936.890
G1 X 632.391 Y 954.996
G1 X 626.566 Y 982.550
G1 X 619.197 Y1017.404
G1 X 610.739 Y1057.415
G1 X 601.644 Y1100.434
G1 X 592.366 Y1144.316
G1 X 583.360 Y1186.916
G1 X 575.079 Y1226.086
G1 X 567.977 Y1259.681
G1 X 565.996 Y1266.053
G1 X 563.738 Y1272.238
G1 X 561.151 Y1278.205
G1 X 558.184 Y1283.922
G1 X 554.786 Y1289.358
G1 X 550.906 Y1294.482
G1 X 546.492 Y1299.262
G1 X 541.494 Y1303.668
G1 X 535.860 Y1307.667
G1 X 529.540 Y1311.229
G1 X 525.312 Y1312.884
G1 X 519.980 Y1314.343
G1 X 513.624 Y1315.613
G1 X 506.323 Y1316.698
G1 X 498.156 Y1317.602
G1 X 489.203 Y1318.331
G1 X 479.544 Y1318.889
G1 X 469.257 Y1319.282
G1 X 458.422 Y1319.514
G1 X 447.119 Y1319.590
G1 X 422.784 Y1319.279
G1 X 397.497 Y1318.375
G1 X 371.946 Y1316.919
G1 X 346.816 Y1314.955
G1 X 322.796 Y1312.525
G1 X 300.572 Y1309.670
G1 X 280.832 Y1306.434
G1 X 264.263 Y1302.859
G1 X 251.552 Y1298.987
G1 X 243.386 Y1294.861
G1 X 236.858 Y1289.509
G1 X 231.243 Y1283.915
G1 X 226.413 Y1278.098
G1 X 222.234 Y1272.078
G1 X 218.578 Y1265.876
G1 X 215.314 Y1259.511
G1 X 212.310 Y1253.003
G1 X 209.437 Y1246.372
G1 X 206.562 Y1239.639
G1 X 203.557 Y1232.822
G1 X 190.243 Y1199.278
G1 X 175.504 Y1162.143
G1 X 160.006 Y1123.095
G1 X 144.414 Y1083.811
G1 X 129.394 Y1045.969
G1 X 115.612 Y1011.245
G1 X 103.734 Y 981.318
G1 X  94.425 Y 957.865
G1 X  88.352 Y 942.564
G1 X  86.179 Y 937.090
G1 X  85.074 Y 937.090
G1 X  82.074 Y 937.090
G1 X  77.654 Y 937.090
G1 X  72.286 Y 937.090
G1 X  66.444 Y 937.090
G1 X  60.603 Y 937.090
G1 X  55.235 Y 937.090
G1 X  50.814 Y 937.090
G1 X  47.814 Y 937.090
G1 X  46.709 Y 937.090
G1 X  48.738 Y 942.995
G1 X  54.405 Y 959.487
G1 X  63.080 Y 984.733
G1 X  74.133 Y1016.900
G1 X  86.934 Y1054.156
G1 X 100.854 Y1094.667
G1 X 115.263 Y1136.600
G1 X 129.531 Y1178.123
G1 X 143.027 Y1217.402
G1 X 155.123 Y1252.604
G1 X 155.085 Y1252.622
G1 X 155.050 Y1252.638
G1 X 155.019 Y1252.652
G1 X 154.992 Y1252.664
G1 X 154.970 Y1252.675
G1 X 154.951 Y1252.683
G1 X 154.936 Y1252.690
G1 X 154.926 Y1252.695
G1 X 154.920 Y1252.698
G1 X 154.918 Y1252.699
G1 X 155.317 Y1253.934
G1 X 156.397 Y1257.476
G1 X 157.977 Y1263.082
G1 X 159.878 Y1270.510
G1 X 161.921 Y1279.517
G1 X 163.927 Y1289.860
G1 X 165.716 Y1301.295
G1 X 167.109 Y1313.579
G1 X 167.926 Y1326.471
G1 X 167.988 Y1339.726
G1 X 166.007 Y1365.836
G1 X 161.475 Y1403.531
G1 X 154.944 Y1449.519
G1 X 146.966 Y1500.510
G1 X 138.092 Y1553.213
G1 X 128.875 Y1604.339
G1 X 119.866 Y1650.595
G1 X 111.618 Y1688.691
G1 X 104.681 Y1715.337
G1 X  99.609 Y1727.241
G1 X  99.265 Y1729.340
G1 X 100.254 Y1732.628
G1 X 102.423 Y1736.773
G1 X 105.620 Y1741.442
G1 X 109.690 Y1746.304
G1 X 114.482 Y1751.027
G1 X 119.843 Y1755.279
G1 X 125.619 Y1758.727
G1 X 131.658 Y1761.039
G1 X 137.806 Y1761.884
F150
G1 Z   3.000
G0 Z  15.000 
G40
M9 M5

(* SHAPE Nr: 25 *)
G0 X 805.546 Y1284.393
M3 M8
G42
F400
G1 X 806.526 Y1284.113
G2 X 805.234 Y1283.013 I  -1.196 J   0.097
G0 Z   3.000 
F150
G1 Z  -1.500
F400
G1 X 804.828 Y1283.046
G1 X 804.444 Y1283.141
G1 X 804.085 Y1283.292
G1 X 803.757 Y1283.496
G1 X 803.466 Y1283.745
G1 X 803.216 Y1284.037
G1 X 803.013 Y1284.364
G1 X 802.861 Y1284.723
G1 X 802.766 Y1285.108
G1 X 802.734 Y1285.513
G1 X 802.766 Y1285.919
G1 X 802.861 Y1286.303
G1 X 803.013 Y1286.662
G1 X 803.216 Y1286.990
G1 X 803.466 Y1287.281
G1 X 803.757 Y1287.531
G1 X 804.085 Y1287.734
G1 X 804.444 Y1287.886
G1 X 804.828 Y1287.981
G1 X 805.234 Y1288.013
G1 X 805.639 Y1287.981
G1 X 806.024 Y1287.886
G1 X 806.383 Y1287.734
G1 X 806.710 Y1287.531
G1 X 807.002 Y1287.281
G1 X 807.251 Y1286.990
G1 X 807.455 Y1286.662
G1 X 807.606 Y1286.303
G1 X 807.701 Y1285.919
G1 X 807.734 Y1285.513
G1 X 807.701 Y1285.108
G1 X 807.606 Y1284.723
G1 X 807.455 Y1284.364
G1 X 807.251 Y1284.037
G1 X 807.002 Y1283.745
G1 X 806.710 Y1283.496
G1 X 806.383 Y1283.292
G1 X 806.024 Y1283.141
G1 X 805.639 Y1283.046
F150
G1 Z  -3.000
F400
G41
G1 X 806.024 Y1283.141
G1 X 806.383 Y1283.292
G1 X 806.710 Y1283.496
G1 X 807.002 Y1283.745
G1 X 807.251 Y1284.037
G1 X 807.455 Y1284.364
G1 X 807.606 Y1284.723
G1 X 807.701 Y1285.108
G1 X 807.734 Y1285.513
G1 X 807.701 Y1285.919
G1 X 807.606 Y1286.303
G1 X 807.455 Y1286.662
G1 X 807.251 Y1286.990
G1 X 807.002 Y1287.281
G1 X 806.710 Y1287.531
G1 X 806.383 Y1287.734
G1 X 806.024 Y1287.886
G1 X 805.639 Y1287.981
G1 X 805.234 Y1288.013
G1 X 804.828 Y1287.981
G1 X 804.444 Y1287.886
G1 X 804.085 Y1287.734
G1 X 803.757 Y1287.531
G1 X 803.466 Y1287.281
G1 X 803.216 Y1286.990
G1 X 803.013 Y1286.662
G1 X 802.861 Y1286.303
G1 X 802.766 Y1285.919
G1 X 802.734 Y1285.513
G1 X 802.766 Y1285.108
G1 X 802.861 Y1284.723
G1 X 803.013 Y1284.364
G1 X 803.216 Y1284.037
G1 X 803.466 Y1283.745
G1 X 803.757 Y1283.496
G1 X 804.085 Y1283.292
G1 X 804.444 Y1283.141
G1 X 804.828 Y1283.046
G1 X 805.234 Y1283.013
F150
G1 Z   3.000
G0 Z  15.000 
G40
M9 M5

(* SHAPE Nr: 26 *)
G0 X 798.048 Y1304.009
M3 M8
G42
F400
G1 X 799.029 Y1303.729
G2 X 797.736 Y1302.629 I  -1.196 J   0.097
G0 Z   3.000 
F150
G1 Z  -1.500
F400
G1 X 797.330 Y1302.662
G1 X 796.946 Y1302.757
G1 X 796.587 Y1302.908
G1 X 796.260 Y1303.111
G1 X 795.968 Y1303.361
G1 X 795.718 Y1303.653
G1 X 795.515 Y1303.980
G1 X 795.364 Y1304.339
G1 X 795.269 Y1304.724
G1 X 795.236 Y1305.129
G1 X 795.269 Y1305.535
G1 X 795.364 Y1305.919
G1 X 795.515 Y1306.278
G1 X 795.718 Y1306.606
G1 X 795.968 Y1306.897
G1 X 796.260 Y1307.147
G1 X 796.587 Y1307.350
G1 X 796.946 Y1307.502
G1 X 797.331 Y1307.596
G1 X 797.736 Y1307.629
G1 X 798.141 Y1307.596
G1 X 798.526 Y1307.502
G1 X 798.885 Y1307.350
G1 X 799.213 Y1307.147
G1 X 799.504 Y1306.897
G1 X 799.754 Y1306.606
G1 X 799.957 Y1306.278
G1 X 800.109 Y1305.919
G1 X 800.203 Y1305.535
G1 X 800.236 Y1305.129
G1 X 800.203 Y1304.724
G1 X 800.109 Y1304.339
G1 X 799.957 Y1303.980
G1 X 799.754 Y1303.653
G1 X 799.504 Y1303.361
G1 X 799.213 Y1303.112
G1 X 798.885 Y1302.908
G1 X 798.526 Y1302.757
G1 X 798.142 Y1302.662
F150
G1 Z  -3.000
F400
G41
G1 X 798.526 Y1302.757
G1 X 798.885 Y1302.908
G1 X 799.213 Y1303.112
G1 X 799.504 Y1303.361
G1 X 799.754 Y1303.653
G1 X 799.957 Y1303.980
G1 X 800.109 Y1304.339
G1 X 800.203 Y1304.724
G1 X 800.236 Y1305.129
G1 X 800.203 Y1305.535
G1 X 800.109 Y1305.919
G1 X 799.957 Y1306.278
G1 X 799.754 Y1306.606
G1 X 799.504 Y1306.897
G1 X 799.213 Y1307.147
G1 X 798.885 Y1307.350
G1 X 798.526 Y1307.502
G1 X 798.141 Y1307.596
G1 X 797.736 Y1307.629
G1 X 797.331 Y1307.596
G1 X 796.946 Y1307.502
G1 X 796.587 Y1307.350
G1 X 796.260 Y1307.147
G1 X 795.968 Y1306.897
G1 X 795.718 Y1306.606
G1 X 795.515 Y1306.278
G1 X 795.364 Y1305.919
G1 X 795.269 Y1305.535
G1 X 795.236 Y1305.129
G1 X 795.269 Y1304.724
G1 X 795.364 Y1304.339
G1 X 795.515 Y1303.980
G1 X 795.718 Y1303.653
G1 X 795.968 Y1303.361
G1 X 796.260 Y1303.111
G1 X 796.587 Y1302.908
G1 X 796.946 Y1302.757
G1 X 797.330 Y1302.662
G1 X 797.736 Y1302.629
F150
G1 Z   3.000
G0 Z  15.000 
G40
M9 M5

(* SHAPE Nr: 27 *)
G0 X 785.030 Y1357.288
M3 M8
G42
F400
G1 X 786.010 Y1357.008
G2 X 784.717 Y1355.908 I  -1.196 J   0.097
G0 Z   3.000 
F150
G1 Z  -1.500
F400
G1 X 784.312 Y1355.941
G1 X 783.927 Y1356.036
G1 X 783.569 Y1356.187
G1 X 783.241 Y1356.391
G1 X 782.950 Y1356.640
G1 X 782.700 Y1356.932
G1 X 782.496 Y1357.259
G1 X 782.345 Y1357.618
G1 X 782.250 Y1358.003
G1 X 782.217 Y1358.408
G1 X 782.250 Y1358.814
G1 X 782.345 Y1359.198
G1 X 782.497 Y1359.557
G1 X 782.700 Y1359.885
G1 X 782.950 Y1360.176
G1 X 783.241 Y1360.426
G1 X 783.569 Y1360.629
G1 X 783.927 Y1360.781
G1 X 784.312 Y1360.875
G1 X 784.717 Y1360.908
G1 X 785.123 Y1360.875
G1 X 785.508 Y1360.781
G1 X 785.866 Y1360.629
G1 X 786.194 Y1360.426
G1 X 786.485 Y1360.176
G1 X 786.735 Y1359.885
G1 X 786.938 Y1359.557
G1 X 787.090 Y1359.198
G1 X 787.185 Y1358.814
G1 X 787.217 Y1358.408
G1 X 787.185 Y1358.003
G1 X 787.090 Y1357.618
G1 X 786.938 Y1357.259
G1 X 786.735 Y1356.932
G1 X 786.485 Y1356.640
G1 X 786.194 Y1356.391
G1 X 785.866 Y1356.187
G1 X 785.508 Y1356.036
G1 X 785.123 Y1355.941
F150
G1 Z  -3.000
F400
G41
G1 X 785.508 Y1356.036
G1 X 785.866 Y1356.187
G1 X 786.194 Y1356.391
G1 X 786.485 Y1356.640
G1 X 786.735 Y1356.932
G1 X 786.938 Y1357.259
G1 X 787.090 Y1357.618
G1 X 787.185 Y1358.003
G1 X 787.217 Y1358.408
G1 X 787.185 Y1358.814
G1 X 787.090 Y1359.198
G1 X 786.938 Y1359.557
G1 X 786.735 Y1359.885
G1 X 786.485 Y1360.176
G1 X 786.194 Y1360.426
G1 X 785.866 Y1360.629
G1 X 785.508 Y1360.781
G1 X 785.123 Y1360.875
G1 X 784.717 Y1360.908
G1 X 784.312 Y1360.875
G1 X 783.927 Y1360.781
G1 X 783.569 Y1360.629
G1 X 783.241 Y1360.426
G1 X 782.950 Y1360.176
G1 X 782.700 Y1359.885
G1 X 782.497 Y1359.557
G1 X 782.345 Y1359.198
G1 X 782.250 Y1358.814
G1 X 782.217 Y1358.408
G1 X 782.250 Y1358.003
G1 X 782.345 Y1357.618
G1 X 782.496 Y1357.259
G1 X 782.700 Y1356.932
G1 X 782.950 Y1356.640
G1 X 783.241 Y1356.391
G1 X 783.569 Y1356.187
G1 X 783.927 Y1356.036
G1 X 784.312 Y1355.941
G1 X 784.717 Y1355.908
F150
G1 Z   3.000
G0 Z  15.000 
G40
M9 M5

(* SHAPE Nr: 28 *)
G0 X 780.963 Y1377.890
M3 M8
G42
F400
G1 X 781.944 Y1377.610
G2 X 780.651 Y1376.511 I  -1.196 J   0.097
G0 Z   3.000 
F150
G1 Z  -1.500
F400
G1 X 780.246 Y1376.543
G1 X 779.861 Y1376.638
G1 X 779.502 Y1376.790
G1 X 779.175 Y1376.993
G1 X 778.884 Y1377.243
G1 X 778.634 Y1377.534
G1 X 778.430 Y1377.862
G1 X 778.279 Y1378.221
G1 X 778.184 Y1378.605
G1 X 778.151 Y1379.011
G1 X 778.184 Y1379.416
G1 X 778.279 Y1379.801
G1 X 778.430 Y1380.160
G1 X 778.634 Y1380.487
G1 X 778.884 Y1380.778
G1 X 779.175 Y1381.028
G1 X 779.502 Y1381.232
G1 X 779.861 Y1381.383
G1 X 780.246 Y1381.478
G1 X 780.651 Y1381.511
G1 X 781.057 Y1381.478
G1 X 781.442 Y1381.383
G1 X 781.800 Y1381.232
G1 X 782.128 Y1381.028
G1 X 782.419 Y1380.778
G1 X 782.669 Y1380.487
G1 X 782.872 Y1380.160
G1 X 783.024 Y1379.801
G1 X 783.119 Y1379.416
G1 X 783.151 Y1379.011
G1 X 783.119 Y1378.605
G1 X 783.024 Y1378.220
G1 X 782.872 Y1377.862
G1 X 782.669 Y1377.534
G1 X 782.419 Y1377.243
G1 X 782.128 Y1376.993
G1 X 781.800 Y1376.790
G1 X 781.441 Y1376.638
G1 X 781.057 Y1376.543
F150
G1 Z  -3.000
F400
G41
G1 X 781.441 Y1376.638
G1 X 781.800 Y1376.790
G1 X 782.128 Y1376.993
G1 X 782.419 Y1377.243
G1 X 782.669 Y1377.534
G1 X 782.872 Y1377.862
G1 X 783.024 Y1378.220
G1 X 783.119 Y1378.605
G1 X 783.151 Y1379.011
G1 X 783.119 Y1379.416
G1 X 783.024 Y1379.801
G1 X 782.872 Y1380.160
G1 X 782.669 Y1380.487
G1 X 782.419 Y1380.778
G1 X 782.128 Y1381.028
G1 X 781.800 Y1381.232
G1 X 781.442 Y1381.383
G1 X 781.057 Y1381.478
G1 X 780.651 Y1381.511
G1 X 780.246 Y1381.478
G1 X 779.861 Y1381.383
G1 X 779.502 Y1381.232
G1 X 779.175 Y1381.028
G1 X 778.884 Y1380.778
G1 X 778.634 Y1380.487
G1 X 778.430 Y1380.160
G1 X 778.279 Y1379.801
G1 X 778.184 Y1379.416
G1 X 778.151 Y1379.011
G1 X 778.184 Y1378.605
G1 X 778.279 Y1378.221
G1 X 778.430 Y1377.862
G1 X 778.634 Y1377.534
G1 X 778.884 Y1377.243
G1 X 779.175 Y1376.993
G1 X 779.502 Y1376.790
G1 X 779.861 Y1376.638
G1 X 780.246 Y1376.543
G1 X 780.651 Y1376.511
F150
G1 Z   3.000
G0 Z  15.000 
G40
M9 M5

(* SHAPE Nr: 29 *)
G0 X 770.226 Y1434.217
M3 M8
G42
F400
G1 X 771.206 Y1433.937
G2 X 769.913 Y1432.838 I  -1.196 J   0.097
G0 Z   3.000 
F150
G1 Z  -1.500
F400
G1 X 769.508 Y1432.871
G1 X 769.123 Y1432.965
G1 X 768.765 Y1433.117
G1 X 768.437 Y1433.320
G1 X 768.146 Y1433.570
G1 X 767.896 Y1433.861
G1 X 767.693 Y1434.189
G1 X 767.541 Y1434.548
G1 X 767.446 Y1434.932
G1 X 767.413 Y1435.338
G1 X 767.446 Y1435.743
G1 X 767.541 Y1436.128
G1 X 767.693 Y1436.487
G1 X 767.896 Y1436.814
G1 X 768.146 Y1437.106
G1 X 768.437 Y1437.356
G1 X 768.765 Y1437.559
G1 X 769.123 Y1437.710
G1 X 769.508 Y1437.805
G1 X 769.913 Y1437.838
G1 X 770.319 Y1437.805
G1 X 770.704 Y1437.710
G1 X 771.062 Y1437.559
G1 X 771.390 Y1437.356
G1 X 771.681 Y1437.106
G1 X 771.931 Y1436.814
G1 X 772.134 Y1436.487
G1 X 772.286 Y1436.128
G1 X 772.381 Y1435.743
G1 X 772.413 Y1435.338
G1 X 772.381 Y1434.932
G1 X 772.286 Y1434.548
G1 X 772.134 Y1434.189
G1 X 771.931 Y1433.861
G1 X 771.681 Y1433.570
G1 X 771.390 Y1433.320
G1 X 771.062 Y1433.117
G1 X 770.704 Y1432.965
G1 X 770.319 Y1432.871
F150
G1 Z  -3.000
F400
G41
G1 X 770.704 Y1432.965
G1 X 771.062 Y1433.117
G1 X 771.390 Y1433.320
G1 X 771.681 Y1433.570
G1 X 771.931 Y1433.861
G1 X 772.134 Y1434.189
G1 X 772.286 Y1434.548
G1 X 772.381 Y1434.932
G1 X 772.413 Y1435.338
G1 X 772.381 Y1435.743
G1 X 772.286 Y1436.128
G1 X 772.134 Y1436.487
G1 X 771.931 Y1436.814
G1 X 771.681 Y1437.106
G1 X 771.390 Y1437.356
G1 X 771.062 Y1437.559
G1 X 770.704 Y1437.710
G1 X 770.319 Y1437.805
G1 X 769.913 Y1437.838
G1 X 769.508 Y1437.805
G1 X 769.123 Y1437.710
G1 X 768.765 Y1437.559
G1 X 768.437 Y1437.356
G1 X 768.146 Y1437.106
G1 X 767.896 Y1436.814
G1 X 767.693 Y1436.487
G1 X 767.541 Y1436.128
G1 X 767.446 Y1435.743
G1 X 767.413 Y1435.338
G1 X 767.446 Y1434.932
G1 X 767.541 Y1434.548
G1 X 767.693 Y1434.189
G1 X 767.896 Y1433.861
G1 X 768.146 Y1433.570
G1 X 768.437 Y1433.320
G1 X 768.765 Y1433.117
G1 X 769.123 Y1432.965
G1 X 769.508 Y1432.871
G1 X 769.913 Y1432.838
F150
G1 Z   3.000
G0 Z  15.000 
G40
M9 M5

(* SHAPE Nr: 30 *)
G0 X 766.768 Y1454.931
M3 M8
G42
F400
G1 X 767.749 Y1454.651
G2 X 766.456 Y1453.551 I  -1.196 J   0.097
G0 Z   3.000 
F150
G1 Z  -1.500
F400
G1 X 766.050 Y1453.584
G1 X 765.666 Y1453.679
G1 X 765.307 Y1453.830
G1 X 764.980 Y1454.034
G1 X 764.688 Y1454.284
G1 X 764.438 Y1454.575
G1 X 764.235 Y1454.902
G1 X 764.083 Y1455.261
G1 X 763.989 Y1455.646
G1 X 763.956 Y1456.051
G1 X 763.989 Y1456.457
G1 X 764.083 Y1456.841
G1 X 764.235 Y1457.200
G1 X 764.438 Y1457.528
G1 X 764.688 Y1457.819
G1 X 764.980 Y1458.069
G1 X 765.307 Y1458.272
G1 X 765.666 Y1458.424
G1 X 766.050 Y1458.519
G1 X 766.456 Y1458.551
G1 X 766.861 Y1458.519
G1 X 767.246 Y1458.424
G1 X 767.605 Y1458.272
G1 X 767.932 Y1458.069
G1 X 768.224 Y1457.819
G1 X 768.474 Y1457.528
G1 X 768.677 Y1457.200
G1 X 768.829 Y1456.841
G1 X 768.923 Y1456.457
G1 X 768.956 Y1456.051
G1 X 768.923 Y1455.646
G1 X 768.829 Y1455.261
G1 X 768.677 Y1454.902
G1 X 768.474 Y1454.575
G1 X 768.224 Y1454.284
G1 X 767.932 Y1454.034
G1 X 767.605 Y1453.830
G1 X 767.246 Y1453.679
G1 X 766.861 Y1453.584
F150
G1 Z  -3.000
F400
G41
G1 X 767.246 Y1453.679
G1 X 767.605 Y1453.830
G1 X 767.932 Y1454.034
G1 X 768.224 Y1454.284
G1 X 768.474 Y1454.575
G1 X 768.677 Y1454.902
G1 X 768.829 Y1455.261
G1 X 768.923 Y1455.646
G1 X 768.956 Y1456.051
G1 X 768.923 Y1456.457
G1 X 768.829 Y1456.841
G1 X 768.677 Y1457.200
G1 X 768.474 Y1457.528
G1 X 768.224 Y1457.819
G1 X 767.932 Y1458.069
G1 X 767.605 Y1458.272
G1 X 767.246 Y1458.424
G1 X 766.861 Y1458.519
G1 X 766.456 Y1458.551
G1 X 766.050 Y1458.519
G1 X 765.666 Y1458.424
G1 X 765.307 Y1458.272
G1 X 764.980 Y1458.069
G1 X 764.688 Y1457.819
G1 X 764.438 Y1457.528
G1 X 764.235 Y1457.200
G1 X 764.083 Y1456.841
G1 X 763.989 Y1456.457
G1 X 763.956 Y1456.051
G1 X 763.989 Y1455.646
G1 X 764.083 Y1455.261
G1 X 764.235 Y1454.902
G1 X 764.438 Y1454.575
G1 X 764.688 Y1454.284
G1 X 764.980 Y1454.034
G1 X 765.307 Y1453.830
G1 X 765.666 Y1453.679
G1 X 766.050 Y1453.584
G1 X 766.456 Y1453.551
F150
G1 Z   3.000
G0 Z  15.000 
G40
M9 M5

(* SHAPE Nr: 31 *)
G0 X 756.923 Y1511.518
M3 M8
G42
F400
G1 X 757.903 Y1511.238
G2 X 756.611 Y1510.139 I  -1.196 J   0.097
G0 Z   3.000 
F150
G1 Z  -1.500
F400
G1 X 756.205 Y1510.172
G1 X 755.820 Y1510.266
G1 X 755.462 Y1510.418
G1 X 755.134 Y1510.621
G1 X 754.843 Y1510.871
G1 X 754.593 Y1511.163
G1 X 754.390 Y1511.490
G1 X 754.238 Y1511.849
G1 X 754.143 Y1512.233
G1 X 754.111 Y1512.639
G1 X 754.143 Y1513.044
G1 X 754.238 Y1513.429
G1 X 754.390 Y1513.788
G1 X 754.593 Y1514.115
G1 X 754.843 Y1514.407
G1 X 755.134 Y1514.657
G1 X 755.462 Y1514.860
G1 X 755.820 Y1515.012
G1 X 756.205 Y1515.106
G1 X 756.611 Y1515.139
G1 X 757.016 Y1515.106
G1 X 757.401 Y1515.012
G1 X 757.759 Y1514.860
G1 X 758.087 Y1514.657
G1 X 758.378 Y1514.407
G1 X 758.628 Y1514.115
G1 X 758.831 Y1513.788
G1 X 758.983 Y1513.429
G1 X 759.078 Y1513.044
G1 X 759.111 Y1512.639
G1 X 759.078 Y1512.233
G1 X 758.983 Y1511.849
G1 X 758.831 Y1511.490
G1 X 758.628 Y1511.162
G1 X 758.378 Y1510.871
G1 X 758.087 Y1510.621
G1 X 757.759 Y1510.418
G1 X 757.401 Y1510.266
G1 X 757.016 Y1510.172
F150
G1 Z  -3.000
F400
G41
G1 X 757.401 Y1510.266
G1 X 757.759 Y1510.418
G1 X 758.087 Y1510.621
G1 X 758.378 Y1510.871
G1 X 758.628 Y1511.162
G1 X 758.831 Y1511.490
G1 X 758.983 Y1511.849
G1 X 759.078 Y1512.233
G1 X 759.111 Y1512.639
G1 X 759.078 Y1513.044
G1 X 758.983 Y1513.429
G1 X 758.831 Y1513.788
G1 X 758.628 Y1514.115
G1 X 758.378 Y1514.407
G1 X 758.087 Y1514.657
G1 X 757.759 Y1514.860
G1 X 757.401 Y1515.012
G1 X 757.016 Y1515.106
G1 X 756.611 Y1515.139
G1 X 756.205 Y1515.106
G1 X 755.820 Y1515.012
G1 X 755.462 Y1514.860
G1 X 755.134 Y1514.657
G1 X 754.843 Y1514.407
G1 X 754.593 Y1514.115
G1 X 754.390 Y1513.788
G1 X 754.238 Y1513.429
G1 X 754.143 Y1513.044
G1 X 754.111 Y1512.639
G1 X 754.143 Y1512.233
G1 X 754.238 Y1511.849
G1 X 754.390 Y1511.490
G1 X 754.593 Y1511.163
G1 X 754.843 Y1510.871
G1 X 755.134 Y1510.621
G1 X 755.462 Y1510.418
G1 X 755.820 Y1510.266
G1 X 756.205 Y1510.172
G1 X 756.611 Y1510.139
F150
G1 Z   3.000
G0 Z  15.000 
G40
M9 M5

(* SHAPE Nr: 32 *)
G0 X 753.582 Y1532.251
M3 M8
G42
F400
G1 X 754.563 Y1531.971
G2 X 753.270 Y1530.872 I  -1.196 J   0.097
G0 Z   3.000 
F150
G1 Z  -1.500
F400
G1 X 752.864 Y1530.904
G1 X 752.480 Y1530.999
G1 X 752.121 Y1531.151
G1 X 751.793 Y1531.354
G1 X 751.502 Y1531.604
G1 X 751.252 Y1531.895
G1 X 751.049 Y1532.223
G1 X 750.897 Y1532.581
G1 X 750.803 Y1532.966
G1 X 750.770 Y1533.372
G1 X 750.802 Y1533.777
G1 X 750.897 Y1534.162
G1 X 751.049 Y1534.521
G1 X 751.252 Y1534.848
G1 X 751.502 Y1535.139
G1 X 751.793 Y1535.389
G1 X 752.121 Y1535.593
G1 X 752.480 Y1535.744
G1 X 752.864 Y1535.839
G1 X 753.270 Y1535.872
G1 X 753.675 Y1535.839
G1 X 754.060 Y1535.744
G1 X 754.419 Y1535.593
G1 X 754.746 Y1535.389
G1 X 755.038 Y1535.139
G1 X 755.287 Y1534.848
G1 X 755.491 Y1534.521
G1 X 755.642 Y1534.162
G1 X 755.737 Y1533.777
G1 X 755.770 Y1533.372
G1 X 755.737 Y1532.966
G1 X 755.642 Y1532.581
G1 X 755.491 Y1532.223
G1 X 755.288 Y1531.895
G1 X 755.038 Y1531.604
G1 X 754.746 Y1531.354
G1 X 754.419 Y1531.151
G1 X 754.060 Y1530.999
G1 X 753.675 Y1530.904
F150
G1 Z  -3.000
F400
G41
G1 X 754.060 Y1530.999
G1 X 754.419 Y1531.151
G1 X 754.746 Y1531.354
G1 X 755.038 Y1531.604
G1 X 755.288 Y1531.895
G1 X 755.491 Y1532.223
G1 X 755.642 Y1532.581
G1 X 755.737 Y1532.966
G1 X 755.770 Y1533.372
G1 X 755.737 Y1533.777
G1 X 755.642 Y1534.162
G1 X 755.491 Y1534.521
G1 X 755.287 Y1534.848
G1 X 755.038 Y1535.139
G1 X 754.746 Y1535.389
G1 X 754.419 Y1535.593
G1 X 754.060 Y1535.744
G1 X 753.675 Y1535.839
G1 X 753.270 Y1535.872
G1 X 752.864 Y1535.839
G1 X 752.480 Y1535.744
G1 X 752.121 Y1535.593
G1 X 751.793 Y1535.389
G1 X 751.502 Y1535.139
G1 X 751.252 Y1534.848
G1 X 751.049 Y1534.521
G1 X 750.897 Y1534.162
G1 X 750.802 Y1533.777
G1 X 750.770 Y1533.372
G1 X 750.803 Y1532.966
G1 X 750.897 Y1532.581
G1 X 751.049 Y1532.223
G1 X 751.252 Y1531.895
G1 X 751.502 Y1531.604
G1 X 751.793 Y1531.354
G1 X 752.121 Y1531.151
G1 X 752.480 Y1530.999
G1 X 752.864 Y1530.904
G1 X 753.270 Y1530.872
F150
G1 Z   3.000
G0 Z  15.000 
G40
M9 M5

(* SHAPE Nr: 33 *)
G0 X 743.502 Y1589.173
M3 M8
G42
F400
G1 X 744.483 Y1588.894
G2 X 743.190 Y1587.794 I  -1.196 J   0.097
G0 Z   3.000 
F150
G1 Z  -1.500
F400
G1 X 742.784 Y1587.827
G1 X 742.400 Y1587.922
G1 X 742.041 Y1588.073
G1 X 741.713 Y1588.276
G1 X 741.422 Y1588.526
G1 X 741.172 Y1588.818
G1 X 740.969 Y1589.145
G1 X 740.817 Y1589.504
G1 X 740.723 Y1589.889
G1 X 740.690 Y1590.294
G1 X 740.723 Y1590.700
G1 X 740.817 Y1591.084
G1 X 740.969 Y1591.443
G1 X 741.172 Y1591.771
G1 X 741.422 Y1592.062
G1 X 741.713 Y1592.312
G1 X 742.041 Y1592.515
G1 X 742.400 Y1592.667
G1 X 742.784 Y1592.761
G1 X 743.190 Y1592.794
G1 X 743.595 Y1592.761
G1 X 743.980 Y1592.667
G1 X 744.339 Y1592.515
G1 X 744.666 Y1592.312
G1 X 744.958 Y1592.062
G1 X 745.208 Y1591.771
G1 X 745.411 Y1591.443
G1 X 745.562 Y1591.084
G1 X 745.657 Y1590.700
G1 X 745.690 Y1590.294
G1 X 745.657 Y1589.889
G1 X 745.562 Y1589.504
G1 X 745.411 Y1589.145
G1 X 745.208 Y1588.818
G1 X 744.958 Y1588.526
G1 X 744.666 Y1588.276
G1 X 744.339 Y1588.073
G1 X 743.980 Y1587.922
G1 X 743.595 Y1587.827
F150
G1 Z  -3.000
F400
G41
G1 X 743.980 Y1587.922
G1 X 744.339 Y1588.073
G1 X 744.666 Y1588.276
G1 X 744.958 Y1588.526
G1 X 745.208 Y1588.818
G1 X 745.411 Y1589.145
G1 X 745.562 Y1589.504
G1 X 745.657 Y1589.889
G1 X 745.690 Y1590.294
G1 X 745.657 Y1590.700
G1 X 745.562 Y1591.084
G1 X 745.411 Y1591.443
G1 X 745.208 Y1591.771
G1 X 744.958 Y1592.062
G1 X 744.666 Y1592.312
G1 X 744.339 Y1592.515
G1 X 743.980 Y1592.667
G1 X 743.595 Y1592.761
G1 X 743.190 Y1592.794
G1 X 742.784 Y1592.761
G1 X 742.400 Y1592.667
G1 X 742.041 Y1592.515
G1 X 741.713 Y1592.312
G1 X 741.422 Y1592.062
G1 X 741.172 Y1591.771
G1 X 740.969 Y1591.443
G1 X 740.817 Y1591.084
G1 X 740.723 Y1590.700
G1 X 740.690 Y1590.294
G1 X 740.723 Y1589.889
G1 X 740.817 Y1589.504
G1 X 740.969 Y1589.145
G1 X 741.172 Y1588.818
G1 X 741.422 Y1588.526
G1 X 741.713 Y1588.276
G1 X 742.041 Y1588.073
G1 X 742.400 Y1587.922
G1 X 742.784 Y1587.827
G1 X 743.190 Y1587.794
F150
G1 Z   3.000
G0 Z  15.000 
G40
M9 M5

(* SHAPE Nr: 34 *)
G0 X 739.555 Y1609.799
M3 M8
G42
F400
G1 X 740.536 Y1609.519
G2 X 739.243 Y1608.420 I  -1.196 J   0.096
G0 Z   3.000 
F150
G1 Z  -1.500
F400
G1 X 738.837 Y1608.453
G1 X 738.453 Y1608.547
G1 X 738.094 Y1608.699
G1 X 737.767 Y1608.902
G1 X 737.475 Y1609.152
G1 X 737.225 Y1609.443
G1 X 737.022 Y1609.771
G1 X 736.870 Y1610.130
G1 X 736.776 Y1610.514
G1 X 736.743 Y1610.920
G1 X 736.776 Y1611.325
G1 X 736.870 Y1611.710
G1 X 737.022 Y1612.069
G1 X 737.225 Y1612.396
G1 X 737.475 Y1612.688
G1 X 737.767 Y1612.938
G1 X 738.094 Y1613.141
G1 X 738.453 Y1613.292
G1 X 738.837 Y1613.387
G1 X 739.243 Y1613.420
G1 X 739.648 Y1613.387
G1 X 740.033 Y1613.292
G1 X 740.392 Y1613.141
G1 X 740.720 Y1612.937
G1 X 741.011 Y1612.688
G1 X 741.261 Y1612.396
G1 X 741.464 Y1612.069
G1 X 741.616 Y1611.710
G1 X 741.710 Y1611.325
G1 X 741.743 Y1610.920
G1 X 741.710 Y1610.514
G1 X 741.616 Y1610.130
G1 X 741.464 Y1609.771
G1 X 741.261 Y1609.443
G1 X 741.011 Y1609.152
G1 X 740.719 Y1608.902
G1 X 740.392 Y1608.699
G1 X 740.033 Y1608.547
G1 X 739.648 Y1608.453
F150
G1 Z  -3.000
F400
G41
G1 X 740.033 Y1608.547
G1 X 740.392 Y1608.699
G1 X 740.719 Y1608.902
G1 X 741.011 Y1609.152
G1 X 741.261 Y1609.443
G1 X 741.464 Y1609.771
G1 X 741.616 Y1610.130
G1 X 741.710 Y1610.514
G1 X 741.743 Y1610.920
G1 X 741.710 Y1611.325
G1 X 741.616 Y1611.710
G1 X 741.464 Y1612.069
G1 X 741.261 Y1612.396
G1 X 741.011 Y1612.688
G1 X 740.720 Y1612.937
