(Generated with: DXF2GCODE, Version: PyQt4 Beta, Date: $Date:: 2014-02-11 12:27:10#$)
(Created from file: Z:/media/hephaestus/2A64-47E2/gallery/MyChair.dxf)
(Time: Fri May 23 14:55:43 2014)
G21 (Units in millimeters) G90 (Absolute programming) G64 (Default cutting) G17 (XY plane) G40 (Cancel radius comp.) G49 (Cancel length comp.)
G0 Z  15.000 

(*** LAYER: 0 ***)
T1 M6
S6000

(* SHAPE Nr: 0 *)
G0 X 138.584 Y 239.822
M3 M8
G0 Z   3.000 
F1000
G1 Z  -1.000
F400
G1 X 138.444 Y 240.846
G1 X 138.058 Y 241.853
G1 X 137.483 Y 242.816
G1 X 136.775 Y 243.709
G1 X 135.988 Y 244.508
G1 X 135.177 Y 245.186
G1 X 134.399 Y 245.719
G1 X 133.708 Y 246.080
G1 X 133.160 Y 246.245
G1 X 132.811 Y 246.188
G1 X 130.826 Y 245.342
G1 X 126.386 Y 244.186
G1 X 120.036 Y 242.812
G1 X 112.327 Y 241.310
G1 X 103.806 Y 239.774
G1 X  95.022 Y 238.295
G1 X  86.523 Y 236.965
G1 X  78.859 Y 235.877
G1 X  72.576 Y 235.121
G1 X  68.225 Y 234.791
G1 X  66.015 Y 234.802
G1 X  63.867 Y 234.938
G1 X  61.819 Y 235.170
G1 X  59.914 Y 235.468
G1 X  58.190 Y 235.802
G1 X  56.689 Y 236.143
G1 X  55.451 Y 236.460
G1 X  54.516 Y 236.723
G1 X  53.926 Y 236.903
G1 X  53.720 Y 236.970
G1 X  53.719 Y 236.968
G1 X  53.719 Y 236.967
G1 X  53.718 Y 236.964
G1 X  53.716 Y 236.961
G1 X  53.714 Y 236.957
G1 X  53.712 Y 236.953
G1 X  53.710 Y 236.948
G1 X  53.707 Y 236.942
G1 X  53.704 Y 236.935
G1 X  47.837 Y 238.951
G1 X  41.291 Y 241.201
G1 X  34.370 Y 243.579
G1 X  27.382 Y 245.980
G1 X  20.630 Y 248.300
G1 X  14.420 Y 250.434
G1 X   9.059 Y 252.276
G1 X   4.851 Y 253.722
G1 X   2.103 Y 254.666
G1 X   1.119 Y 255.004
G1 X   1.119 Y 254.820
G1 X   1.119 Y 254.320
G1 X   1.119 Y 253.584
G1 X   1.119 Y 252.689
G1 X   1.119 Y 251.715
G1 X   1.119 Y 250.742
G1 X   1.119 Y 249.847
G1 X   1.119 Y 249.110
G1 X   1.119 Y 248.610
G1 X   1.119 Y 248.426
G1 X   2.031 Y 248.064
G1 X   4.581 Y 247.052
G1 X   8.490 Y 245.500
G1 X  13.478 Y 243.521
G1 X  19.265 Y 241.224
G1 X  25.572 Y 238.720
G1 X  32.119 Y 236.122
G1 X  38.627 Y 233.539
G1 X  44.817 Y 231.082
G1 X  50.407 Y 228.863
G1 X  51.543 Y 228.362
G1 X  52.666 Y 227.883
G1 X  53.771 Y 227.404
G1 X  54.856 Y 226.904
G1 X  55.916 Y 226.360
G1 X  56.950 Y 225.750
G1 X  57.953 Y 225.054
G1 X  58.923 Y 224.249
G1 X  59.855 Y 223.313
G1 X  60.747 Y 222.225
G1 X  61.435 Y 220.864
G1 X  62.080 Y 218.746
G1 X  62.676 Y 215.984
G1 X  63.215 Y 212.694
G1 X  63.691 Y 208.990
G1 X  64.096 Y 204.987
G1 X  64.424 Y 200.798
G1 X  64.666 Y 196.540
G1 X  64.817 Y 192.325
G1 X  64.869 Y 188.269
G1 X  64.856 Y 186.386
G1 X  64.817 Y 184.580
G1 X  64.752 Y 182.865
G1 X  64.659 Y 181.255
G1 X  64.537 Y 179.763
G1 X  64.387 Y 178.402
G1 X  64.206 Y 177.185
G1 X  63.994 Y 176.126
G1 X  63.751 Y 175.237
G1 X  63.475 Y 174.533
G1 X  62.881 Y 173.479
G1 X  62.215 Y 172.540
G1 X  61.481 Y 171.707
G1 X  60.684 Y 170.972
G1 X  59.830 Y 170.325
G1 X  58.924 Y 169.759
G1 X  57.971 Y 169.264
G1 X  56.977 Y 168.833
G1 X  55.946 Y 168.457
G1 X  54.884 Y 168.127
G1 X  49.285 Y 166.943
G1 X  42.756 Y 165.563
G1 X  35.656 Y 164.062
G1 X  28.343 Y 162.515
G1 X  21.173 Y 161.000
G1 X  14.504 Y 159.590
G1 X   8.695 Y 158.362
G1 X   4.103 Y 157.391
G1 X   1.085 Y 156.753
G1 X   0.000 Y 156.523
G1 X   0.000 Y 156.348
G1 X   0.000 Y 155.871
G1 X   0.000 Y 155.168
G1 X   0.000 Y 154.314
G1 X   0.000 Y 153.385
G1 X   0.000 Y 152.456
G1 X   0.000 Y 151.602
G1 X   0.000 Y 150.899
G1 X   0.000 Y 150.422
G1 X   0.000 Y 150.247
G1 X   0.838 Y 150.382
G1 X   3.194 Y 150.764
G1 X   6.832 Y 151.353
G1 X  11.515 Y 152.111
G1 X  17.005 Y 153.000
G1 X  23.066 Y 153.982
G1 X  29.462 Y 155.017
G1 X  35.955 Y 156.069
G1 X  42.309 Y 157.097
G1 X  48.286 Y 158.065
G1 X  48.287 Y 158.057
G1 X  48.289 Y 158.049
G1 X  48.290 Y 158.043
G1 X  48.291 Y 158.037
G1 X  48.292 Y 158.032
G1 X  48.293 Y 158.028
G1 X  48.293 Y 158.025
G1 X  48.294 Y 158.023
G1 X  48.294 Y 158.021
G1 X  48.670 Y 158.069
G1 X  49.690 Y 158.199
G1 X  51.193 Y 158.391
G1 X  53.018 Y 158.624
G1 X  55.004 Y 158.878
G1 X  56.990 Y 159.131
G1 X  58.815 Y 159.364
G1 X  60.318 Y 159.556
G1 X  61.338 Y 159.686
G1 X  61.714 Y 159.734
G1 X  61.916 Y 159.752
G1 X  62.475 Y 159.805
G1 X  63.318 Y 159.892
G1 X  64.374 Y 160.012
G1 X  65.571 Y 160.163
G1 X  66.836 Y 160.344
G1 X  68.099 Y 160.555
G1 X  69.287 Y 160.793
G1 X  70.329 Y 161.059
G1 X  71.152 Y 161.350
G1 X  71.823 Y 161.701
G1 X  72.409 Y 162.088
G1 X  72.915 Y 162.502
G1 X  73.348 Y 162.940
G1 X  73.714 Y 163.396
G1 X  74.022 Y 163.864
G1 X  74.277 Y 164.338
G1 X  74.486 Y 164.813
G1 X  74.656 Y 165.284
G1 X  74.794 Y 165.745
G1 X  73.759 Y 165.552
G1 X  70.953 Y 165.029
G1 X  66.816 Y 164.259
G1 X  61.794 Y 163.323
G1 X  56.328 Y 162.304
G1 X  50.862 Y 161.286
G1 X  45.839 Y 160.350
G1 X  41.703 Y 159.579
G1 X  38.896 Y 159.056
G1 X  37.294 Y 161.911
G1 X  38.361 Y 162.110
G1 X  41.258 Y 162.650
G1 X  45.527 Y 163.445
G1 X  50.712 Y 164.411
G1 X  56.353 Y 165.462
G1 X  61.995 Y 166.514
G1 X  67.179 Y 167.480
G1 X  71.448 Y 168.275
G1 X  74.345 Y 168.815
G1 X  75.413 Y 169.014
G1 X  75.427 Y 169.177
G1 X  75.439 Y 169.343
G1 X  75.449 Y 169.511
G1 X  75.459 Y 169.681
G1 X  75.466 Y 169.854
G1 X  75.473 Y 170.029
G1 X  75.478 Y 170.206
G1 X  75.481 Y 170.386
G1 X  75.483 Y 170.568
G1 X  75.484 Y 170.752
G1 X  75.481 Y 171.152
G1 X  75.472 Y 171.562
G1 X  75.457 Y 171.982
G1 X  75.437 Y 172.411
G1 X  75.411 Y 172.850
G1 X  75.380 Y 173.298
G1 X  75.344 Y 173.755
G1 X  75.304 Y 174.220
G1 X  75.259 Y 174.695
G1 X  75.209 Y 175.178
G1 X  75.052 Y 175.162
G1 X  74.626 Y 175.119
G1 X  73.997 Y 175.056
G1 X  73.235 Y 174.980
G1 X  72.404 Y 174.897
G1 X  71.574 Y 174.814
G1 X  70.811 Y 174.738
G1 X  70.183 Y 174.675
G1 X  69.757 Y 174.632
G1 X  69.291 Y 177.701
G1 X  69.446 Y 177.717
G1 X  69.867 Y 177.759
G1 X  70.487 Y 177.821
G1 X  71.240 Y 177.896
G1 X  72.060 Y 177.978
G1 X  72.879 Y 178.060
G1 X  73.632 Y 178.135
G1 X  74.252 Y 178.197
G1 X  74.673 Y 178.239
G1 X  74.828 Y 178.255
G1 X  74.735 Y 178.916
G1 X  74.638 Y 179.588
G1 X  74.537 Y 180.270
G1 X  74.432 Y 180.961
G1 X  74.324 Y 181.661
G1 X  74.213 Y 182.370
G1 X  74.100 Y 183.087
G1 X  73.985 Y 183.812
G1 X  73.868 Y 184.545
G1 X  73.750 Y 185.285
G1 X  73.628 Y 185.265
G1 X  73.299 Y 185.212
G1 X  72.814 Y 185.134
G1 X  72.225 Y 185.039
G1 X  71.584 Y 184.936
G1 X  70.943 Y 184.833
G1 X  70.354 Y 184.738
G1 X  69.869 Y 184.660
G1 X  69.540 Y 184.607
G1 X  68.925 Y 187.648
G1 X  69.047 Y 187.667
G1 X  69.377 Y 187.720
G1 X  69.863 Y 187.799
G1 X  70.453 Y 187.894
G1 X  71.095 Y 187.997
G1 X  71.737 Y 188.101
G1 X  72.327 Y 188.196
G1 X  72.812 Y 188.274
G1 X  73.142 Y 188.327
G1 X  73.264 Y 188.347
G1 X  73.159 Y 189.022
G1 X  73.054 Y 189.701
G1 X  72.950 Y 190.383
G1 X  72.848 Y 191.069
G1 X  72.746 Y 191.757
G1 X  72.647 Y 192.449
G1 X  72.549 Y 193.143
G1 X  72.453 Y 193.839
G1 X  72.359 Y 194.538
G1 X  72.268 Y 195.238
G1 X  72.165 Y 195.225
G1 X  71.885 Y 195.189
G1 X  71.472 Y 195.137
G1 X  70.971 Y 195.074
G1 X  70.425 Y 195.005
G1 X  69.879 Y 194.937
G1 X  69.378 Y 194.873
G1 X  68.965 Y 194.821
G1 X  68.685 Y 194.786
G1 X  68.194 Y 197.849
G1 X  68.298 Y 197.862
G1 X  68.580 Y 197.897
G1 X  68.996 Y 197.950
G1 X  69.500 Y 198.013
G1 X  70.050 Y 198.083
G1 X  70.599 Y 198.152
G1 X  71.104 Y 198.215
G1 X  71.519 Y 198.268
G1 X  71.801 Y 198.303
G1 X  71.905 Y 198.317
G1 X  71.833 Y 199.012
G1 X  71.764 Y 199.707
G1 X  71.700 Y 200.403
G1 X  71.640 Y 201.098
G1 X  71.585 Y 201.792
G1 X  71.535 Y 202.486
G1 X  71.490 Y 203.178
G1 X  71.450 Y 203.869
G1 X  71.416 Y 204.559
G1 X  71.387 Y 205.247
G1 X  71.288 Y 205.237
G1 X  71.016 Y 205.210
G1 X  70.617 Y 205.171
G1 X  70.132 Y 205.124
G1 X  69.604 Y 205.073
G1 X  69.076 Y 205.021
G1 X  68.591 Y 204.974
G1 X  68.192 Y 204.935
G1 X  67.921 Y 204.908
G1 X  67.520 Y 207.984
G1 X  67.627 Y 207.994
G1 X  67.917 Y 208.023
G1 X  68.345 Y 208.064
G1 X  68.864 Y 208.115
G1 X  69.429 Y 208.170
G1 X  69.994 Y 208.225
G1 X  70.513 Y 208.276
G1 X  70.941 Y 208.318
G1 X  71.231 Y 208.346
G1 X  71.338 Y 208.356
G1 X  71.346 Y 209.031
G1 X  71.362 Y 209.702
G1 X  71.385 Y 210.369
G1 X  71.416 Y 211.033
G1 X  71.456 Y 211.692
G1 X  71.503 Y 212.347
G1 X  71.559 Y 212.997
G1 X  71.624 Y 213.642
G1 X  71.698 Y 214.282
G1 X  71.781 Y 214.917
G1 X  71.651 Y 214.925
G1 X  71.300 Y 214.945
G1 X  70.782 Y 214.976
G1 X  70.154 Y 215.013
G1 X  69.470 Y 215.053
G1 X  68.786 Y 215.093
G1 X  68.157 Y 215.130
G1 X  67.639 Y 215.161
G1 X  67.288 Y 215.181
G1 X  67.341 Y 218.284
G1 X  67.481 Y 218.275
G1 X  67.861 Y 218.253
G1 X  68.421 Y 218.220
G1 X  69.101 Y 218.180
G1 X  69.841 Y 218.137
G1 X  70.580 Y 218.093
G1 X  71.260 Y 218.053
G1 X  71.820 Y 218.020
G1 X  72.200 Y 217.998
G1 X  72.340 Y 217.989
G1 X  72.394 Y 218.218
G1 X  72.449 Y 218.446
G1 X  72.505 Y 218.673
G1 X  72.563 Y 218.899
G1 X  72.623 Y 219.123
G1 X  72.684 Y 219.347
G1 X  72.747 Y 219.570
G1 X  72.812 Y 219.791
G1 X  72.878 Y 220.011
G1 X  72.946 Y 220.231
G1 X  73.062 Y 220.567
G1 X  73.175 Y 220.891
G1 X  73.285 Y 221.203
G1 X  73.393 Y 221.504
G1 X  73.501 Y 221.794
G1 X  73.609 Y 222.074
G1 X  73.717 Y 222.346
G1 X  73.827 Y 222.608
G1 X  73.940 Y 222.862
G1 X  74.055 Y 223.108
G1 X  73.030 Y 223.487
G1 X  70.248 Y 224.515
G1 X  66.149 Y 226.030
G1 X  61.171 Y 227.870
G1 X  55.753 Y 229.872
G1 X  50.336 Y 231.874
G1 X  45.358 Y 233.713
G1 X  41.259 Y 235.228
G1 X  38.477 Y 236.257
G1 X  38.526 Y 239.543
G1 X  39.575 Y 239.155
G1 X  42.422 Y 238.103
G1 X  46.618 Y 236.553
G1 X  51.713 Y 234.670
G1 X  57.257 Y 232.621
G1 X  62.801 Y 230.572
G1 X  67.896 Y 228.689
G1 X  72.092 Y 227.138
G1 X  74.939 Y 226.086
G1 X  75.988 Y 225.699
G1 X  76.183 Y 225.870
G1 X  76.388 Y 226.041
G1 X  76.605 Y 226.214
G1 X  76.832 Y 226.387
G1 X  77.072 Y 226.561
G1 X  77.323 Y 226.738
G1 X  77.588 Y 226.916
G1 X  77.866 Y 227.097
G1 X  78.157 Y 227.281
G1 X  78.463 Y 227.468
G1 X  78.550 Y 227.524
G1 X  78.639 Y 227.580
G1 X  78.732 Y 227.635
G1 X  78.828 Y 227.690
G1 X  78.926 Y 227.745
G1 X  79.028 Y 227.800
G1 X  79.133 Y 227.854
G1 X  79.241 Y 227.908
G1 X  79.352 Y 227.962
G1 X  79.465 Y 228.015
G1 X  79.444 Y 228.126
G1 X  79.386 Y 228.428
G1 X  79.301 Y 228.873
G1 X  79.198 Y 229.414
G1 X  79.085 Y 230.002
G1 X  78.973 Y 230.590
G1 X  78.869 Y 231.131
G1 X  78.784 Y 231.576
G1 X  78.726 Y 231.878
G1 X  81.750 Y 232.572
G1 X  81.769 Y 232.473
G1 X  81.820 Y 232.206
G1 X  81.895 Y 231.813
G1 X  81.986 Y 231.335
G1 X  82.086 Y 230.815
G1 X  82.185 Y 230.295
G1 X  82.277 Y 229.817
G1 X  82.352 Y 229.424
G1 X  82.403 Y 229.157
G1 X  82.422 Y 229.058
G1 X  83.207 Y 229.271
G1 X  84.038 Y 229.478
G1 X  84.914 Y 229.682
G1 X  85.831 Y 229.880
G1 X  86.788 Y 230.074
G1 X  87.782 Y 230.265
G1 X  88.812 Y 230.451
G1 X  89.875 Y 230.633
G1 X  90.969 Y 230.811
G1 X  92.092 Y 230.986
G1 X  92.077 Y 231.079
G1 X  92.036 Y 231.332
G1 X  91.976 Y 231.704
G1 X  91.904 Y 232.155
G1 X  91.824 Y 232.647
G1 X  91.745 Y 233.139
G1 X  91.672 Y 233.591
G1 X  91.612 Y 233.963
G1 X  91.572 Y 234.215
G1 X  94.617 Y 234.802
G1 X  94.632 Y 234.707
G1 X  94.674 Y 234.451
G1 X  94.735 Y 234.073
G1 X  94.808 Y 233.614
G1 X  94.889 Y 233.115
G1 X  94.969 Y 232.616
G1 X  95.043 Y 232.157
G1 X  95.104 Y 231.779
G1 X  95.145 Y 231.523
G1 X  95.161 Y 231.428
G1 X  96.113 Y 231.557
G1 X  97.078 Y 231.684
G1 X  98.054 Y 231.809
G1 X  99.039 Y 231.932
G1 X 100.034 Y 232.054
G1 X 101.036 Y 232.174
G1 X 102.046 Y 232.292
G1 X 103.061 Y 232.410
G1 X 104.080 Y 232.525
G1 X 105.103 Y 232.640
G1 X 105.087 Y 232.739
G1 X 105.042 Y 233.008
G1 X 104.976 Y 233.404
G1 X 104.895 Y 233.886
G1 X 104.808 Y 234.410
G1 X 104.721 Y 234.933
G1 X 104.640 Y 235.415
G1 X 104.574 Y 235.811
G1 X 104.529 Y 236.080
G1 X 107.570 Y 236.690
G1 X 107.588 Y 236.586
G1 X 107.635 Y 236.304
G1 X 107.704 Y 235.888
G1 X 107.788 Y 235.383
G1 X 107.880 Y 234.833
G1 X 107.972 Y 234.283
G1 X 108.056 Y 233.778
G1 X 108.126 Y 233.363
G1 X 108.173 Y 233.080
G1 X 108.190 Y 232.976
G1 X 109.224 Y 233.087
G1 X 110.257 Y 233.197
G1 X 111.287 Y 233.305
G1 X 112.313 Y 233.413
G1 X 113.334 Y 233.520
G1 X 114.349 Y 233.627
G1 X 115.357 Y 233.733
G1 X 116.357 Y 233.838
G1 X 117.347 Y 233.943
G1 X 118.327 Y 234.047
G1 X 118.305 Y 234.159
G1 X 118.246 Y 234.462
G1 X 118.158 Y 234.908
G1 X 118.051 Y 235.450
G1 X 117.934 Y 236.040
G1 X 117.818 Y 236.630
G1 X 117.711 Y 237.172
G1 X 117.623 Y 237.618
G1 X 117.563 Y 237.921
G1 X 120.582 Y 238.633
G1 X 120.606 Y 238.514
G1 X 120.669 Y 238.191
G1 X 120.763 Y 237.715
G1 X 120.877 Y 237.137
G1 X 121.002 Y 236.508
G1 X 121.126 Y 235.879
G1 X 121.240 Y 235.301
G1 X 121.334 Y 234.826
G1 X 121.397 Y 234.503
G1 X 121.421 Y 234.384
G1 X 122.696 Y 234.527
G1 X 123.939 Y 234.670
G1 X 125.148 Y 234.813
G1 X 126.320 Y 234.957
G1 X 127.451 Y 235.101
G1 X 128.540 Y 235.246
G1 X 129.583 Y 235.392
G1 X 130.578 Y 235.539
G1 X 131.521 Y 235.687
G1 X 132.409 Y 235.837
G1 X 132.363 Y 235.957
G1 X 132.239 Y 236.284
G1 X 132.055 Y 236.765
G1 X 131.832 Y 237.348
G1 X 131.589 Y 237.984
G1 X 131.346 Y 238.619
G1 X 131.123 Y 239.203
G1 X 130.939 Y 239.684
G1 X 130.814 Y 240.010
G1 X 133.664 Y 241.237
G1 X 133.715 Y 241.104
G1 X 133.853 Y 240.743
G1 X 134.056 Y 240.211
G1 X 134.303 Y 239.565
G1 X 134.572 Y 238.862
G1 X 134.841 Y 238.159
G1 X 135.088 Y 237.512
G1 X 135.291 Y 236.980
G1 X 135.429 Y 236.619
G1 X 135.480 Y 236.486
G1 X 135.874 Y 236.597
G1 X 136.234 Y 236.708
G1 X 136.560 Y 236.822
G1 X 136.849 Y 236.936
G1 X 137.102 Y 237.052
G1 X 137.317 Y 237.169
G1 X 137.494 Y 237.288
G1 X 137.631 Y 237.409
G1 X 137.727 Y 237.531
G1 X 137.782 Y 237.655
G1 X 137.942 Y 237.862
G1 X 138.083 Y 238.073
G1 X 138.205 Y 238.286
G1 X 138.309 Y 238.501
G1 X 138.396 Y 238.718
G1 X 138.465 Y 238.936
G1 X 138.518 Y 239.156
G1 X 138.555 Y 239.377
G1 X 138.577 Y 239.599
F1000
G1 Z   3.000
G0 Z  15.000 
M9 M5

(* SHAPE Nr: 1 *)
G0 X  82.025 Y 169.825
M3 M8
G0 Z   3.000 
F1000
G1 Z  -1.000
F400
G1 X  82.152 Y 168.871
G1 X  82.499 Y 167.955
G1 X  83.019 Y 167.098
G1 X  83.663 Y 166.323
G1 X  84.383 Y 165.652
G1 X  85.132 Y 165.108
G1 X  85.860 Y 164.714
G1 X  86.519 Y 164.492
G1 X  87.062 Y 164.465
G1 X  87.440 Y 164.655
G1 X  89.598 Y 166.105
G1 X  94.320 Y 167.738
G1 X 100.975 Y 169.484
G1 X 108.929 Y 171.274
G1 X 117.550 Y 173.040
G1 X 126.207 Y 174.712
G1 X 134.268 Y 176.221
G1 X 141.100 Y 177.499
G1 X 146.071 Y 178.477
G1 X 148.549 Y 179.084
G1 X 149.908 Y 179.593
G1 X 151.164 Y 180.252
G1 X 152.315 Y 181.040
G1 X 153.356 Y 181.933
G1 X 154.287 Y 182.907
G1 X 155.102 Y 183.941
G1 X 155.800 Y 185.011
G1 X 156.378 Y 186.095
G1 X 156.833 Y 187.168
G1 X 157.162 Y 188.210
G1 X 157.273 Y 188.448
G1 X 157.370 Y 188.727
G1 X 157.455 Y 189.046
G1 X 157.526 Y 189.402
G1 X 157.585 Y 189.796
G1 X 157.633 Y 190.223
G1 X 157.669 Y 190.684
G1 X 157.694 Y 191.177
G1 X 157.708 Y 191.700
G1 X 157.713 Y 192.250
G1 X 157.651 Y 194.551
G1 X 157.479 Y 197.143
G1 X 157.225 Y 199.941
G1 X 156.912 Y 202.858
G1 X 156.568 Y 205.808
G1 X 156.216 Y 208.704
G1 X 155.884 Y 211.461
G1 X 155.595 Y 213.991
G1 X 155.375 Y 216.208
G1 X 155.251 Y 218.027
G1 X 155.200 Y 218.858
G1 X 155.141 Y 219.785
G1 X 155.076 Y 220.800
G1 X 155.008 Y 221.898
G1 X 154.941 Y 223.072
G1 X 154.878 Y 224.317
G1 X 154.824 Y 225.625
G1 X 154.780 Y 226.990
G1 X 154.752 Y 228.407
G1 X 154.742 Y 229.868
G1 X 154.751 Y 231.211
G1 X 154.780 Y 232.580
G1 X 154.831 Y 233.972
G1 X 154.908 Y 235.381
G1 X 155.011 Y 236.802
G1 X 155.144 Y 238.232
G1 X 155.310 Y 239.666
G1 X 155.511 Y 241.099
G1 X 155.749 Y 242.527
G1 X 156.026 Y 243.945
G1 X 156.054 Y 244.149
G1 X 156.081 Y 244.370
G1 X 156.106 Y 244.609
G1 X 156.129 Y 244.863
G1 X 156.149 Y 245.131
G1 X 156.166 Y 245.411
G1 X 156.180 Y 245.704
G1 X 156.190 Y 246.007
G1 X 156.196 Y 246.319
G1 X 156.199 Y 246.639
G1 X 156.177 Y 247.625
G1 X 156.107 Y 248.637
G1 X 155.979 Y 249.642
G1 X 155.784 Y 250.605
G1 X 155.515 Y 251.495
G1 X 155.162 Y 252.277
G1 X 154.717 Y 252.920
G1 X 154.171 Y 253.389
G1 X 153.516 Y 253.652
G1 X 152.742 Y 253.675
G1 X 152.057 Y 253.617
G1 X 151.374 Y 253.442
G1 X 150.705 Y 253.173
G1 X 150.061 Y 252.830
G1 X 149.457 Y 252.434
G1 X 148.903 Y 252.006
G1 X 148.412 Y 251.568
G1 X 147.997 Y 251.140
G1 X 147.669 Y 250.744
G1 X 147.442 Y 250.400
G1 X 147.379 Y 250.303
G1 X 147.316 Y 250.199
G1 X 147.252 Y 250.089
G1 X 147.187 Y 249.972
G1 X 147.122 Y 249.850
G1 X 147.057 Y 249.723
G1 X 146.991 Y 249.590
G1 X 146.926 Y 249.452
G1 X 146.860 Y 249.310
G1 X 146.795 Y 249.163
G1 X 146.908 Y 249.184
G1 X 147.214 Y 249.241
G1 X 147.664 Y 249.325
G1 X 148.212 Y 249.427
G1 X 148.807 Y 249.538
G1 X 149.403 Y 249.649
G1 X 149.950 Y 249.751
G1 X 150.401 Y 249.835
G1 X 150.706 Y 249.892
G1 X 151.387 Y 246.865
G1 X 151.230 Y 246.836
G1 X 150.804 Y 246.756
G1 X 150.176 Y 246.639
G1 X 149.413 Y 246.497
G1 X 148.583 Y 246.343
G1 X 147.753 Y 246.188
G1 X 146.990 Y 246.046
G1 X 146.362 Y 245.929
G1 X 145.936 Y 245.849
G1 X 145.779 Y 245.820
G1 X 145.762 Y 245.721
G1 X 145.746 Y 245.622
G1 X 145.730 Y 245.524
G1 X 145.716 Y 245.426
G1 X 145.702 Y 245.328
G1 X 145.690 Y 245.230
G1 X 145.679 Y 245.133
G1 X 145.668 Y 245.036
G1 X 145.659 Y 244.940
G1 X 145.650 Y 244.845
G1 X 145.637 Y 244.683
G1 X 145.626 Y 244.518
G1 X 145.616 Y 244.349
G1 X 145.607 Y 244.178
G1 X 145.600 Y 244.003
G1 X 145.594 Y 243.826
G1 X 145.589 Y 243.645
G1 X 145.586 Y 243.462
G1 X 145.584 Y 243.276
G1 X 145.584 Y 243.087
G1 X 145.585 Y 242.753
G1 X 145.591 Y 242.412
G1 X 145.600 Y 242.063
G1 X 145.613 Y 241.707
G1 X 145.629 Y 241.345
G1 X 145.648 Y 240.975
G1 X 145.671 Y 240.599
G1 X 145.696 Y 240.218
G1 X 145.725 Y 239.830
G1 X 145.756 Y 239.437
G1 X 145.886 Y 239.450
G1 X 146.239 Y 239.485
G1 X 146.759 Y 239.537
G1 X 147.391 Y 239.601
G1 X 148.078 Y 239.669
G1 X 148.766 Y 239.738
G1 X 149.397 Y 239.801
G1 X 149.917 Y 239.853
G1 X 150.270 Y 239.888
G1 X 150.709 Y 236.817
G1 X 150.579 Y 236.804
G1 X 150.226 Y 236.769
G1 X 149.707 Y 236.717
G1 X 149.076 Y 236.654
G1 X 148.390 Y 236.585
G1 X 147.703 Y 236.516
G1 X 147.073 Y 236.453
G1 X 146.553 Y 236.401
G1 X 146.201 Y 236.366
G1 X 146.071 Y 236.353
G1 X 146.154 Y 235.673
G1 X 146.241 Y 234.986
G1 X 146.332 Y 234.295
G1 X 146.427 Y 233.600
G1 X 146.525 Y 232.903
G1 X 146.626 Y 232.206
G1 X 146.730 Y 231.508
G1 X 146.835 Y 230.812
G1 X 146.942 Y 230.118
G1 X 147.050 Y 229.428
G1 X 147.154 Y 229.445
G1 X 147.437 Y 229.491
G1 X 147.854 Y 229.558
G1 X 148.361 Y 229.640
G1 X 148.912 Y 229.728
G1 X 149.463 Y 229.817
G1 X 149.969 Y 229.899
G1 X 150.386 Y 229.966
G1 X 150.669 Y 230.012
G1 X 151.266 Y 226.968
G1 X 151.162 Y 226.951
G1 X 150.879 Y 226.906
G1 X 150.463 Y 226.838
G1 X 149.957 Y 226.757
G1 X 149.406 Y 226.668
G1 X 148.855 Y 226.579
G1 X 148.349 Y 226.498
G1 X 147.932 Y 226.431
G1 X 147.649 Y 226.385
G1 X 147.545 Y 226.368
G1 X 147.679 Y 225.557
G1 X 147.810 Y 224.765
G1 X 147.938 Y 223.995
G1 X 148.061 Y 223.249
G1 X 148.178 Y 222.530
G1 X 148.289 Y 221.841
G1 X 148.393 Y 221.183
G1 X 148.489 Y 220.559
G1 X 148.577 Y 219.973
G1 X 148.654 Y 219.425
G1 X 148.743 Y 219.436
G1 X 148.985 Y 219.467
G1 X 149.341 Y 219.511
G1 X 149.773 Y 219.566
G1 X 150.243 Y 219.625
G1 X 150.714 Y 219.685
G1 X 151.146 Y 219.739
G1 X 151.502 Y 219.784
G1 X 151.743 Y 219.814
G1 X 152.220 Y 216.750
G1 X 152.130 Y 216.739
G1 X 151.887 Y 216.708
G1 X 151.529 Y 216.663
G1 X 151.094 Y 216.608
G1 X 150.620 Y 216.548
G1 X 150.147 Y 216.489
G1 X 149.712 Y 216.434
G1 X 149.354 Y 216.389
G1 X 149.110 Y 216.358
G1 X 149.021 Y 216.347
G1 X 149.108 Y 215.626
G1 X 149.195 Y 214.911
G1 X 149.282 Y 214.203
G1 X 149.369 Y 213.501
G1 X 149.454 Y 212.804
G1 X 149.539 Y 212.112
G1 X 149.622 Y 211.425
G1 X 149.703 Y 210.743
G1 X 149.782 Y 210.065
G1 X 149.858 Y 209.390
G1 X 149.945 Y 209.399
G1 X 150.183 Y 209.422
G1 X 150.533 Y 209.456
G1 X 150.958 Y 209.498
G1 X 151.420 Y 209.543
G1 X 151.883 Y 209.588
G1 X 152.308 Y 209.629
G1 X 152.658 Y 209.664
G1 X 152.896 Y 209.687
G1 X 153.284 Y 206.610
G1 X 153.197 Y 206.601
G1 X 152.960 Y 206.578
G1 X 152.610 Y 206.544
G1 X 152.186 Y 206.503
G1 X 151.724 Y 206.458
G1 X 151.262 Y 206.413
G1 X 150.838 Y 206.371
G1 X 150.488 Y 206.337
G1 X 150.251 Y 206.314
G1 X 150.164 Y 206.306
G1 X 150.211 Y 205.732
G1 X 150.254 Y 205.160
G1 X 150.293 Y 204.589
G1 X 150.328 Y 204.018
G1 X 150.357 Y 203.448
G1 X 150.382 Y 202.879
G1 X 150.402 Y 202.309
G1 X 150.417 Y 201.739
G1 X 150.426 Y 201.169
G1 X 150.429 Y 200.599
G1 X 150.429 Y 200.469
G1 X 150.428 Y 200.339
G1 X 150.427 Y 200.210
G1 X 150.426 Y 200.080
G1 X 150.425 Y 199.950
G1 X 150.423 Y 199.820
G1 X 150.421 Y 199.690
G1 X 150.418 Y 199.560
G1 X 150.416 Y 199.430
G1 X 150.413 Y 199.299
G1 X 150.513 Y 199.293
G1 X 150.785 Y 199.277
G1 X 151.187 Y 199.254
G1 X 151.674 Y 199.225
G1 X 152.205 Y 199.194
G1 X 152.735 Y 199.163
G1 X 153.223 Y 199.134
G1 X 153.624 Y 199.110
G1 X 153.897 Y 199.094
G1 X 153.815 Y 195.994
G1 X 153.715 Y 195.999
G1 X 153.442 Y 196.016
G1 X 153.041 Y 196.039
G1 X 152.554 Y 196.068
G1 X 152.024 Y 196.099
G1 X 151.493 Y 196.130
G1 X 151.006 Y 196.159
G1 X 150.605 Y 196.183
G1 X 150.333 Y 196.199
G1 X 150.232 Y 196.205
G1 X 150.219 Y 196.060
G1 X 150.205 Y 195.916
G1 X 150.190 Y 195.771
G1 X 150.175 Y 195.626
G1 X 150.159 Y 195.481
G1 X 150.143 Y 195.335
G1 X 150.127 Y 195.190
G1 X 150.110 Y 195.044
G1 X 150.092 Y 194.899
G1 X 150.074 Y 194.753
G1 X 150.063 Y 194.356
G1 X 150.032 Y 193.927
G1 X 149.979 Y 193.470
G1 X 149.905 Y 192.988
G1 X 149.808 Y 192.484
G1 X 149.688 Y 191.964
G1 X 149.546 Y 191.429
G1 X 149.380 Y 190.885
G1 X 149.191 Y 190.333
G1 X 148.977 Y 189.779
G1 X 149.082 Y 189.740
G1 X 149.368 Y 189.635
G1 X 149.788 Y 189.479
G1 X 150.299 Y 189.290
G1 X 150.855 Y 189.085
G1 X 151.412 Y 188.879
G1 X 151.923 Y 188.691
G1 X 152.343 Y 188.535
G1 X 152.629 Y 188.429
G1 X 151.659 Y 185.483
G1 X 151.543 Y 185.526
G1 X 151.225 Y 185.643
G1 X 150.758 Y 185.816
G1 X 150.190 Y 186.026
G1 X 149.572 Y 186.254
G1 X 148.954 Y 186.483
G1 X 148.386 Y 186.692
G1 X 147.919 Y 186.865
G1 X 147.601 Y 186.982
G1 X 147.485 Y 187.026
G1 X 147.262 Y 186.723
G1 X 147.030 Y 186.429
G1 X 146.787 Y 186.144
G1 X 146.535 Y 185.868
G1 X 146.272 Y 185.603
G1 X 145.999 Y 185.349
G1 X 145.716 Y 185.107
G1 X 145.422 Y 184.878
G1 X 145.118 Y 184.663
G1 X 144.802 Y 184.462
G1 X 144.477 Y 184.331
G1 X 144.116 Y 184.200
G1 X 143.721 Y 184.068
G1 X 143.293 Y 183.936
G1 X 142.832 Y 183.804
G1 X 142.339 Y 183.671
G1 X 141.816 Y 183.538
G1 X 141.263 Y 183.404
G1 X 140.681 Y 183.270
G1 X 140.071 Y 183.135
G1 X 140.086 Y 183.056
G1 X 140.127 Y 182.842
G1 X 140.188 Y 182.526
G1 X 140.261 Y 182.142
G1 X 140.341 Y 181.724
G1 X 140.421 Y 181.306
G1 X 140.495 Y 180.922
G1 X 140.555 Y 180.606
G1 X 140.596 Y 180.391
G1 X 137.566 Y 179.730
G1 X 137.551 Y 179.808
G1 X 137.511 Y 180.021
G1 X 137.451 Y 180.334
G1 X 137.378 Y 180.715
G1 X 137.299 Y 181.129
G1 X 137.219 Y 181.544
G1 X 137.147 Y 181.924
G1 X 137.087 Y 182.238
G1 X 137.046 Y 182.450
G1 X 137.031 Y 182.529
G1 X 136.165 Y 182.370
G1 X 135.269 Y 182.210
G1 X 134.346 Y 182.050
G1 X 133.397 Y 181.889
G1 X 132.422 Y 181.728
G1 X 131.424 Y 181.566
G1 X 130.404 Y 181.403
G1 X 129.363 Y 181.239
G1 X 128.304 Y 181.075
G1 X 127.226 Y 180.910
G1 X 127.239 Y 180.828
G1 X 127.275 Y 180.605
G1 X 127.328 Y 180.277
G1 X 127.392 Y 179.879
G1 X 127.462 Y 179.446
G1 X 127.531 Y 179.013
G1 X 127.596 Y 178.615
G1 X 127.648 Y 178.287
G1 X 127.684 Y 178.064
G1 X 124.637 Y 177.489
G1 X 124.624 Y 177.572
G1 X 124.587 Y 177.797
G1 X 124.534 Y 178.129
G1 X 124.469 Y 178.531
G1 X 124.399 Y 178.969
G1 X 124.328 Y 179.407
G1 X 124.263 Y 179.809
G1 X 124.210 Y 180.141
G1 X 124.174 Y 180.366
G1 X 124.160 Y 180.448
G1 X 123.197 Y 180.306
G1 X 122.226 Y 180.162
G1 X 121.248 Y 180.018
G1 X 120.263 Y 179.873
G1 X 119.273 Y 179.728
G1 X 118.279 Y 179.582
G1 X 117.281 Y 179.435
G1 X 116.280 Y 179.288
G1 X 115.277 Y 179.141
G1 X 114.273 Y 178.992
G1 X 114.288 Y 178.902
G1 X 114.329 Y 178.658
G1 X 114.389 Y 178.299
G1 X 114.462 Y 177.863
G1 X 114.541 Y 177.388
G1 X 114.620 Y 176.913
G1 X 114.693 Y 176.476
G1 X 114.753 Y 176.117
G1 X 114.794 Y 175.873
G1 X 111.751 Y 175.273
G1 X 111.736 Y 175.364
G1 X 111.694 Y 175.612
G1 X 111.633 Y 175.977
G1 X 111.559 Y 176.421
G1 X 111.479 Y 176.904
G1 X 111.398 Y 177.387
G1 X 111.324 Y 177.830
G1 X 111.263 Y 178.195
G1 X 111.222 Y 178.443
G1 X 111.207 Y 178.535
G1 X 110.184 Y 178.380
G1 X 109.165 Y 178.225
G1 X 108.150 Y 178.069
G1 X 107.141 Y 177.912
G1 X 106.139 Y 177.755
G1 X 105.144 Y 177.597
G1 X 104.157 Y 177.438
G1 X 103.180 Y 177.279
G1 X 102.213 Y 177.118
G1 X 101.257 Y 176.957
G1 X 101.277 Y 176.858
G1 X 101.330 Y 176.588
G1 X 101.409 Y 176.191
G1 X 101.504 Y 175.709
G1 X 101.607 Y 175.183
G1 X 101.711 Y 174.658
G1 X 101.806 Y 174.176
G1 X 101.885 Y 173.778
G1 X 101.938 Y 173.509
G1 X  98.916 Y 172.809
G1 X  98.896 Y 172.910
G1 X  98.842 Y 173.185
G1 X  98.762 Y 173.590
G1 X  98.665 Y 174.081
G1 X  98.560 Y 174.616
G1 X  98.454 Y 175.151
G1 X  98.357 Y 175.642
G1 X  98.277 Y 176.047
G1 X  98.223 Y 176.321
G1 X  98.203 Y 176.422
G1 X  97.051 Y 176.211
G1 X  95.926 Y 175.997
G1 X  94.830 Y 175.783
G1 X  93.766 Y 175.567
G1 X  92.735 Y 175.350
G1 X  91.741 Y 175.132
G1 X  90.783 Y 174.912
G1 X  89.866 Y 174.691
G1 X  88.990 Y 174.468
G1 X  88.158 Y 174.244
G1 X  88.198 Y 174.140
G1 X  88.306 Y 173.856
G1 X  88.466 Y 173.438
G1 X  88.660 Y 172.930
G1 X  88.872 Y 172.377
G1 X  89.083 Y 171.824
G1 X  89.277 Y 171.316
G1 X  89.437 Y 170.898
G1 X  89.545 Y 170.614
G1 X  86.690 Y 169.403
G1 X  86.648 Y 169.512
G1 X  86.535 Y 169.808
G1 X  86.368 Y 170.243
G1 X  86.166 Y 170.773
G1 X  85.946 Y 171.349
G1 X  85.726 Y 171.924
G1 X  85.524 Y 172.454
G1 X  85.357 Y 172.889
G1 X  85.244 Y 173.185
G1 X  85.202 Y 173.294
G1 X  84.902 Y 173.176
G1 X  84.616 Y 173.057
G1 X  84.345 Y 172.938
G1 X  84.089 Y 172.819
G1 X  83.848 Y 172.699
G1 X  83.622 Y 172.578
G1 X  83.413 Y 172.458
G1 X  83.220 Y 172.337
G1 X  83.043 Y 172.215
G1 X  82.882 Y 172.093
G1 X  82.711 Y 171.871
G1 X  82.560 Y 171.648
G1 X  82.430 Y 171.422
G1 X  82.319 Y 171.195
G1 X  82.226 Y 170.968
G1 X  82.152 Y 170.739
G1 X  82.096 Y 170.510
G1 X  82.056 Y 170.282
G1 X  82.033 Y 170.053
F1000
G1 Z   3.000
G0 Z  15.000 
M9 M5

(* SHAPE Nr: 2 *)
G0 X  99.700 Y 153.279
M3 M8
G0 Z   3.000 
F1000
G1 Z  -1.000
F400
G1 X  99.818 Y 152.268
G1 X 100.140 Y 151.280
G1 X 100.623 Y 150.344
G1 X 101.222 Y 149.487
G1 X 101.894 Y 148.734
G1 X 102.593 Y 148.112
G1 X 103.275 Y 147.650
G1 X 103.896 Y 147.373
G1 X 104.412 Y 147.308
G1 X 104.778 Y 147.482
G1 X 106.806 Y 148.969
G1 X 111.289 Y 150.676
G1 X 117.646 Y 152.526
G1 X 125.293 Y 154.444
G1 X 133.649 Y 156.351
G1 X 142.130 Y 158.171
G1 X 150.153 Y 159.827
G1 X 157.136 Y 161.243
G1 X 162.497 Y 162.340
G1 X 165.652 Y 163.042
G1 X 167.220 Y 163.612
G1 X 168.600 Y 164.398
G1 X 169.804 Y 165.353
G1 X 170.841 Y 166.430
G1 X 171.723 Y 167.580
G1 X 172.461 Y 168.757
G1 X 173.066 Y 169.913
G1 X 173.548 Y 170.999
G1 X 173.918 Y 171.969
G1 X 174.188 Y 172.775
G1 X 174.324 Y 173.175
G1 X 174.443 Y 173.607
G1 X 174.545 Y 174.069
G1 X 174.633 Y 174.561
G1 X 174.705 Y 175.082
G1 X 174.763 Y 175.632
G1 X 174.807 Y 176.209
G1 X 174.838 Y 176.813
G1 X 174.856 Y 177.443
G1 X 174.862 Y 178.098
G1 X 174.767 Y 181.085
G1 X 174.511 Y 184.440
G1 X 174.134 Y 188.104
G1 X 173.675 Y 192.021
G1 X 173.176 Y 196.132
G1 X 172.677 Y 200.381
G1 X 172.219 Y 204.710
G1 X 171.841 Y 209.062
G1 X 171.585 Y 213.380
G1 X 171.490 Y 217.605
G1 X 171.497 Y 218.627
G1 X 171.516 Y 219.640
G1 X 171.549 Y 220.641
G1 X 171.596 Y 221.631
G1 X 171.657 Y 222.608
G1 X 171.734 Y 223.572
G1 X 171.827 Y 224.521
G1 X 171.937 Y 225.456
G1 X 172.064 Y 226.374
G1 X 172.208 Y 227.276
G1 X 172.256 Y 227.467
G1 X 172.300 Y 227.674
G1 X 172.338 Y 227.896
G1 X 172.372 Y 228.133
G1 X 172.401 Y 228.383
G1 X 172.425 Y 228.645
G1 X 172.444 Y 228.918
G1 X 172.458 Y 229.202
G1 X 172.466 Y 229.496
G1 X 172.469 Y 229.798
G1 X 172.438 Y 230.832
G1 X 172.344 Y 231.913
G1 X 172.183 Y 233.003
G1 X 171.951 Y 234.070
G1 X 171.644 Y 235.078
G1 X 171.258 Y 235.994
G1 X 170.790 Y 236.782
G1 X 170.236 Y 237.408
G1 X 169.592 Y 237.838
G1 X 168.855 Y 238.038
G1 X 168.187 Y 237.980
G1 X 167.551 Y 237.805
G1 X 166.950 Y 237.536
G1 X 166.390 Y 237.192
G1 X 165.877 Y 236.796
G1 X 165.414 Y 236.368
G1 X 165.006 Y 235.930
G1 X 164.660 Y 235.502
G1 X 164.379 Y 235.106
G1 X 164.169 Y 234.762
G1 X 164.165 Y 234.756
G1 X 164.154 Y 234.739
G1 X 164.137 Y 234.709
G1 X 164.113 Y 234.667
G1 X 164.084 Y 234.613
G1 X 164.050 Y 234.545
G1 X 164.011 Y 234.465
G1 X 163.968 Y 234.371
G1 X 163.921 Y 234.262
G1 X 163.871 Y 234.140
G1 X 163.969 Y 234.159
G1 X 164.236 Y 234.208
G1 X 164.630 Y 234.282
G1 X 165.108 Y 234.371
G1 X 165.627 Y 234.468
G1 X 166.147 Y 234.564
G1 X 166.625 Y 234.653
G1 X 167.018 Y 234.727
G1 X 167.285 Y 234.777
G1 X 167.952 Y 231.747
G1 X 167.816 Y 231.722
G1 X 167.449 Y 231.654
G1 X 166.909 Y 231.553
G1 X 166.252 Y 231.431
G1 X 165.537 Y 231.297
G1 X 164.822 Y 231.164
G1 X 164.166 Y 231.042
G1 X 163.625 Y 230.941
G1 X 163.258 Y 230.873
G1 X 163.123 Y 230.847
G1 X 163.095 Y 230.591
G1 X 163.069 Y 230.325
G1 X 163.045 Y 230.050
G1 X 163.024 Y 229.766
G1 X 163.006 Y 229.471
G1 X 162.991 Y 229.167
G1 X 162.979 Y 228.853
G1 X 162.970 Y 228.529
G1 X 162.964 Y 228.195
G1 X 162.962 Y 227.851
G1 X 162.964 Y 227.574
G1 X 162.967 Y 227.290
G1 X 162.973 Y 226.999
G1 X 162.982 Y 226.702
G1 X 162.993 Y 226.399
G1 X 163.007 Y 226.089
G1 X 163.024 Y 225.772
G1 X 163.044 Y 225.449
G1 X 163.067 Y 225.118
G1 X 163.093 Y 224.781
G1 X 163.097 Y 224.742
G1 X 163.101 Y 224.702
G1 X 163.104 Y 224.663
G1 X 163.108 Y 224.623
G1 X 163.112 Y 224.584
G1 X 163.116 Y 224.544
G1 X 163.119 Y 224.504
G1 X 163.123 Y 224.464
G1 X 163.127 Y 224.424
G1 X 163.131 Y 224.384
G1 X 163.249 Y 224.396
G1 X 163.571 Y 224.428
G1 X 164.045 Y 224.476
G1 X 164.621 Y 224.533
G1 X 165.247 Y 224.596
G1 X 165.873 Y 224.659
G1 X 166.449 Y 224.716
G1 X 166.923 Y 224.764
G1 X 167.245 Y 224.796
G1 X 167.671 Y 221.723
G1 X 167.554 Y 221.711
G1 X 167.234 Y 221.679
G1 X 166.763 Y 221.632
G1 X 166.191 Y 221.575
G1 X 165.568 Y 221.513
G1 X 164.945 Y 221.450
G1 X 164.373 Y 221.393
G1 X 163.902 Y 221.346
G1 X 163.582 Y 221.314
G1 X 163.465 Y 221.302
G1 X 163.542 Y 220.652
G1 X 163.623 Y 219.992
G1 X 163.707 Y 219.323
G1 X 163.794 Y 218.646
G1 X 163.883 Y 217.960
G1 X 163.975 Y 217.267
G1 X 164.069 Y 216.566
G1 X 164.165 Y 215.859
G1 X 164.264 Y 215.146
G1 X 164.364 Y 214.427
G1 X 164.461 Y 214.442
G1 X 164.724 Y 214.485
G1 X 165.111 Y 214.547
G1 X 165.582 Y 214.623
G1 X 166.094 Y 214.705
G1 X 166.606 Y 214.788
G1 X 167.076 Y 214.864
G1 X 167.464 Y 214.926
G1 X 167.727 Y 214.969
G1 X 168.317 Y 211.924
G1 X 168.218 Y 211.908
G1 X 167.951 Y 211.865
G1 X 167.557 Y 211.801
G1 X 167.079 Y 211.724
G1 X 166.559 Y 211.640
G1 X 166.039 Y 211.557
G1 X 165.560 Y 211.480
G1 X 165.167 Y 211.416
G1 X 164.899 Y 211.373
G1 X 164.801 Y 211.357
G1 X 164.901 Y 210.664
G1 X 165.002 Y 209.969
G1 X 165.103 Y 209.272
G1 X 165.205 Y 208.573
G1 X 165.307 Y 207.873
G1 X 165.410 Y 207.173
G1 X 165.512 Y 206.472
G1 X 165.614 Y 205.771
G1 X 165.716 Y 205.071
G1 X 165.818 Y 204.372
G1 X 165.906 Y 204.383
G1 X 166.147 Y 204.413
G1 X 166.503 Y 204.458
G1 X 166.934 Y 204.512
G1 X 167.403 Y 204.571
G1 X 167.873 Y 204.631
G1 X 168.304 Y 204.685
G1 X 168.659 Y 204.730
G1 X 168.900 Y 204.760
G1 X 169.377 Y 201.696
G1 X 169.289 Y 201.685
G1 X 169.052 Y 201.655
G1 X 168.703 Y 201.611
G1 X 168.279 Y 201.557
G1 X 167.817 Y 201.499
G1 X 167.356 Y 201.441
G1 X 166.931 Y 201.387
G1 X 166.582 Y 201.343
G1 X 166.345 Y 201.313
G1 X 166.258 Y 201.302
G1 X 166.359 Y 200.583
G1 X 166.459 Y 199.866
G1 X 166.558 Y 199.155
G1 X 166.654 Y 198.448
G1 X 166.749 Y 197.746
G1 X 166.842 Y 197.050
G1 X 166.933 Y 196.360
G1 X 167.021 Y 195.676
G1 X 167.106 Y 195.000
G1 X 167.189 Y 194.331
G1 X 167.276 Y 194.340
G1 X 167.512 Y 194.363
G1 X 167.859 Y 194.397
G1 X 168.281 Y 194.438
G1 X 168.740 Y 194.482
G1 X 169.199 Y 194.527
G1 X 169.621 Y 194.568
G1 X 169.968 Y 194.602
G1 X 170.204 Y 194.625
G1 X 170.591 Y 191.548
G1 X 170.506 Y 191.540
G1 X 170.275 Y 191.517
G1 X 169.933 Y 191.484
G1 X 169.519 Y 191.444
G1 X 169.068 Y 191.400
G1 X 168.617 Y 191.356
G1 X 168.202 Y 191.315
G1 X 167.861 Y 191.282
G1 X 167.629 Y 191.259
G1 X 167.544 Y 191.251
G1 X 167.629 Y 190.434
G1 X 167.707 Y 189.636
G1 X 167.777 Y 188.858
G1 X 167.841 Y 188.102
G1 X 167.896 Y 187.368
G1 X 167.943 Y 186.658
G1 X 167.982 Y 185.972
G1 X 168.011 Y 185.312
G1 X 168.031 Y 184.679
G1 X 168.041 Y 184.074
G1 X 168.137 Y 184.068
G1 X 168.396 Y 184.053
G1 X 168.779 Y 184.030
G1 X 169.243 Y 184.003
G1 X 169.748 Y 183.973
G1 X 170.253 Y 183.944
G1 X 170.717 Y 183.916
G1 X 171.099 Y 183.894
G1 X 171.358 Y 183.879
G1 X 171.272 Y 180.778
G1 X 171.179 Y 180.784
G1 X 170.929 Y 180.798
G1 X 170.559 Y 180.820
G1 X 170.110 Y 180.847
G1 X 169.622 Y 180.875
G1 X 169.133 Y 180.904
G1 X 168.684 Y 180.931
G1 X 168.315 Y 180.952
G1 X 168.064 Y 180.967
G1 X 167.971 Y 180.973
G1 X 167.932 Y 180.392
G1 X 167.878 Y 179.773
G1 X 167.808 Y 179.121
G1 X 167.719 Y 178.442
G1 X 167.610 Y 177.743
G1 X 167.478 Y 177.028
G1 X 167.321 Y 176.304
G1 X 167.138 Y 175.578
G1 X 166.926 Y 174.853
G1 X 166.683 Y 174.138
G1 X 166.780 Y 174.102
G1 X 167.043 Y 174.004
G1 X 167.432 Y 173.861
G1 X 167.903 Y 173.687
G1 X 168.416 Y 173.497
G1 X 168.930 Y 173.307
G1 X 169.401 Y 173.133
G1 X 169.790 Y 172.990
G1 X 170.053 Y 172.892
G1 X 169.076 Y 169.948
G1 X 168.969 Y 169.988
G1 X 168.680 Y 170.095
G1 X 168.255 Y 170.252
G1 X 167.738 Y 170.443
G1 X 167.175 Y 170.651
G1 X 166.613 Y 170.859
G1 X 166.096 Y 171.050
G1 X 165.670 Y 171.207
G1 X 165.382 Y 171.314
G1 X 165.275 Y 171.353
G1 X 165.015 Y 170.998
G1 X 164.739 Y 170.660
G1 X 164.447 Y 170.338
G1 X 164.138 Y 170.035
G1 X 163.812 Y 169.751
G1 X 163.468 Y 169.489
G1 X 163.106 Y 169.249
G1 X 162.725 Y 169.033
G1 X 162.326 Y 168.842
G1 X 161.907 Y 168.677
G1 X 161.667 Y 168.552
G1 X 161.357 Y 168.422
G1 X 160.977 Y 168.288
G1 X 160.532 Y 168.149
G1 X 160.022 Y 168.006
G1 X 159.451 Y 167.859
G1 X 158.821 Y 167.708
G1 X 158.133 Y 167.553
G1 X 157.391 Y 167.394
G1 X 156.596 Y 167.231
G1 X 156.612 Y 167.148
G1 X 156.655 Y 166.925
G1 X 156.718 Y 166.595
G1 X 156.795 Y 166.194
G1 X 156.878 Y 165.758
G1 X 156.962 Y 165.322
G1 X 157.038 Y 164.922
G1 X 157.101 Y 164.592
G1 X 157.144 Y 164.368
G1 X 154.115 Y 163.703
G1 X 154.100 Y 163.785
G1 X 154.057 Y 164.010
G1 X 153.993 Y 164.340
G1 X 153.917 Y 164.741
G1 X 153.833 Y 165.178
G1 X 153.749 Y 165.615
G1 X 153.673 Y 166.016
G1 X 153.609 Y 166.347
G1 X 153.567 Y 166.571
G1 X 153.551 Y 166.653
G1 X 152.687 Y 166.499
G1 X 151.793 Y 166.341
G1 X 150.870 Y 166.182
G1 X 149.920 Y 166.020
G1 X 148.944 Y 165.855
G1 X 147.943 Y 165.688
G1 X 146.920 Y 165.519
G1 X 145.876 Y 165.348
G1 X 144.812 Y 165.175
G1 X 143.729 Y 165.000
G1 X 143.744 Y 164.911
G1 X 143.783 Y 164.669
G1 X 143.840 Y 164.313
G1 X 143.910 Y 163.881
G1 X 143.985 Y 163.411
G1 X 144.061 Y 162.941
G1 X 144.131 Y 162.509
G1 X 144.188 Y 162.153
G1 X 144.227 Y 161.912
G1 X 141.181 Y 161.330
G1 X 141.166 Y 161.419
G1 X 141.128 Y 161.660
G1 X 141.070 Y 162.016
G1 X 141.001 Y 162.448
G1 X 140.925 Y 162.918
G1 X 140.849 Y 163.389
G1 X 140.779 Y 163.821
G1 X 140.722 Y 164.176
G1 X 140.683 Y 164.418
G1 X 140.669 Y 164.507
G1 X 139.708 Y 164.353
G1 X 138.739 Y 164.197
G1 X 137.763 Y 164.040
G1 X 136.781 Y 163.882
G1 X 135.794 Y 163.723
G1 X 134.802 Y 163.563
G1 X 133.807 Y 163.401
G1 X 132.809 Y 163.239
G1 X 131.810 Y 163.075
G1 X 130.810 Y 162.911
G1 X 130.826 Y 162.813
G1 X 130.871 Y 162.546
G1 X 130.936 Y 162.153
G1 X 131.016 Y 161.676
G1 X 131.102 Y 161.157
G1 X 131.189 Y 160.638
G1 X 131.269 Y 160.161
G1 X 131.334 Y 159.768
G1 X 131.379 Y 159.501
G1 X 128.337 Y 158.893
G1 X 128.321 Y 158.991
G1 X 128.277 Y 159.257
G1 X 128.211 Y 159.650
G1 X 128.131 Y 160.128
G1 X 128.045 Y 160.647
G1 X 127.958 Y 161.166
G1 X 127.878 Y 161.643
G1 X 127.813 Y 162.036
G1 X 127.768 Y 162.303
G1 X 127.752 Y 162.401
G1 X 126.733 Y 162.228
G1 X 125.718 Y 162.055
G1 X 124.708 Y 161.880
G1 X 123.704 Y 161.705
G1 X 122.708 Y 161.529
G1 X 121.720 Y 161.353
G1 X 120.741 Y 161.175
G1 X 119.772 Y 160.997
G1 X 118.814 Y 160.819
G1 X 117.869 Y 160.640
G1 X 117.890 Y 160.531
G1 X 117.948 Y 160.237
G1 X 118.034 Y 159.803
G1 X 118.138 Y 159.276
G1 X 118.251 Y 158.703
G1 X 118.364 Y 158.130
G1 X 118.468 Y 157.603
G1 X 118.554 Y 157.169
G1 X 118.612 Y 156.875
G1 X 115.592 Y 156.166
G1 X 115.570 Y 156.275
G1 X 115.512 Y 156.569
G1 X 115.427 Y 157.003
G1 X 115.323 Y 157.530
G1 X 115.210 Y 158.103
G1 X 115.096 Y 158.677
G1 X 114.992 Y 159.204
G1 X 114.907 Y 159.638
G1 X 114.849 Y 159.932
G1 X 114.827 Y 160.041
G1 X 113.694 Y 159.807
G1 X 112.590 Y 159.573
G1 X 111.517 Y 159.338
G1 X 110.479 Y 159.102
G1 X 109.476 Y 158.867
G1 X 108.512 Y 158.631
G1 X 107.587 Y 158.394
G1 X 106.705 Y 158.158
G1 X 105.868 Y 157.922
G1 X 105.077 Y 157.686
G1 X 105.120 Y 157.572
G1 X 105.238 Y 157.263
G1 X 105.412 Y 156.809
G1 X 105.623 Y 156.257
G1 X 105.853 Y 155.656
G1 X 106.082 Y 155.055
G1 X 106.293 Y 154.503
G1 X 106.467 Y 154.048
G1 X 106.585 Y 153.740
G1 X 103.733 Y 152.519
G1 X 103.689 Y 152.634
G1 X 103.570 Y 152.947
G1 X 103.394 Y 153.407
G1 X 103.180 Y 153.966
G1 X 102.947 Y 154.574
G1 X 102.715 Y 155.183
G1 X 102.501 Y 155.742
G1 X 102.325 Y 156.202
G1 X 102.206 Y 156.515
G1 X 102.162 Y 156.630
G1 X 101.965 Y 156.540
G1 X 101.777 Y 156.451
G1 X 101.597 Y 156.361
G1 X 101.426 Y 156.272
G1 X 101.265 Y 156.183
G1 X 101.112 Y 156.093
G1 X 100.968 Y 156.004
G1 X 100.834 Y 155.915
G1 X 100.710 Y 155.826
G1 X 100.594 Y 155.738
G1 X 100.415 Y 155.505
G1 X 100.258 Y 155.267
G1 X 100.121 Y 155.027
G1 X 100.006 Y 154.783
G1 X  99.909 Y 154.537
G1 X  99.832 Y 154.288
G1 X  99.773 Y 154.037
G1 X  99.732 Y 153.786
G1 X  99.708 Y 153.533
F1000
G1 Z   3.000
G0 Z  15.000 
M9 M5

(* SHAPE Nr: 3 *)
G0 X  72.287 Y 155.251
M3 M8
G0 Z   3.000 
F1000
G1 Z  -1.000
F400
G1 X  71.334 Y 155.125
G1 X  70.417 Y 154.777
G1 X  69.560 Y 154.258
G1 X  68.785 Y 153.613
G1 X  68.114 Y 152.893
G1 X  67.570 Y 152.145
G1 X  67.176 Y 151.417
G1 X  66.955 Y 150.757
G1 X  66.927 Y 150.214
G1 X  67.117 Y 149.837
G1 X  68.568 Y 147.678
G1 X  70.200 Y 142.956
G1 X  71.946 Y 136.302
G1 X  73.737 Y 128.348
G1 X  75.502 Y 119.726
G1 X  77.174 Y 111.069
G1 X  78.684 Y 103.009
G1 X  79.962 Y  96.177
G1 X  80.939 Y  91.206
G1 X  81.546 Y  88.727
G1 X  82.055 Y  87.368
G1 X  82.715 Y  86.112
G1 X  83.502 Y  84.962
G1 X  84.395 Y  83.920
G1 X  85.370 Y  82.990
G1 X  86.403 Y  82.174
G1 X  87.474 Y  81.476
G1 X  88.557 Y  80.898
G1 X  89.631 Y  80.443
G1 X  90.672 Y  80.115
G1 X  90.910 Y  80.003
G1 X  91.189 Y  79.906
G1 X  91.508 Y  79.822
G1 X  91.865 Y  79.750
G1 X  92.258 Y  79.691
G1 X  92.686 Y  79.644
G1 X  93.147 Y  79.608
G1 X  93.639 Y  79.583
G1 X  94.162 Y  79.568
G1 X  94.712 Y  79.563
G1 X  97.013 Y  79.626
G1 X  99.605 Y  79.797
G1 X 102.403 Y  80.052
G1 X 105.320 Y  80.364
G1 X 108.270 Y  80.709
G1 X 111.166 Y  81.060
G1 X 113.923 Y  81.393
G1 X 116.453 Y  81.682
G1 X 118.671 Y  81.901
G1 X 120.489 Y  82.026
G1 X 121.321 Y  82.076
G1 X 122.247 Y  82.135
G1 X 123.262 Y  82.201
G1 X 124.360 Y  82.269
G1 X 125.535 Y  82.336
G1 X 126.779 Y  82.398
G1 X 128.087 Y  82.453
G1 X 129.452 Y  82.496
G1 X 130.869 Y  82.524
G1 X 132.330 Y  82.535
G1 X 133.673 Y  82.525
G1 X 135.043 Y  82.496
G1 X 136.434 Y  82.445
G1 X 137.843 Y  82.369
G1 X 139.264 Y  82.265
G1 X 140.694 Y  82.132
G1 X 142.128 Y  81.966
G1 X 143.561 Y  81.766
G1 X 144.989 Y  81.528
G1 X 146.407 Y  81.250
G1 X 146.611 Y  81.222
G1 X 146.833 Y  81.195
G1 X 147.071 Y  81.170
G1 X 147.325 Y  81.148
G1 X 147.593 Y  81.128
G1 X 147.874 Y  81.111
G1 X 148.166 Y  81.097
G1 X 148.469 Y  81.086
G1 X 148.781 Y  81.080
G1 X 149.101 Y  81.078
G1 X 150.088 Y  81.099
G1 X 151.100 Y  81.170
G1 X 152.104 Y  81.298
G1 X 153.067 Y  81.492
G1 X 153.957 Y  81.761
G1 X 154.740 Y  82.114
G1 X 155.382 Y  82.559
G1 X 155.851 Y  83.105
G1 X 156.114 Y  83.761
G1 X 156.137 Y  84.534
G1 X 156.079 Y  85.219
G1 X 155.904 Y  85.902
G1 X 155.635 Y  86.572
G1 X 155.292 Y  87.215
G1 X 154.896 Y  87.820
G1 X 154.468 Y  88.373
G1 X 154.030 Y  88.864
G1 X 153.602 Y  89.280
G1 X 153.206 Y  89.607
G1 X 152.863 Y  89.834
G1 X 152.765 Y  89.897
G1 X 152.661 Y  89.960
G1 X 152.551 Y  90.024
G1 X 152.435 Y  90.089
G1 X 152.312 Y  90.154
G1 X 152.185 Y  90.220
G1 X 152.052 Y  90.285
G1 X 151.914 Y  90.351
G1 X 151.772 Y  90.416
G1 X 151.625 Y  90.481
G1 X 151.646 Y  90.369
G1 X 151.703 Y  90.063
G1 X 151.787 Y  89.612
G1 X 151.889 Y  89.065
G1 X 152.000 Y  88.469
G1 X 152.111 Y  87.874
G1 X 152.213 Y  87.326
G1 X 152.297 Y  86.876
G1 X 152.354 Y  86.570
G1 X 149.327 Y  85.889
G1 X 149.298 Y  86.046
G1 X 149.219 Y  86.473
G1 X 149.102 Y  87.101
G1 X 148.960 Y  87.863
G1 X 148.805 Y  88.693
G1 X 148.650 Y  89.523
G1 X 148.508 Y  90.286
G1 X 148.391 Y  90.914
G1 X 148.312 Y  91.340
G1 X 148.282 Y  91.497
G1 X 148.183 Y  91.515
G1 X 148.085 Y  91.531
G1 X 147.986 Y  91.546
G1 X 147.888 Y  91.560
G1 X 147.790 Y  91.574
G1 X 147.692 Y  91.586
G1 X 147.595 Y  91.598
G1 X 147.499 Y  91.608
G1 X 147.402 Y  91.618
G1 X 147.307 Y  91.626
G1 X 147.145 Y  91.639
G1 X 146.980 Y  91.650
G1 X 146.812 Y  91.660
G1 X 146.640 Y  91.669
G1 X 146.466 Y  91.676
G1 X 146.288 Y  91.682
G1 X 146.108 Y  91.687
G1 X 145.924 Y  91.690
G1 X 145.738 Y  91.692
G1 X 145.549 Y  91.693
G1 X 145.216 Y  91.691
G1 X 144.874 Y  91.685
G1 X 144.526 Y  91.676
G1 X 144.170 Y  91.663
G1 X 143.807 Y  91.647
G1 X 143.437 Y  91.628
G1 X 143.062 Y  91.606
G1 X 142.680 Y  91.580
G1 X 142.292 Y  91.552
G1 X 141.899 Y  91.520
G1 X 141.912 Y  91.390
G1 X 141.948 Y  91.037
G1 X 142.000 Y  90.517
G1 X 142.063 Y  89.885
G1 X 142.131 Y  89.198
G1 X 142.200 Y  88.511
G1 X 142.263 Y  87.879
G1 X 142.315 Y  87.359
G1 X 142.351 Y  87.006
G1 X 139.279 Y  86.568
G1 X 139.266 Y  86.698
G1 X 139.231 Y  87.050
G1 X 139.179 Y  87.569
G1 X 139.116 Y  88.200
G1 X 139.047 Y  88.886
G1 X 138.979 Y  89.573
G1 X 138.916 Y  90.204
G1 X 138.864 Y  90.723
G1 X 138.828 Y  91.075
G1 X 138.815 Y  91.205
G1 X 138.135 Y  91.123
G1 X 137.448 Y  91.035
G1 X 136.757 Y  90.944
G1 X 136.063 Y  90.849
G1 X 135.366 Y  90.751
G1 X 134.668 Y  90.650
G1 X 133.970 Y  90.547
G1 X 133.274 Y  90.441
G1 X 132.580 Y  90.334
G1 X 131.891 Y  90.226
G1 X 131.907 Y  90.122
G1 X 131.953 Y  89.839
G1 X 132.020 Y  89.422
G1 X 132.102 Y  88.916
G1 X 132.191 Y  88.365
G1 X 132.279 Y  87.814
G1 X 132.361 Y  87.307
G1 X 132.428 Y  86.890
G1 X 132.474 Y  86.607
G1 X 129.430 Y  86.010
G1 X 129.413 Y  86.114
G1 X 129.368 Y  86.397
G1 X 129.301 Y  86.814
G1 X 129.219 Y  87.320
G1 X 129.130 Y  87.871
G1 X 129.042 Y  88.421
G1 X 128.960 Y  88.927
G1 X 128.893 Y  89.344
G1 X 128.847 Y  89.627
G1 X 128.830 Y  89.731
G1 X 128.019 Y  89.597
G1 X 127.227 Y  89.466
G1 X 126.457 Y  89.339
G1 X 125.711 Y  89.216
G1 X 124.992 Y  89.098
G1 X 124.303 Y  88.987
G1 X 123.645 Y  88.883
G1 X 123.022 Y  88.787
G1 X 122.435 Y  88.700
G1 X 121.887 Y  88.622
G1 X 121.898 Y  88.533
G1 X 121.929 Y  88.291
G1 X 121.974 Y  87.935
G1 X 122.028 Y  87.503
G1 X 122.087 Y  87.033
G1 X 122.147 Y  86.563
G1 X 122.201 Y  86.131
G1 X 122.246 Y  85.775
G1 X 122.277 Y  85.533
G1 X 119.212 Y  85.057
G1 X 119.201 Y  85.146
G1 X 119.170 Y  85.389
G1 X 119.125 Y  85.748
G1 X 119.070 Y  86.183
G1 X 119.010 Y  86.656
G1 X 118.951 Y  87.129
G1 X 118.896 Y  87.565
G1 X 118.851 Y  87.923
G1 X 118.820 Y  88.166
G1 X 118.809 Y  88.256
G1 X 118.088 Y  88.169
G1 X 117.374 Y  88.081
G1 X 116.665 Y  87.994
G1 X 115.963 Y  87.908
G1 X 115.266 Y  87.822
G1 X 114.574 Y  87.737
G1 X 113.888 Y  87.654
G1 X 113.205 Y  87.573
G1 X 112.527 Y  87.495
G1 X 111.853 Y  87.419
G1 X 111.861 Y  87.331
G1 X 111.884 Y  87.094
G1 X 111.919 Y  86.743
G1 X 111.960 Y  86.318
G1 X 112.005 Y  85.856
G1 X 112.050 Y  85.393
G1 X 112.092 Y  84.968
G1 X 112.126 Y  84.618
G1 X 112.149 Y  84.381
G1 X 109.072 Y  83.992
G1 X 109.064 Y  84.080
G1 X 109.041 Y  84.317
G1 X 109.007 Y  84.666
G1 X 108.965 Y  85.091
G1 X 108.920 Y  85.552
G1 X 108.875 Y  86.014
G1 X 108.834 Y  86.439
G1 X 108.799 Y  86.788
G1 X 108.776 Y  87.025
G1 X 108.768 Y  87.113
G1 X 108.194 Y  87.065
G1 X 107.622 Y  87.022
G1 X 107.051 Y  86.983
G1 X 106.480 Y  86.949
G1 X 105.910 Y  86.919
G1 X 105.341 Y  86.894
G1 X 104.771 Y  86.874
G1 X 104.202 Y  86.859
G1 X 103.632 Y  86.850
G1 X 103.061 Y  86.847
G1 X 102.931 Y  86.848
G1 X 102.802 Y  86.848
G1 X 102.672 Y  86.849
G1 X 102.542 Y  86.850
G1 X 102.412 Y  86.851
G1 X 102.282 Y  86.853
G1 X 102.152 Y  86.855
G1 X 102.022 Y  86.858
G1 X 101.892 Y  86.861
G1 X 101.762 Y  86.864
G1 X 101.756 Y  86.763
G1 X 101.740 Y  86.491
G1 X 101.716 Y  86.089
G1 X 101.687 Y  85.602
G1 X 101.656 Y  85.071
G1 X 101.625 Y  84.541
G1 X 101.596 Y  84.053
G1 X 101.572 Y  83.652
G1 X 101.556 Y  83.379
G1 X  98.456 Y  83.461
G1 X  98.462 Y  83.562
G1 X  98.478 Y  83.834
G1 X  98.501 Y  84.235
G1 X  98.530 Y  84.722
G1 X  98.561 Y  85.253
G1 X  98.593 Y  85.783
G1 X  98.621 Y  86.270
G1 X  98.645 Y  86.671
G1 X  98.661 Y  86.944
G1 X  98.667 Y  87.044
G1 X  98.522 Y  87.058
G1 X  98.378 Y  87.072
G1 X  98.233 Y  87.086
G1 X  98.088 Y  87.101
G1 X  97.943 Y  87.117
G1 X  97.798 Y  87.133
G1 X  97.652 Y  87.150
G1 X  97.507 Y  87.167
G1 X  97.361 Y  87.184
G1 X  97.215 Y  87.203
G1 X  96.818 Y  87.213
G1 X  96.389 Y  87.244
G1 X  95.932 Y  87.297
G1 X  95.450 Y  87.372
G1 X  94.947 Y  87.469
G1 X  94.426 Y  87.588
G1 X  93.892 Y  87.730
G1 X  93.347 Y  87.896
G1 X  92.796 Y  88.086
G1 X  92.241 Y  88.300
G1 X  92.202 Y  88.194
G1 X  92.097 Y  87.909
G1 X  91.941 Y  87.488
G1 X  91.753 Y  86.977
G1 X  91.547 Y  86.421
G1 X  91.342 Y  85.865
G1 X  91.153 Y  85.354
G1 X  90.997 Y  84.933
G1 X  90.892 Y  84.647
G1 X  87.945 Y  85.617
G1 X  87.988 Y  85.734
G1 X  88.106 Y  86.051
G1 X  88.278 Y  86.519
G1 X  88.488 Y  87.086
G1 X  88.716 Y  87.704
G1 X  88.945 Y  88.322
G1 X  89.155 Y  88.890
G1 X  89.327 Y  89.358
G1 X  89.445 Y  89.675
G1 X  89.488 Y  89.792
G1 X  89.186 Y  90.014
G1 X  88.891 Y  90.246
G1 X  88.606 Y  90.489
G1 X  88.330 Y  90.741
G1 X  88.065 Y  91.004
G1 X  87.811 Y  91.277
G1 X  87.569 Y  91.560
G1 X  87.340 Y  91.854
G1 X  87.125 Y  92.159
G1 X  86.924 Y  92.474
G1 X  86.793 Y  92.799
G1 X  86.662 Y  93.160
G1 X  86.531 Y  93.555
G1 X  86.399 Y  93.983
G1 X  86.266 Y  94.444
G1 X  86.133 Y  94.937
G1 X  86.000 Y  95.460
G1 X  85.866 Y  96.013
G1 X  85.732 Y  96.595
G1 X  85.598 Y  97.205
G1 X  85.519 Y  97.190
G1 X  85.304 Y  97.149
G1 X  84.988 Y  97.089
G1 X  84.604 Y  97.015
G1 X  84.186 Y  96.935
G1 X  83.768 Y  96.855
G1 X  83.384 Y  96.782
G1 X  83.068 Y  96.721
G1 X  82.854 Y  96.680
G1 X  82.192 Y  99.710
G1 X  82.270 Y  99.725
G1 X  82.483 Y  99.766
G1 X  82.797 Y  99.826
G1 X  83.177 Y  99.898
G1 X  83.592 Y  99.978
G1 X  84.006 Y 100.057
G1 X  84.386 Y 100.130
G1 X  84.700 Y 100.190
G1 X  84.913 Y 100.231
G1 X  84.991 Y 100.246
G1 X  84.832 Y 101.112
G1 X  84.673 Y 102.007
G1 X  84.513 Y 102.930
G1 X  84.352 Y 103.880
G1 X  84.190 Y 104.854
G1 X  84.028 Y 105.852
G1 X  83.865 Y 106.872
G1 X  83.701 Y 107.913
G1 X  83.537 Y 108.973
G1 X  83.372 Y 110.050
G1 X  83.290 Y 110.037
G1 X  83.068 Y 110.001
G1 X  82.740 Y 109.949
G1 X  82.342 Y 109.884
G1 X  81.908 Y 109.815
G1 X  81.475 Y 109.745
G1 X  81.077 Y 109.681
G1 X  80.749 Y 109.628
G1 X  80.527 Y 109.592
G1 X  79.952 Y 112.639
G1 X  80.034 Y 112.653
G1 X  80.259 Y 112.689
G1 X  80.591 Y 112.742
G1 X  80.993 Y 112.807
G1 X  81.431 Y 112.878
G1 X  81.869 Y 112.948
G1 X  82.272 Y 113.013
G1 X  82.603 Y 113.067
G1 X  82.828 Y 113.103
G1 X  82.911 Y 113.116
G1 X  82.768 Y 114.079
G1 X  82.624 Y 115.050
G1 X  82.480 Y 116.028
G1 X  82.335 Y 117.013
G1 X  82.190 Y 118.003
G1 X  82.044 Y 118.997
G1 X  81.898 Y 119.996
G1 X  81.751 Y 120.997
G1 X  81.603 Y 121.999
G1 X  81.454 Y 123.003
G1 X  81.365 Y 122.988
G1 X  81.121 Y 122.948
G1 X  80.761 Y 122.888
G1 X  80.325 Y 122.815
G1 X  79.850 Y 122.735
G1 X  79.375 Y 122.656
G1 X  78.939 Y 122.583
G1 X  78.579 Y 122.523
G1 X  78.335 Y 122.483
G1 X  77.735 Y 125.525
G1 X  77.827 Y 125.541
G1 X  78.074 Y 125.582
G1 X  78.440 Y 125.643
G1 X  78.883 Y 125.717
G1 X  79.366 Y 125.798
G1 X  79.849 Y 125.878
G1 X  80.292 Y 125.952
G1 X  80.658 Y 126.013
G1 X  80.906 Y 126.055
G1 X  80.997 Y 126.070
G1 X  80.842 Y 127.093
G1 X  80.687 Y 128.112
G1 X  80.531 Y 129.126
G1 X  80.375 Y 130.135
G1 X  80.217 Y 131.138
G1 X  80.059 Y 132.132
G1 X  79.900 Y 133.119
G1 X  79.741 Y 134.096
G1 X  79.581 Y 135.063
G1 X  79.420 Y 136.019
G1 X  79.320 Y 135.999
G1 X  79.051 Y 135.946
G1 X  78.653 Y 135.868
G1 X  78.171 Y 135.773
G1 X  77.646 Y 135.669
G1 X  77.121 Y 135.565
G1 X  76.638 Y 135.470
G1 X  76.241 Y 135.392
G1 X  75.971 Y 135.338
G1 X  75.271 Y 138.360
G1 X  75.373 Y 138.380
G1 X  75.647 Y 138.434
G1 X  76.052 Y 138.514
G1 X  76.543 Y 138.611
G1 X  77.078 Y 138.717
G1 X  77.613 Y 138.822
G1 X  78.104 Y 138.919
G1 X  78.509 Y 138.999
G1 X  78.783 Y 139.053
G1 X  78.885 Y 139.073
G1 X  78.673 Y 140.226
G1 X  78.460 Y 141.351
G1 X  78.245 Y 142.446
G1 X  78.030 Y 143.510
G1 X  77.813 Y 144.541
G1 X  77.594 Y 145.536
G1 X  77.374 Y 146.493
G1 X  77.153 Y 147.411
G1 X  76.931 Y 148.286
G1 X  76.707 Y 149.119
G1 X  76.602 Y 149.079
G1 X  76.318 Y 148.970
G1 X  75.900 Y 148.810
G1 X  75.392 Y 148.616
G1 X  74.839 Y 148.405
G1 X  74.287 Y 148.194
G1 X  73.779 Y 147.999
G1 X  73.360 Y 147.840
G1 X  73.077 Y 147.731
G1 X  71.865 Y 150.587
G1 X  71.974 Y 150.628
G1 X  72.270 Y 150.741
G1 X  72.706 Y 150.908
G1 X  73.235 Y 151.110
G1 X  73.811 Y 151.330
G1 X  74.387 Y 151.551
G1 X  74.916 Y 151.753
G1 X  75.352 Y 151.919
G1 X  75.647 Y 152.032
G1 X  75.756 Y 152.074
G1 X  75.638 Y 152.375
G1 X  75.519 Y 152.660
G1 X  75.400 Y 152.932
G1 X  75.281 Y 153.188
G1 X  75.161 Y 153.429
G1 X  75.041 Y 153.654
G1 X  74.920 Y 153.863
G1 X  74.799 Y 154.057
G1 X  74.677 Y 154.234
G1 X  74.556 Y 154.394
G1 X  74.334 Y 154.566
G1 X  74.110 Y 154.716
G1 X  73.884 Y 154.847
G1 X  73.658 Y 154.958
G1 X  73.430 Y 155.050
G1 X  73.202 Y 155.124
G1 X  72.973 Y 155.181
G1 X  72.744 Y 155.220
G1 X  72.515 Y 155.243
F1000
G1 Z   3.000
G0 Z  15.000 
M9 M5

(* SHAPE Nr: 4 *)
G0 X  48.763 Y 138.584
M3 M8
G0 Z   3.000 
F1000
G1 Z  -1.000
F400
G1 X  47.738 Y 138.444
G1 X  46.732 Y 138.058
G1 X  45.769 Y 137.484
G1 X  44.875 Y 136.775
G1 X  44.077 Y 135.988
G1 X  43.398 Y 135.177
G1 X  42.866 Y 134.399
G1 X  42.504 Y 133.708
G1 X  42.339 Y 133.160
G1 X  42.397 Y 132.811
G1 X  43.242 Y 130.827
G1 X  44.398 Y 126.386
G1 X  45.773 Y 120.036
G1 X  47.274 Y 112.327
G1 X  48.810 Y 103.806
G1 X  50.289 Y  95.022
G1 X  51.619 Y  86.523
G1 X  52.708 Y  78.859
G1 X  53.463 Y  72.576
G1 X  53.793 Y  68.225
G1 X  53.783 Y  66.016
G1 X  53.647 Y  63.867
G1 X  53.414 Y  61.819
G1 X  53.116 Y  59.914
G1 X  52.782 Y  58.190
G1 X  52.441 Y  56.689
G1 X  52.125 Y  55.451
G1 X  51.861 Y  54.516
G1 X  51.681 Y  53.926
G1 X  51.615 Y  53.720
G1 X  51.616 Y  53.720
G1 X  51.618 Y  53.719
G1 X  51.620 Y  53.718
G1 X  51.623 Y  53.716
G1 X  51.627 Y  53.714
G1 X  51.632 Y  53.712
G1 X  51.637 Y  53.710
G1 X  51.642 Y  53.707
G1 X  51.649 Y  53.704
G1 X  49.633 Y  47.837
G1 X  47.384 Y  41.291
G1 X  45.006 Y  34.370
G1 X  42.604 Y  27.382
G1 X  40.284 Y  20.630
G1 X  38.151 Y  14.420
G1 X  36.308 Y   9.059
G1 X  34.863 Y   4.851
G1 X  33.918 Y   2.103
G1 X  33.580 Y   1.119
G1 X  33.764 Y   1.119
G1 X  34.264 Y   1.119
G1 X  35.001 Y   1.119
G1 X  35.896 Y   1.119
G1 X  36.869 Y   1.119
G1 X  37.843 Y   1.119
G1 X  38.737 Y   1.119
G1 X  39.474 Y   1.119
G1 X  39.974 Y   1.119
G1 X  40.158 Y   1.119
G1 X  40.520 Y   2.031
G1 X  41.533 Y   4.581
G1 X  43.084 Y   8.490
G1 X  45.064 Y  13.478
G1 X  47.361 Y  19.265
G1 X  49.864 Y  25.572
G1 X  52.463 Y  32.119
G1 X  55.046 Y  38.627
G1 X  57.502 Y  44.817
G1 X  59.721 Y  50.407
G1 X  60.222 Y  51.544
G1 X  60.701 Y  52.666
G1 X  61.180 Y  53.771
G1 X  61.681 Y  54.856
G1 X  62.225 Y  55.916
G1 X  62.834 Y  56.950
G1 X  63.530 Y  57.953
G1 X  64.336 Y  58.923
G1 X  65.271 Y  59.855
G1 X  66.359 Y  60.747
G1 X  67.720 Y  61.435
G1 X  69.839 Y  62.080
G1 X  72.600 Y  62.676
G1 X  75.890 Y  63.215
G1 X  79.594 Y  63.691
G1 X  83.598 Y  64.096
G1 X  87.786 Y  64.424
G1 X  92.045 Y  64.666
G1 X  96.259 Y  64.817
G1 X 100.315 Y  64.869
G1 X 102.199 Y  64.856
G1 X 104.005 Y  64.817
G1 X 105.719 Y  64.752
G1 X 107.329 Y  64.659
G1 X 108.821 Y  64.537
G1 X 110.182 Y  64.387
G1 X 111.399 Y  64.206
G1 X 112.458 Y  63.994
G1 X 113.347 Y  63.751
G1 X 114.052 Y  63.475
G1 X 115.105 Y  62.882
G1 X 116.044 Y  62.215
G1 X 116.877 Y  61.481
G1 X 117.613 Y  60.684
G1 X 118.259 Y  59.830
G1 X 118.826 Y  58.924
G1 X 119.320 Y  57.971
G1 X 119.751 Y  56.977
G1 X 120.128 Y  55.946
G1 X 120.458 Y  54.884
G1 X 121.642 Y  49.285
G1 X 123.022 Y  42.756
G1 X 124.523 Y  35.656
G1 X 126.069 Y  28.343
G1 X 127.585 Y  21.173
G1 X 128.995 Y  14.504
G1 X 130.223 Y   8.695
G1 X 131.194 Y   4.103
G1 X 131.832 Y   1.085
G1 X 132.061 Y   0.000
G1 X 132.237 Y   0.000
G1 X 132.714 Y  -0.000
G1 X 133.417 Y   0.000
G1 X 134.270 Y  -0.000
G1 X 135.199 Y   0.000
G1 X 136.128 Y   0.000
G1 X 136.982 Y   0.000
G1 X 137.685 Y   0.000
G1 X 138.162 Y   0.000
G1 X 138.338 Y   0.000
G1 X 138.202 Y   0.838
G1 X 137.820 Y   3.194
G1 X 137.231 Y   6.832
G1 X 136.473 Y  11.515
G1 X 135.584 Y  17.005
G1 X 134.603 Y  23.067
G1 X 133.567 Y  29.462
G1 X 132.516 Y  35.955
G1 X 131.487 Y  42.309
G1 X 130.519 Y  48.286
G1 X 130.528 Y  48.288
G1 X 130.535 Y  48.289
G1 X 130.542 Y  48.290
G1 X 130.547 Y  48.291
G1 X 130.552 Y  48.292
G1 X 130.556 Y  48.293
G1 X 130.560 Y  48.293
G1 X 130.562 Y  48.294
G1 X 130.563 Y  48.294
G1 X 130.516 Y  48.670
G1 X 130.385 Y  49.690
G1 X 130.193 Y  51.193
G1 X 129.960 Y  53.018
G1 X 129.707 Y  55.004
G1 X 129.453 Y  56.990
G1 X 129.220 Y  58.815
G1 X 129.028 Y  60.319
G1 X 128.898 Y  61.338
G1 X 128.850 Y  61.714
G1 X 128.832 Y  61.916
G1 X 128.779 Y  62.475
G1 X 128.692 Y  63.318
G1 X 128.573 Y  64.374
G1 X 128.421 Y  65.571
G1 X 128.240 Y  66.836
G1 X 128.029 Y  68.099
G1 X 127.791 Y  69.287
G1 X 127.526 Y  70.329
G1 X 127.235 Y  71.152
G1 X 126.883 Y  71.823
G1 X 126.497 Y  72.409
G1 X 126.082 Y  72.915
G1 X 125.644 Y  73.348
G1 X 125.188 Y  73.715
G1 X 124.721 Y  74.022
G1 X 124.246 Y  74.277
G1 X 123.771 Y  74.486
G1 X 123.300 Y  74.656
G1 X 122.839 Y  74.794
G1 X 123.032 Y  73.759
G1 X 123.555 Y  70.953
G1 X 124.326 Y  66.816
G1 X 125.262 Y  61.794
G1 X 126.280 Y  56.328
G1 X 127.299 Y  50.862
G1 X 128.235 Y  45.839
G1 X 129.005 Y  41.703
G1 X 129.528 Y  38.896
G1 X 126.674 Y  37.294
G1 X 126.475 Y  38.361
G1 X 125.935 Y  41.258
G1 X 125.139 Y  45.528
G1 X 124.173 Y  50.712
G1 X 123.122 Y  56.353
G1 X 122.071 Y  61.995
G1 X 121.105 Y  67.179
G1 X 120.309 Y  71.448
G1 X 119.769 Y  74.345
G1 X 119.571 Y  75.413
G1 X 119.407 Y  75.427
G1 X 119.242 Y  75.439
G1 X 119.074 Y  75.449
G1 X 118.903 Y  75.459
G1 X 118.731 Y  75.466
G1 X 118.556 Y  75.473
G1 X 118.378 Y  75.478
G1 X 118.198 Y  75.481
G1 X 118.016 Y  75.483
G1 X 117.832 Y  75.484
G1 X 117.432 Y  75.481
G1 X 117.022 Y  75.472
G1 X 116.602 Y  75.457
G1 X 116.173 Y  75.437
G1 X 115.734 Y  75.411
G1 X 115.287 Y  75.380
G1 X 114.830 Y  75.345
G1 X 114.364 Y  75.304
G1 X 113.890 Y  75.259
G1 X 113.407 Y  75.209
G1 X 113.423 Y  75.052
G1 X 113.465 Y  74.626
G1 X 113.528 Y  73.998
G1 X 113.604 Y  73.235
G1 X 113.687 Y  72.404
G1 X 113.770 Y  71.574
G1 X 113.847 Y  70.811
G1 X 113.909 Y  70.183
G1 X 113.952 Y  69.757
G1 X 110.883 Y  69.291
G1 X 110.868 Y  69.446
G1 X 110.826 Y  69.867
G1 X 110.764 Y  70.487
G1 X 110.688 Y  71.240
G1 X 110.606 Y  72.060
G1 X 110.524 Y  72.879
G1 X 110.449 Y  73.632
G1 X 110.387 Y  74.252
G1 X 110.345 Y  74.673
G1 X 110.330 Y  74.828
G1 X 109.668 Y  74.735
G1 X 108.996 Y  74.638
G1 X 108.315 Y  74.537
G1 X 107.623 Y  74.432
G1 X 106.923 Y  74.324
G1 X 106.214 Y  74.213
G1 X 105.497 Y  74.100
G1 X 104.772 Y  73.985
G1 X 104.039 Y  73.868
G1 X 103.299 Y  73.750
G1 X 103.319 Y  73.628
G1 X 103.372 Y  73.299
G1 X 103.450 Y  72.814
G1 X 103.545 Y  72.225
G1 X 103.648 Y  71.584
G1 X 103.752 Y  70.943
G1 X 103.847 Y  70.354
G1 X 103.925 Y  69.869
G1 X 103.978 Y  69.540
G1 X 100.937 Y  68.925
G1 X 100.917 Y  69.047
G1 X 100.864 Y  69.377
G1 X 100.786 Y  69.863
G1 X 100.691 Y  70.453
G1 X 100.587 Y  71.095
G1 X 100.484 Y  71.737
G1 X 100.389 Y  72.327
G1 X 100.310 Y  72.813
G1 X 100.257 Y  73.142
G1 X 100.238 Y  73.264
G1 X  99.563 Y  73.159
G1 X  98.884 Y  73.054
G1 X  98.201 Y  72.950
G1 X  97.516 Y  72.848
G1 X  96.827 Y  72.747
G1 X  96.135 Y  72.647
G1 X  95.441 Y  72.549
G1 X  94.745 Y  72.453
G1 X  94.047 Y  72.359
G1 X  93.347 Y  72.268
G1 X  93.360 Y  72.165
G1 X  93.395 Y  71.885
G1 X  93.447 Y  71.472
G1 X  93.510 Y  70.971
G1 X  93.579 Y  70.425
G1 X  93.648 Y  69.879
G1 X  93.711 Y  69.378
G1 X  93.763 Y  68.965
G1 X  93.798 Y  68.685
G1 X  90.736 Y  68.194
G1 X  90.723 Y  68.298
G1 X  90.687 Y  68.580
G1 X  90.635 Y  68.996
G1 X  90.571 Y  69.500
G1 X  90.502 Y  70.050
G1 X  90.433 Y  70.599
G1 X  90.369 Y  71.104
G1 X  90.316 Y  71.519
G1 X  90.281 Y  71.801
G1 X  90.268 Y  71.905
G1 X  89.573 Y  71.833
G1 X  88.877 Y  71.764
G1 X  88.182 Y  71.700
G1 X  87.487 Y  71.640
G1 X  86.792 Y  71.585
G1 X  86.099 Y  71.535
G1 X  85.406 Y  71.490
G1 X  84.715 Y  71.450
G1 X  84.026 Y  71.416
G1 X  83.338 Y  71.387
G1 X  83.348 Y  71.288
G1 X  83.374 Y  71.016
G1 X  83.413 Y  70.617
G1 X  83.460 Y  70.132
G1 X  83.512 Y  69.604
G1 X  83.563 Y  69.076
G1 X  83.611 Y  68.591
G1 X  83.650 Y  68.192
G1 X  83.676 Y  67.921
G1 X  80.600 Y  67.520
G1 X  80.590 Y  67.627
G1 X  80.562 Y  67.917
G1 X  80.520 Y  68.345
G1 X  80.469 Y  68.864
G1 X  80.414 Y  69.429
G1 X  80.359 Y  69.994
G1 X  80.308 Y  70.513
G1 X  80.267 Y  70.941
G1 X  80.238 Y  71.231
G1 X  80.228 Y  71.338
G1 X  79.554 Y  71.346
G1 X  78.883 Y  71.362
G1 X  78.215 Y  71.385
G1 X  77.552 Y  71.416
G1 X  76.893 Y  71.456
G1 X  76.238 Y  71.503
G1 X  75.588 Y  71.559
G1 X  74.942 Y  71.624
G1 X  74.302 Y  71.698
G1 X  73.668 Y  71.781
G1 X  73.660 Y  71.651
G1 X  73.639 Y  71.300
G1 X  73.609 Y  70.782
G1 X  73.572 Y  70.154
G1 X  73.531 Y  69.470
G1 X  73.491 Y  68.786
G1 X  73.454 Y  68.157
G1 X  73.424 Y  67.639
G1 X  73.403 Y  67.288
G1 X  70.301 Y  67.341
G1 X  70.309 Y  67.481
G1 X  70.331 Y  67.861
G1 X  70.364 Y  68.421
G1 X  70.404 Y  69.101
G1 X  70.448 Y  69.841
G1 X  70.491 Y  70.580
G1 X  70.531 Y  71.260
G1 X  70.564 Y  71.820
G1 X  70.587 Y  72.200
G1 X  70.595 Y  72.340
G1 X  70.366 Y  72.394
G1 X  70.138 Y  72.449
G1 X  69.912 Y  72.505
G1 X  69.686 Y  72.563
G1 X  69.461 Y  72.623
G1 X  69.237 Y  72.684
G1 X  69.015 Y  72.747
G1 X  68.793 Y  72.812
G1 X  68.573 Y  72.878
G1 X  68.354 Y  72.946
G1 X  68.018 Y  73.062
G1 X  67.694 Y  73.175
G1 X  67.382 Y  73.285
G1 X  67.081 Y  73.393
G1 X  66.790 Y  73.501
G1 X  66.510 Y  73.609
G1 X  66.239 Y  73.717
G1 X  65.977 Y  73.827
G1 X  65.723 Y  73.940
G1 X  65.476 Y  74.055
G1 X  65.098 Y  73.030
G1 X  64.070 Y  70.248
G1 X  62.554 Y  66.149
G1 X  60.715 Y  61.171
G1 X  58.713 Y  55.753
G1 X  56.711 Y  50.336
G1 X  54.871 Y  45.358
G1 X  53.356 Y  41.259
G1 X  52.328 Y  38.477
G1 X  49.041 Y  38.527
G1 X  49.429 Y  39.575
G1 X  50.481 Y  42.422
G1 X  52.032 Y  46.618
G1 X  53.915 Y  51.713
G1 X  55.964 Y  57.257
G1 X  58.013 Y  62.801
G1 X  59.895 Y  67.896
G1 X  61.446 Y  72.092
G1 X  62.498 Y  74.939
G1 X  62.886 Y  75.988
G1 X  62.714 Y  76.183
G1 X  62.543 Y  76.388
G1 X  62.371 Y  76.605
G1 X  62.197 Y  76.832
G1 X  62.023 Y  77.072
G1 X  61.847 Y  77.323
G1 X  61.668 Y  77.588
G1 X  61.487 Y  77.866
G1 X  61.303 Y  78.157
G1 X  61.116 Y  78.463
G1 X  61.060 Y  78.550
G1 X  61.005 Y  78.639
G1 X  60.949 Y  78.732
G1 X  60.894 Y  78.828
G1 X  60.839 Y  78.927
G1 X  60.785 Y  79.028
G1 X  60.730 Y  79.133
G1 X  60.676 Y  79.241
G1 X  60.623 Y  79.352
G1 X  60.569 Y  79.465
G1 X  60.458 Y  79.444
G1 X  60.156 Y  79.386
G1 X  59.711 Y  79.301
G1 X  59.170 Y  79.198
G1 X  58.582 Y  79.085
G1 X  57.994 Y  78.973
G1 X  57.454 Y  78.869
G1 X  57.008 Y  78.784
G1 X  56.706 Y  78.726
G1 X  56.013 Y  81.750
G1 X  56.111 Y  81.769
G1 X  56.378 Y  81.820
G1 X  56.771 Y  81.895
G1 X  57.249 Y  81.986
G1 X  57.769 Y  82.086
G1 X  58.289 Y  82.185
G1 X  58.767 Y  82.277
G1 X  59.161 Y  82.352
G1 X  59.428 Y  82.403
G1 X  59.526 Y  82.422
G1 X  59.314 Y  83.207
G1 X  59.106 Y  84.038
G1 X  58.903 Y  84.914
G1 X  58.704 Y  85.831
G1 X  58.510 Y  86.788
G1 X  58.320 Y  87.782
G1 X  58.134 Y  88.812
G1 X  57.952 Y  89.875
G1 X  57.773 Y  90.969
G1 X  57.598 Y  92.092
G1 X  57.505 Y  92.077
G1 X  57.253 Y  92.036
G1 X  56.881 Y  91.976
G1 X  56.429 Y  91.904
G1 X  55.937 Y  91.824
G1 X  55.445 Y  91.745
G1 X  54.994 Y  91.672
G1 X  54.622 Y  91.612
G1 X  54.369 Y  91.572
G1 X  53.783 Y  94.617
G1 X  53.877 Y  94.632
G1 X  54.134 Y  94.674
G1 X  54.511 Y  94.735
G1 X  54.970 Y  94.808
G1 X  55.469 Y  94.889
G1 X  55.969 Y  94.969
G1 X  56.427 Y  95.043
G1 X  56.805 Y  95.104
G1 X  57.062 Y  95.145
G1 X  57.156 Y  95.161
G1 X  57.027 Y  96.113
G1 X  56.900 Y  97.078
G1 X  56.775 Y  98.054
G1 X  56.652 Y  99.039
G1 X  56.531 Y 100.034
G1 X  56.410 Y 101.036
G1 X  56.292 Y 102.046
G1 X  56.175 Y 103.061
G1 X  56.059 Y 104.080
G1 X  55.945 Y 105.103
G1 X  55.846 Y 105.087
G1 X  55.577 Y 105.042
G1 X  55.180 Y 104.976
G1 X  54.699 Y 104.895
G1 X  54.175 Y 104.808
G1 X  53.651 Y 104.721
G1 X  53.170 Y 104.640
G1 X  52.773 Y 104.574
G1 X  52.504 Y 104.529
G1 X  51.895 Y 107.570
G1 X  51.999 Y 107.588
G1 X  52.281 Y 107.635
G1 X  52.697 Y 107.704
G1 X  53.202 Y 107.788
G1 X  53.751 Y 107.880
G1 X  54.301 Y 107.972
G1 X  54.806 Y 108.056
G1 X  55.222 Y 108.126
G1 X  55.504 Y 108.173
G1 X  55.608 Y 108.190
G1 X  55.497 Y 109.225
G1 X  55.388 Y 110.257
G1 X  55.279 Y 111.287
G1 X  55.171 Y 112.313
G1 X  55.064 Y 113.334
G1 X  54.958 Y 114.349
G1 X  54.852 Y 115.357
G1 X  54.746 Y 116.357
G1 X  54.642 Y 117.347
G1 X  54.537 Y 118.327
G1 X  54.426 Y 118.305
G1 X  54.123 Y 118.246
G1 X  53.676 Y 118.158
G1 X  53.134 Y 118.051
G1 X  52.545 Y 117.934
G1 X  51.955 Y 117.818
G1 X  51.413 Y 117.711
G1 X  50.966 Y 117.623
G1 X  50.663 Y 117.563
G1 X  49.952 Y 120.582
G1 X  50.071 Y 120.606
G1 X  50.394 Y 120.669
G1 X  50.869 Y 120.763
G1 X  51.447 Y 120.877
G1 X  52.076 Y 121.002
G1 X  52.705 Y 121.126
G1 X  53.283 Y 121.240
G1 X  53.759 Y 121.334
G1 X  54.082 Y 121.397
G1 X  54.201 Y 121.421
G1 X  54.057 Y 122.696
G1 X  53.914 Y 123.939
G1 X  53.771 Y 125.148
G1 X  53.627 Y 126.320
G1 X  53.483 Y 127.451
G1 X  53.338 Y 128.540
G1 X  53.192 Y 129.583
G1 X  53.045 Y 130.578
G1 X  52.897 Y 131.521
G1 X  52.747 Y 132.409
G1 X  52.627 Y 132.363
G1 X  52.301 Y 132.239
G1 X  51.820 Y 132.055
G1 X  51.236 Y 131.832
G1 X  50.601 Y 131.589
G1 X  49.965 Y 131.346
G1 X  49.381 Y 131.123
G1 X  48.901 Y 130.939
G1 X  48.574 Y 130.814
G1 X  47.347 Y 133.664
G1 X  47.480 Y 133.715
G1 X  47.841 Y 133.853
G1 X  48.373 Y 134.056
G1 X  49.020 Y 134.303
G1 X  49.723 Y 134.572
G1 X  50.426 Y 134.841
G1 X  51.072 Y 135.088
G1 X  51.604 Y 135.291
G1 X  51.965 Y 135.429
G1 X  52.098 Y 135.480
G1 X  51.988 Y 135.874
G1 X  51.876 Y 136.234
G1 X  51.763 Y 136.560
G1 X  51.648 Y 136.849
G1 X  51.533 Y 137.102
G1 X  51.415 Y 137.317
G1 X  51.296 Y 137.494
G1 X  51.176 Y 137.631
G1 X  51.054 Y 137.727
G1 X  50.930 Y 137.782
G1 X  50.722 Y 137.942
G1 X  50.512 Y 138.083
G1 X  50.299 Y 138.205
G1 X  50.084 Y 138.309
G1 X  49.867 Y 138.396
G1 X  49.648 Y 138.465
G1 X  49.428 Y 138.518
G1 X  49.207 Y 138.555
G1 X  48.985 Y 138.577
F1000
G1 Z   3.000
G0 Z  15.000 
M9 M5

(* SHAPE Nr: 5 *)
G0 X 168.013 Y 138.584
M3 M8
G0 Z   3.000 
F1000
G1 Z  -1.000
F400
G1 X 150.863 Y 133.793
G1 X 133.713 Y 132.239
G1 X 116.563 Y 133.793
G1 X  99.413 Y 138.584
G1 X  99.203 Y 138.584
G1 X  98.633 Y 138.584
G1 X  97.793 Y 138.584
G1 X  96.773 Y 138.584
G1 X  95.663 Y 138.584
G1 X  94.553 Y 138.584
G1 X  93.533 Y 138.584
G1 X  92.693 Y 138.584
G1 X  92.123 Y 138.584
G1 X  91.913 Y 138.584
G1 X  91.919 Y 138.349
G1 X  91.961 Y 137.706
G1 X  92.074 Y 136.746
G1 X  92.294 Y 135.564
G1 X  92.657 Y 134.252
G1 X  93.198 Y 132.903
G1 X  93.954 Y 131.609
G1 X  94.960 Y 130.463
G1 X  96.251 Y 129.559
G1 X  97.863 Y 128.989
G1 X  97.863 Y 129.121
G1 X  97.863 Y 129.480
G1 X  97.863 Y 130.009
G1 X  97.863 Y 130.651
G1 X  97.863 Y 131.349
G1 X  97.863 Y 132.048
G1 X  97.863 Y 132.690
G1 X  97.863 Y 133.219
G1 X  97.863 Y 133.578
G1 X 100.963 Y 133.710
G1 X 100.963 Y 133.565
G1 X 100.963 Y 133.172
G1 X 100.963 Y 132.593
G1 X 100.963 Y 131.890
G1 X 100.963 Y 131.125
G1 X 100.963 Y 130.359
G1 X 100.963 Y 129.656
G1 X 100.963 Y 129.077
G1 X 100.963 Y 128.684
G1 X 100.963 Y 128.539
G1 X 102.061 Y 128.329
G1 X 103.363 Y 128.080
G1 X 104.819 Y 127.802
G1 X 106.378 Y 127.504
G1 X 107.988 Y 127.196
G1 X 109.598 Y 126.888
G1 X 111.157 Y 126.590
G1 X 112.613 Y 126.312
G1 X 113.916 Y 126.063
G1 X 115.013 Y 125.853
G1 X 115.013 Y 125.960
G1 X 115.013 Y 126.250
G1 X 115.013 Y 126.678
G1 X 115.013 Y 127.198
G1 X 115.013 Y 127.764
G1 X 115.013 Y 128.329
G1 X 115.013 Y 128.849
G1 X 115.013 Y 129.277
G1 X 115.013 Y 129.568
G1 X 118.113 Y 129.675
G1 X 118.113 Y 125.362
G1 X 132.163 Y 123.597
G1 X 132.163 Y 127.821
G1 X 135.263 Y 127.821
G1 X 135.263 Y 123.597
G1 X 149.313 Y 125.362
G1 X 149.313 Y 129.675
G1 X 152.413 Y 129.675
G1 X 152.413 Y 129.568
G1 X 152.413 Y 129.277
G1 X 152.413 Y 128.849
G1 X 152.413 Y 128.329
G1 X 152.413 Y 127.764
G1 X 152.413 Y 127.198
G1 X 152.413 Y 126.678
G1 X 152.413 Y 126.250
G1 X 152.413 Y 125.960
G1 X 152.413 Y 125.853
G1 X 153.511 Y 126.063
G1 X 154.813 Y 126.312
G1 X 156.270 Y 126.590
G1 X 157.828 Y 126.888
G1 X 159.438 Y 127.196
G1 X 161.048 Y 127.504
G1 X 162.607 Y 127.802
G1 X 164.063 Y 128.080
G1 X 165.366 Y 128.329
G1 X 166.463 Y 128.539
G1 X 166.463 Y 128.684
G1 X 166.463 Y 129.077
G1 X 166.463 Y 129.656
G1 X 166.463 Y 130.359
G1 X 166.463 Y 131.125
G1 X 166.463 Y 131.890
G1 X 166.463 Y 132.593
G1 X 166.463 Y 133.172
G1 X 166.463 Y 133.565
G1 X 169.563 Y 133.710
G1 X 169.563 Y 133.578
G1 X 169.563 Y 133.219
G1 X 169.563 Y 132.690
G1 X 169.563 Y 132.048
G1 X 169.563 Y 131.349
G1 X 169.563 Y 130.651
G1 X 169.563 Y 130.009
G1 X 169.563 Y 129.480
G1 X 169.563 Y 129.121
G1 X 169.563 Y 128.989
G1 X 171.176 Y 129.559
G1 X 172.467 Y 130.463
G1 X 173.473 Y 131.609
G1 X 174.228 Y 132.903
G1 X 174.770 Y 134.252
G1 X 175.133 Y 135.564
G1 X 175.353 Y 136.746
G1 X 175.466 Y 137.706
G1 X 175.507 Y 138.349
G1 X 175.513 Y 138.584
G1 X 175.303 Y 138.584
G1 X 174.733 Y 138.584
G1 X 173.893 Y 138.584
G1 X 172.873 Y 138.584
G1 X 171.763 Y 138.584
G1 X 170.653 Y 138.584
G1 X 169.633 Y 138.584
G1 X 168.793 Y 138.584
G1 X 168.223 Y 138.584
F1000
G1 Z   3.000
G0 Z  15.000 
M9 M5

(* SHAPE Nr: 6 *)
G0 X 175.513 Y 121.918
M3 M8
G0 Z   3.000 
F1000
G1 Z  -1.000
F400
G1 X 168.013 Y 121.918
G1 X 150.863 Y 118.349
G1 X 133.713 Y 117.128
G1 X 116.563 Y 118.349
G1 X  99.413 Y 121.918
G1 X  99.203 Y 121.918
G1 X  98.633 Y 121.918
G1 X  97.793 Y 121.918
G1 X  96.773 Y 121.918
G1 X  95.663 Y 121.918
G1 X  94.553 Y 121.918
G1 X  93.533 Y 121.918
G1 X  92.693 Y 121.918
G1 X  92.123 Y 121.918
G1 X  91.913 Y 121.918
G1 X  91.919 Y 121.715
G1 X  91.961 Y 121.161
G1 X  92.074 Y 120.335
G1 X  92.294 Y 119.316
G1 X  92.657 Y 118.186
G1 X  93.198 Y 117.024
G1 X  93.954 Y 115.910
G1 X  94.960 Y 114.923
G1 X  96.251 Y 114.145
G1 X  97.863 Y 113.653
G1 X  97.863 Y 113.767
G1 X  97.863 Y 114.076
G1 X  97.863 Y 114.532
G1 X  97.863 Y 115.085
G1 X  97.863 Y 115.686
G1 X  97.863 Y 116.288
G1 X  97.863 Y 116.841
G1 X  97.863 Y 117.297
G1 X  97.863 Y 117.606
G1 X 100.963 Y 117.720
G1 X 100.963 Y 117.596
G1 X 100.963 Y 117.260
G1 X 100.963 Y 116.764
G1 X 100.963 Y 116.163
G1 X 100.963 Y 115.508
G1 X 100.963 Y 114.854
G1 X 100.963 Y 114.252
G1 X 100.963 Y 113.757
G1 X 100.963 Y 113.421
G1 X 100.963 Y 113.297
G1 X 102.061 Y 113.138
G1 X 103.363 Y 112.950
G1 X 104.819 Y 112.739
G1 X 106.378 Y 112.514
G1 X 107.988 Y 112.281
G1 X 109.598 Y 112.048
G1 X 111.157 Y 111.823
G1 X 112.613 Y 111.612
G1 X 113.916 Y 111.424
G1 X 115.013 Y 111.265
G1 X 115.013 Y 111.361
G1 X 115.013 Y 111.622
G1 X 115.013 Y 112.006
G1 X 115.013 Y 112.472
G1 X 115.013 Y 112.980
G1 X 115.013 Y 113.488
G1 X 115.013 Y 113.954
G1 X 115.013 Y 114.338
G1 X 115.013 Y 114.599
G1 X 118.113 Y 114.695
G1 X 118.113 Y 110.877
G1 X 132.163 Y 109.387
G1 X 132.163 Y 113.175
G1 X 135.263 Y 113.175
G1 X 135.263 Y 109.387
G1 X 149.313 Y 110.877
G1 X 149.313 Y 114.695
G1 X 152.413 Y 114.695
G1 X 152.413 Y 114.599
G1 X 152.413 Y 114.338
G1 X 152.413 Y 113.954
G1 X 152.413 Y 113.488
G1 X 152.413 Y 112.980
G1 X 152.413 Y 112.472
G1 X 152.413 Y 112.006
G1 X 152.413 Y 111.622
G1 X 152.413 Y 111.361
G1 X 152.413 Y 111.265
G1 X 153.511 Y 111.424
G1 X 154.813 Y 111.612
G1 X 156.270 Y 111.823
G1 X 157.828 Y 112.048
G1 X 159.438 Y 112.281
G1 X 161.048 Y 112.514
G1 X 162.607 Y 112.739
G1 X 164.063 Y 112.950
G1 X 165.366 Y 113.138
G1 X 166.463 Y 113.297
G1 X 166.463 Y 113.421
G1 X 166.463 Y 113.757
G1 X 166.463 Y 114.252
G1 X 166.463 Y 114.854
G1 X 166.463 Y 115.508
G1 X 166.463 Y 116.163
G1 X 166.463 Y 116.764
G1 X 166.463 Y 117.260
G1 X 166.463 Y 117.596
G1 X 169.563 Y 117.720
G1 X 169.563 Y 117.606
G1 X 169.563 Y 117.297
G1 X 169.563 Y 116.841
G1 X 169.563 Y 116.288
G1 X 169.563 Y 115.686
G1 X 169.563 Y 115.085
G1 X 169.563 Y 114.532
G1 X 169.563 Y 114.076
G1 X 169.563 Y 113.767
G1 X 169.563 Y 113.653
G1 X 171.176 Y 114.145
G1 X 172.467 Y 114.923
G1 X 173.473 Y 115.910
G1 X 174.228 Y 117.024
G1 X 174.770 Y 118.186
G1 X 175.133 Y 119.316
G1 X 175.353 Y 120.335
G1 X 175.466 Y 121.161
G1 X 175.507 Y 121.715
F1000
G1 Z   3.000
G0 Z  15.000 
M9 M5

(* SHAPE Nr: 7 *)
G0 X 117.180 Y 255.251
M3 M8
G0 Z   3.000 
F1000
G1 Z  -1.000
F400
G1 X 109.680 Y 255.251
G1 X  92.530 Y 252.376
G1 X  75.380 Y 251.408
G1 X  58.230 Y 252.376
G1 X  41.080 Y 255.251
G1 X  40.870 Y 255.251
G1 X  40.300 Y 255.251
G1 X  39.460 Y 255.251
G1 X  38.440 Y 255.251
G1 X  37.330 Y 255.251
G1 X  36.220 Y 255.251
G1 X  35.200 Y 255.251
G1 X  34.360 Y 255.251
G1 X  33.790 Y 255.251
G1 X  33.580 Y 255.251
G1 X  33.586 Y 255.074
G1 X  33.628 Y 254.588
G1 X  33.741 Y 253.865
G1 X  33.961 Y 252.974
G1 X  34.324 Y 251.984
G1 X  34.865 Y 250.967
G1 X  35.621 Y 249.991
G1 X  36.626 Y 249.128
G1 X  37.917 Y 248.446
G1 X  39.530 Y 248.016
G1 X  39.530 Y 248.116
G1 X  39.530 Y 248.386
G1 X  39.530 Y 248.785
G1 X  39.530 Y 249.269
G1 X  39.530 Y 249.796
G1 X  39.530 Y 250.323
G1 X  39.530 Y 250.807
G1 X  39.530 Y 251.205
G1 X  39.530 Y 251.476
G1 X  42.630 Y 251.576
G1 X  42.630 Y 251.468
G1 X  42.630 Y 251.174
G1 X  42.630 Y 250.741
G1 X  42.630 Y 250.216
G1 X  42.630 Y 249.644
G1 X  42.630 Y 249.072
G1 X  42.630 Y 248.546
G1 X  42.630 Y 248.114
G1 X  42.630 Y 247.820
G1 X  42.630 Y 247.712
G1 X  43.727 Y 247.578
G1 X  45.030 Y 247.420
G1 X  46.486 Y 247.243
G1 X  48.045 Y 247.053
G1 X  49.655 Y 246.857
G1 X  51.265 Y 246.661
G1 X  52.824 Y 246.472
G1 X  54.280 Y 246.295
G1 X  55.583 Y 246.136
G1 X  56.680 Y 246.003
G1 X  56.680 Y 246.089
G1 X  56.680 Y 246.324
G1 X  56.680 Y 246.671
G1 X  56.680 Y 247.091
G1 X  56.680 Y 247.549
G1 X  56.680 Y 248.007
G1 X  56.680 Y 248.427
G1 X  56.680 Y 248.774
G1 X  56.680 Y 249.009
G1 X  59.780 Y 249.095
G1 X  59.780 Y 245.677
G1 X  73.830 Y 244.429
G1 X  73.830 Y 247.850
G1 X  76.930 Y 247.850
G1 X  76.930 Y 244.429
G1 X  90.980 Y 245.677
G1 X  90.980 Y 249.095
G1 X  94.080 Y 249.095
G1 X  94.080 Y 249.009
G1 X  94.080 Y 248.774
G1 X  94.080 Y 248.427
G1 X  94.080 Y 248.007
G1 X  94.080 Y 247.549
G1 X  94.080 Y 247.091
G1 X  94.080 Y 246.671
G1 X  94.080 Y 246.324
G1 X  94.080 Y 246.089
G1 X  94.080 Y 246.003
G1 X  95.177 Y 246.136
G1 X  96.480 Y 246.295
G1 X  97.936 Y 246.472
G1 X  99.495 Y 246.661
G1 X 101.105 Y 246.857
G1 X 102.715 Y 247.053
G1 X 104.274 Y 247.243
G1 X 105.730 Y 247.420
G1 X 107.033 Y 247.578
G1 X 108.130 Y 247.712
G1 X 108.130 Y 247.820
G1 X 108.130 Y 248.114
G1 X 108.130 Y 248.546
G1 X 108.130 Y 249.072
G1 X 108.130 Y 249.644
G1 X 108.130 Y 250.216
G1 X 108.130 Y 250.741
G1 X 108.130 Y 251.174
G1 X 108.130 Y 251.468
G1 X 111.230 Y 251.576
G1 X 111.230 Y 251.476
G1 X 111.230 Y 251.205
G1 X 111.230 Y 250.807
G1 X 111.230 Y 250.323
G1 X 111.230 Y 249.796
G1 X 111.230 Y 249.269
G1 X 111.230 Y 248.785
G1 X 111.230 Y 248.386
G1 X 111.230 Y 248.116
G1 X 111.230 Y 248.016
G1 X 112.842 Y 248.446
G1 X 114.134 Y 249.128
G1 X 115.139 Y 249.991
G1 X 115.895 Y 250.967
G1 X 116.436 Y 251.984
G1 X 116.799 Y 252.974
G1 X 117.019 Y 253.865
G1 X 117.132 Y 254.588
G1 X 117.174 Y 255.074
F1000
G1 Z   3.000
G0 Z  15.000 
M9 M5

(* SHAPE Nr: 8 *)
G0 X  30.208 Y  58.623
M3 M8
G0 Z   3.000 
F1000
G1 Z  -1.000
F400
G1 X  30.208 Y  66.123
G1 X  27.656 Y  83.273
G1 X  26.873 Y 100.423
G1 X  27.656 Y 117.573
G1 X  30.208 Y 134.723
G1 X  30.208 Y 134.933
G1 X  30.208 Y 135.503
G1 X  30.208 Y 136.343
G1 X  30.208 Y 137.363
G1 X  30.208 Y 138.473
G1 X  30.208 Y 139.583
G1 X  30.208 Y 140.603
G1 X  30.208 Y 141.443
G1 X  30.208 Y 142.013
G1 X  30.208 Y 142.223
G1 X  30.044 Y 142.218
G1 X  29.597 Y 142.176
G1 X  28.931 Y 142.063
G1 X  28.110 Y 141.843
G1 X  27.199 Y 141.480
G1 X  26.262 Y 140.938
G1 X  25.363 Y 140.183
G1 X  24.568 Y 139.177
G1 X  23.940 Y 137.886
G1 X  23.544 Y 136.273
G1 X  23.635 Y 136.273
G1 X  23.885 Y 136.273
G1 X  24.252 Y 136.273
G1 X  24.698 Y 136.273
G1 X  25.183 Y 136.273
G1 X  25.668 Y 136.273
G1 X  26.114 Y 136.273
G1 X  26.481 Y 136.273
G1 X  26.731 Y 136.273
G1 X  26.822 Y 133.173
G1 X  26.723 Y 133.173
G1 X  26.454 Y 133.173
G1 X  26.057 Y 133.173
G1 X  25.575 Y 133.173
G1 X  25.051 Y 133.173
G1 X  24.527 Y 133.173
G1 X  24.045 Y 133.173
G1 X  23.648 Y 133.173
G1 X  23.379 Y 133.173
G1 X  23.280 Y 133.173
G1 X  23.168 Y 132.076
G1 X  23.036 Y 130.774
G1 X  22.888 Y 129.317
G1 X  22.730 Y 127.759
G1 X  22.567 Y 126.148
G1 X  22.404 Y 124.538
G1 X  22.245 Y 122.980
G1 X  22.098 Y 121.523
G1 X  21.965 Y 120.221
G1 X  21.854 Y 119.123
G1 X  21.933 Y 119.123
G1 X  22.148 Y 119.123
G1 X  22.464 Y 119.123
G1 X  22.848 Y 119.123
G1 X  23.265 Y 119.123
G1 X  23.683 Y 119.123
G1 X  24.067 Y 119.123
G1 X  24.383 Y 119.123
G1 X  24.598 Y 119.123
G1 X  24.677 Y 116.023
G1 X  21.583 Y 116.023
G1 X  20.552 Y 101.973
G1 X  23.656 Y 101.973
G1 X  23.656 Y  98.873
G1 X  20.552 Y  98.873
G1 X  21.583 Y  84.823
G1 X  24.677 Y  84.823
G1 X  24.677 Y  81.723
G1 X  24.598 Y  81.723
G1 X  24.383 Y  81.723
G1 X  24.067 Y  81.723
G1 X  23.683 Y  81.723
G1 X  23.265 Y  81.723
G1 X  22.848 Y  81.723
G1 X  22.464 Y  81.723
G1 X  22.148 Y  81.723
G1 X  21.933 Y  81.723
G1 X  21.854 Y  81.723
G1 X  21.965 Y  80.626
G1 X  22.098 Y  79.323
G1 X  22.245 Y  77.867
G1 X  22.404 Y  76.308
G1 X  22.567 Y  74.698
G1 X  22.730 Y  73.088
G1 X  22.888 Y  71.530
G1 X  23.036 Y  70.073
G1 X  23.168 Y  68.771
G1 X  23.280 Y  67.673
G1 X  23.379 Y  67.673
G1 X  23.648 Y  67.673
G1 X  24.045 Y  67.673
G1 X  24.527 Y  67.673
G1 X  25.051 Y  67.673
G1 X  25.575 Y  67.673
G1 X  26.057 Y  67.673
G1 X  26.454 Y  67.673
G1 X  26.723 Y  67.673
G1 X  26.822 Y  64.573
G1 X  26.731 Y  64.573
G1 X  26.481 Y  64.573
G1 X  26.114 Y  64.573
G1 X  25.668 Y  64.573
G1 X  25.183 Y  64.573
G1 X  24.698 Y  64.573
G1 X  24.252 Y  64.573
G1 X  23.885 Y  64.573
G1 X  23.635 Y  64.573
G1 X  23.544 Y  64.573
G1 X  23.940 Y  62.961
G1 X  24.568 Y  61.670
G1 X  25.363 Y  60.664
G1 X  26.262 Y  59.909
G1 X  27.199 Y  59.367
G1 X  28.110 Y  59.004
G1 X  28.931 Y  58.784
G1 X  29.597 Y  58.671
G1 X  30.044 Y  58.629
F1000
G1 Z   3.000
G0 Z  15.000 
M9 M5

(* SHAPE Nr: 9 *)
G0 X 180.225 Y  25.273
M3 M8
G0 Z   3.000 
F1000
G1 Z  -1.000
F400
G1 X 180.225 Y  32.773
G1 X 177.178 Y  49.923
G1 X 176.430 Y  67.073
G1 X 177.178 Y  84.223
G1 X 180.225 Y 101.373
G1 X 180.225 Y 101.583
G1 X 180.225 Y 102.153
G1 X 180.225 Y 102.993
G1 X 180.225 Y 104.013
G1 X 180.225 Y 105.123
G1 X 180.225 Y 106.233
G1 X 180.225 Y 107.253
G1 X 180.225 Y 108.093
G1 X 180.225 Y 108.663
G1 X 180.225 Y 108.873
G1 X 180.044 Y 108.867
G1 X 179.548 Y 108.825
G1 X 178.810 Y 108.712
G1 X 177.900 Y 108.492
G1 X 176.890 Y 108.129
G1 X 175.851 Y 107.588
G1 X 174.856 Y 106.832
G1 X 173.974 Y 105.827
G1 X 173.278 Y 104.536
G1 X 172.839 Y 102.923
G1 X 172.941 Y 102.923
G1 X 173.217 Y 102.923
G1 X 173.624 Y 102.923
G1 X 174.118 Y 102.923
G1 X 174.656 Y 102.923
G1 X 175.194 Y 102.923
G1 X 175.688 Y 102.923
G1 X 176.095 Y 102.923
G1 X 176.371 Y 102.923
G1 X 176.473 Y  99.823
G1 X 176.365 Y  99.823
G1 X 176.071 Y  99.823
G1 X 175.638 Y  99.823
G1 X 175.113 Y  99.823
G1 X 174.541 Y  99.823
G1 X 173.969 Y  99.823
G1 X 173.443 Y  99.823
G1 X 173.010 Y  99.823
G1 X 172.717 Y  99.823
G1 X 172.609 Y  99.823
G1 X 172.529 Y  98.726
G1 X 172.434 Y  97.423
G1 X 172.329 Y  95.967
G1 X 172.215 Y  94.408
G1 X 172.099 Y  92.798
G1 X 171.982 Y  91.188
G1 X 171.868 Y  89.629
G1 X 171.763 Y  88.173
G1 X 171.668 Y  86.870
G1 X 171.588 Y  85.773
G1 X 171.665 Y  85.773
G1 X 171.873 Y  85.773
G1 X 172.180 Y  85.773
G1 X 172.552 Y  85.773
G1 X 172.958 Y  85.773
G1 X 173.363 Y  85.773
G1 X 173.735 Y  85.773
G1 X 174.042 Y  85.773
G1 X 174.250 Y  85.773
G1 X 174.327 Y  82.673
G1 X 171.382 Y  82.673
G1 X 170.535 Y  68.623
G1 X 173.436 Y  68.623
G1 X 173.436 Y  65.523
G1 X 170.535 Y  65.523
G1 X 171.382 Y  51.473
G1 X 174.327 Y  51.473
G1 X 174.327 Y  48.373
G1 X 174.250 Y  48.373
G1 X 174.042 Y  48.373
G1 X 173.735 Y  48.373
G1 X 173.363 Y  48.373
G1 X 172.958 Y  48.373
G1 X 172.552 Y  48.373
G1 X 172.180 Y  48.373
G1 X 171.873 Y  48.373
G1 X 171.665 Y  48.373
G1 X 171.588 Y  48.373
G1 X 171.668 Y  47.276
G1 X 171.763 Y  45.973
G1 X 171.868 Y  44.517
G1 X 171.982 Y  42.958
G1 X 172.099 Y  41.348
G1 X 172.215 Y  39.738
G1 X 172.329 Y  38.179
G1 X 172.434 Y  36.723
G1 X 172.529 Y  35.420
G1 X 172.609 Y  34.323
G1 X 172.717 Y  34.323
G1 X 173.010 Y  34.323
G1 X 173.443 Y  34.323
G1 X 173.969 Y  34.323
G1 X 174.541 Y  34.323
G1 X 175.113 Y  34.323
G1 X 175.638 Y  34.323
G1 X 176.071 Y  34.323
G1 X 176.365 Y  34.323
G1 X 176.473 Y  31.223
G1 X 176.371 Y  31.223
G1 X 176.095 Y  31.223
G1 X 175.688 Y  31.223
G1 X 175.194 Y  31.223
G1 X 174.656 Y  31.223
G1 X 174.118 Y  31.223
G1 X 173.624 Y  31.223
G1 X 173.217 Y  31.223
G1 X 172.941 Y  31.223
G1 X 172.839 Y  31.223
G1 X 173.278 Y  29.611
G1 X 173.974 Y  28.319
G1 X 174.856 Y  27.314
G1 X 175.851 Y  26.558
G1 X 176.890 Y  26.017
G1 X 177.900 Y  25.654
G1 X 178.810 Y  25.434
G1 X 179.548 Y  25.321
G1 X 180.044 Y  25.279
F1000
G1 Z   3.000
G0 Z  15.000 
M9 M5

(* SHAPE Nr: 10 *)
G0 X 286.347 Y 255.251
M3 M8
G0 Z   3.000 
F1000
G1 Z  -1.000
F400
G1 X 269.197 Y 251.783
G1 X 252.047 Y 250.486
G1 X 234.897 Y 251.783
G1 X 217.747 Y 255.251
G1 X 217.537 Y 255.251
G1 X 216.967 Y 255.251
G1 X 216.127 Y 255.251
G1 X 215.107 Y 255.251
G1 X 213.997 Y 255.251
G1 X 212.887 Y 255.251
G1 X 211.867 Y 255.251
G1 X 211.027 Y 255.251
G1 X 210.457 Y 255.251
G1 X 210.247 Y 255.251
G1 X 210.253 Y 255.020
G1 X 210.294 Y 254.388
G1 X 210.407 Y 253.447
G1 X 210.627 Y 252.286
G1 X 210.990 Y 250.998
G1 X 211.532 Y 249.674
G1 X 212.287 Y 248.404
G1 X 213.293 Y 247.279
G1 X 214.584 Y 246.392
G1 X 216.197 Y 245.832
G1 X 216.197 Y 245.962
G1 X 216.197 Y 246.314
G1 X 216.197 Y 246.833
G1 X 216.197 Y 247.463
G1 X 216.197 Y 248.149
G1 X 216.197 Y 248.835
G1 X 216.197 Y 249.465
G1 X 216.197 Y 249.984
G1 X 216.197 Y 250.337
G1 X 219.297 Y 250.466
G1 X 219.297 Y 250.330
G1 X 219.297 Y 249.959
G1 X 219.297 Y 249.413
G1 X 219.297 Y 248.749
G1 X 219.297 Y 248.028
G1 X 219.297 Y 247.306
G1 X 219.297 Y 246.642
G1 X 219.297 Y 246.096
G1 X 219.297 Y 245.725
G1 X 219.297 Y 245.589
G1 X 220.394 Y 245.523
G1 X 221.697 Y 245.445
G1 X 223.153 Y 245.358
G1 X 224.712 Y 245.265
G1 X 226.322 Y 245.169
G1 X 227.932 Y 245.072
G1 X 229.490 Y 244.979
G1 X 230.947 Y 244.892
G1 X 232.249 Y 244.814
G1 X 233.347 Y 244.748
G1 X 233.347 Y 244.845
G1 X 233.347 Y 245.109
G1 X 233.347 Y 245.498
G1 X 233.347 Y 245.970
G1 X 233.347 Y 246.484
G1 X 233.347 Y 246.998
G1 X 233.347 Y 247.470
G1 X 233.347 Y 247.858
G1 X 233.347 Y 248.122
G1 X 236.447 Y 248.219
G1 X 236.447 Y 244.578
G1 X 250.497 Y 243.876
G1 X 250.497 Y 247.142
G1 X 253.597 Y 247.142
G1 X 253.597 Y 243.876
G1 X 267.647 Y 244.578
G1 X 267.647 Y 248.219
G1 X 270.747 Y 248.219
G1 X 270.747 Y 248.122
G1 X 270.747 Y 247.858
G1 X 270.747 Y 247.470
G1 X 270.747 Y 246.998
G1 X 270.747 Y 246.484
G1 X 270.747 Y 245.970
G1 X 270.747 Y 245.498
G1 X 270.747 Y 245.109
G1 X 270.747 Y 244.845
G1 X 270.747 Y 244.748
G1 X 271.844 Y 244.814
G1 X 273.147 Y 244.892
G1 X 274.603 Y 244.979
G1 X 276.162 Y 245.072
G1 X 277.772 Y 245.169
G1 X 279.382 Y 245.265
G1 X 280.941 Y 245.358
G1 X 282.397 Y 245.445
G1 X 283.699 Y 245.523
G1 X 284.797 Y 245.589
G1 X 284.797 Y 245.725
G1 X 284.797 Y 246.096
G1 X 284.797 Y 246.642
G1 X 284.797 Y 247.306
G1 X 284.797 Y 248.028
G1 X 284.797 Y 248.749
G1 X 284.797 Y 249.413
G1 X 284.797 Y 249.959
G1 X 284.797 Y 250.330
G1 X 287.897 Y 250.466
G1 X 287.897 Y 250.337
G1 X 287.897 Y 249.984
G1 X 287.897 Y 249.465
G1 X 287.897 Y 248.835
G1 X 287.897 Y 248.149
G1 X 287.897 Y 247.463
G1 X 287.897 Y 246.833
G1 X 287.897 Y 246.314
G1 X 287.897 Y 245.962
G1 X 287.897 Y 245.832
G1 X 289.509 Y 246.392
G1 X 290.800 Y 247.279
G1 X 291.806 Y 248.404
G1 X 292.562 Y 249.674
G1 X 293.103 Y 250.998
G1 X 293.466 Y 252.286
G1 X 293.686 Y 253.447
G1 X 293.799 Y 254.388
G1 X 293.841 Y 255.020
G1 X 293.847 Y 255.251
G1 X 293.637 Y 255.251
G1 X 293.067 Y 255.251
G1 X 292.227 Y 255.251
G1 X 291.207 Y 255.251
G1 X 290.097 Y 255.251
G1 X 288.987 Y 255.251
G1 X 287.967 Y 255.251
G1 X 287.127 Y 255.251
G1 X 286.557 Y 255.251
F1000
G1 Z   3.000
G0 Z  15.000 
M9 M5

(* SHAPE Nr: 11 *)
G0 X 301.913 Y 255.251
M3 M8
G0 Z   3.000 
F1000
G1 Z  -1.000
F400
G1 X 301.919 Y 255.073
G1 X 301.961 Y 254.585
G1 X 302.074 Y 253.858
G1 X 302.294 Y 252.963
G1 X 302.657 Y 251.969
G1 X 303.199 Y 250.946
G1 X 303.954 Y 249.966
G1 X 304.960 Y 249.099
G1 X 306.251 Y 248.414
G1 X 307.863 Y 247.982
G1 X 307.863 Y 248.082
G1 X 307.863 Y 248.353
G1 X 307.863 Y 248.754
G1 X 307.863 Y 249.241
G1 X 307.863 Y 249.770
G1 X 307.863 Y 250.299
G1 X 307.863 Y 250.786
G1 X 307.863 Y 251.186
G1 X 307.863 Y 251.458
G1 X 310.963 Y 251.558
G1 X 310.963 Y 251.451
G1 X 310.963 Y 251.162
G1 X 310.963 Y 250.734
G1 X 310.963 Y 250.216
G1 X 310.963 Y 249.651
G1 X 310.963 Y 249.087
G1 X 310.963 Y 248.568
G1 X 310.963 Y 248.141
G1 X 310.963 Y 247.851
G1 X 310.963 Y 247.745
G1 X 312.061 Y 247.659
G1 X 313.363 Y 247.558
G1 X 314.819 Y 247.445
G1 X 316.378 Y 247.323
G1 X 317.988 Y 247.198
G1 X 319.598 Y 247.072
G1 X 321.157 Y 246.951
G1 X 322.613 Y 246.838
G1 X 323.916 Y 246.736
G1 X 325.013 Y 246.651
G1 X 325.013 Y 246.735
G1 X 325.013 Y 246.964
G1 X 325.013 Y 247.301
G1 X 325.013 Y 247.709
G1 X 325.013 Y 248.155
G1 X 325.013 Y 248.600
G1 X 325.013 Y 249.009
G1 X 325.013 Y 249.345
G1 X 325.013 Y 249.574
G1 X 328.113 Y 249.658
G1 X 328.113 Y 246.450
G1 X 342.163 Y 245.725
G1 X 342.163 Y 248.728
G1 X 345.263 Y 248.728
G1 X 345.263 Y 245.725
G1 X 359.313 Y 246.450
G1 X 359.313 Y 249.658
G1 X 362.413 Y 249.658
G1 X 362.413 Y 249.574
G1 X 362.413 Y 249.345
G1 X 362.413 Y 249.009
G1 X 362.413 Y 248.600
G1 X 362.413 Y 248.155
G1 X 362.413 Y 247.709
G1 X 362.413 Y 247.301
G1 X 362.413 Y 246.964
G1 X 362.413 Y 246.735
G1 X 362.413 Y 246.651
G1 X 363.511 Y 246.736
G1 X 364.813 Y 246.838
G1 X 366.270 Y 246.951
G1 X 367.828 Y 247.072
G1 X 369.438 Y 247.198
G1 X 371.048 Y 247.323
G1 X 372.607 Y 247.445
G1 X 374.063 Y 247.558
G1 X 375.366 Y 247.659
G1 X 376.463 Y 247.745
G1 X 376.463 Y 247.851
G1 X 376.463 Y 248.141
G1 X 376.463 Y 248.568
G1 X 376.463 Y 249.087
G1 X 376.463 Y 249.651
G1 X 376.463 Y 250.216
G1 X 376.463 Y 250.734
G1 X 376.463 Y 251.162
G1 X 376.463 Y 251.451
G1 X 379.563 Y 251.558
G1 X 379.563 Y 251.458
G1 X 379.563 Y 251.186
G1 X 379.563 Y 250.786
G1 X 379.563 Y 250.299
G1 X 379.563 Y 249.770
G1 X 379.563 Y 249.241
G1 X 379.563 Y 248.754
G1 X 379.563 Y 248.353
G1 X 379.563 Y 248.082
G1 X 379.563 Y 247.982
G1 X 381.176 Y 248.414
G1 X 382.467 Y 249.099
G1 X 383.473 Y 249.966
G1 X 384.228 Y 250.947
G1 X 384.770 Y 251.969
G1 X 385.133 Y 252.963
G1 X 385.353 Y 253.859
G1 X 385.466 Y 254.585
G1 X 385.507 Y 255.073
G1 X 385.513 Y 255.251
G1 X 385.303 Y 255.251
G1 X 384.733 Y 255.251
G1 X 383.893 Y 255.251
G1 X 382.873 Y 255.251
G1 X 381.763 Y 255.251
G1 X 380.653 Y 255.251
G1 X 379.633 Y 255.251
G1 X 378.793 Y 255.251
G1 X 378.223 Y 255.251
G1 X 360.863 Y 252.786
G1 X 343.713 Y 251.810
G1 X 326.563 Y 252.786
G1 X 309.413 Y 255.251
G1 X 309.203 Y 255.251
G1 X 308.633 Y 255.251
G1 X 307.793 Y 255.251
G1 X 306.773 Y 255.251
G1 X 305.663 Y 255.251
G1 X 304.553 Y 255.251
G1 X 303.533 Y 255.251
G1 X 302.693 Y 255.251
G1 X 302.123 Y 255.251
F1000
G1 Z   3.000
G0 Z  15.000 
M9 M5

(* SHAPE Nr: 12 *)
G0 X 210.247 Y 238.584
M3 M8
G0 Z   3.000 
F1000
G1 Z  -1.000
F400
G1 X 210.253 Y 238.405
G1 X 210.294 Y 237.914
G1 X 210.407 Y 237.182
G1 X 210.627 Y 236.279
G1 X 210.990 Y 235.278
G1 X 211.532 Y 234.248
G1 X 212.287 Y 233.261
G1 X 213.293 Y 232.387
G1 X 214.584 Y 231.697
G1 X 216.197 Y 231.262
G1 X 216.197 Y 231.363
G1 X 216.197 Y 231.636
G1 X 216.197 Y 232.040
G1 X 216.197 Y 232.530
G1 X 216.197 Y 233.063
G1 X 216.197 Y 233.596
G1 X 216.197 Y 234.086
G1 X 216.197 Y 234.490
G1 X 216.197 Y 234.764
G1 X 219.297 Y 234.864
G1 X 219.297 Y 234.758
G1 X 219.297 Y 234.468
G1 X 219.297 Y 234.041
G1 X 219.297 Y 233.523
G1 X 219.297 Y 232.959
G1 X 219.297 Y 232.395
G1 X 219.297 Y 231.877
G1 X 219.297 Y 231.450
G1 X 219.297 Y 231.161
G1 X 219.297 Y 231.054
G1 X 220.394 Y 230.990
G1 X 221.697 Y 230.914
G1 X 223.153 Y 230.828
G1 X 224.712 Y 230.737
G1 X 226.322 Y 230.643
G1 X 227.932 Y 230.549
G1 X 229.490 Y 230.458
G1 X 230.947 Y 230.372
G1 X 232.249 Y 230.296
G1 X 233.347 Y 230.232
G1 X 233.347 Y 230.319
G1 X 233.347 Y 230.556
G1 X 233.347 Y 230.906
G1 X 233.347 Y 231.330
G1 X 233.347 Y 231.792
G1 X 233.347 Y 232.253
G1 X 233.347 Y 232.678
G1 X 233.347 Y 233.027
G1 X 233.347 Y 233.264
G1 X 236.447 Y 233.352
G1 X 236.447 Y 230.074
G1 X 250.497 Y 229.468
G1 X 250.497 Y 232.570
G1 X 253.597 Y 232.570
G1 X 253.597 Y 229.468
G1 X 267.647 Y 230.074
G1 X 267.647 Y 233.352
G1 X 270.747 Y 233.352
G1 X 270.747 Y 233.264
G1 X 270.747 Y 233.027
G1 X 270.747 Y 232.678
G1 X 270.747 Y 232.253
G1 X 270.747 Y 231.792
G1 X 270.747 Y 231.330
G1 X 270.747 Y 230.906
G1 X 270.747 Y 230.556
G1 X 270.747 Y 230.319
G1 X 270.747 Y 230.232
G1 X 271.844 Y 230.296
G1 X 273.147 Y 230.372
G1 X 274.603 Y 230.458
G1 X 276.162 Y 230.549
G1 X 277.772 Y 230.643
G1 X 279.382 Y 230.737
G1 X 280.941 Y 230.828
G1 X 282.397 Y 230.914
G1 X 283.699 Y 230.990
G1 X 284.797 Y 231.054
G1 X 284.797 Y 231.161
G1 X 284.797 Y 231.450
G1 X 284.797 Y 231.877
G1 X 284.797 Y 232.395
G1 X 284.797 Y 232.959
G1 X 284.797 Y 233.523
G1 X 284.797 Y 234.041
G1 X 284.797 Y 234.468
G1 X 284.797 Y 234.758
G1 X 287.897 Y 234.864
G1 X 287.897 Y 234.764
G1 X 287.897 Y 234.490
G1 X 287.897 Y 234.086
G1 X 287.897 Y 233.596
G1 X 287.897 Y 233.063
G1 X 287.897 Y 232.530
G1 X 287.897 Y 232.040
G1 X 287.897 Y 231.636
G1 X 287.897 Y 231.363
G1 X 287.897 Y 231.262
G1 X 289.509 Y 231.697
G1 X 290.800 Y 232.387
G1 X 291.806 Y 233.261
G1 X 292.562 Y 234.248
G1 X 293.103 Y 235.278
G1 X 293.466 Y 236.280
G1 X 293.686 Y 237.182
G1 X 293.799 Y 237.914
G1 X 293.841 Y 238.405
G1 X 293.847 Y 238.584
G1 X 293.637 Y 238.584
G1 X 293.067 Y 238.584
G1 X 292.227 Y 238.584
G1 X 291.207 Y 238.584
G1 X 290.097 Y 238.584
G1 X 288.987 Y 238.584
G1 X 287.967 Y 238.584
G1 X 287.127 Y 238.584
G1 X 286.557 Y 238.584
G1 X 269.197 Y 236.562
G1 X 252.047 Y 235.739
G1 X 234.897 Y 236.562
G1 X 217.747 Y 238.584
G1 X 217.537 Y 238.584
G1 X 216.967 Y 238.584
G1 X 216.127 Y 238.584
G1 X 215.107 Y 238.584
G1 X 213.997 Y 238.584
G1 X 212.887 Y 238.584
G1 X 211.867 Y 238.584
G1 X 211.027 Y 238.584
G1 X 210.457 Y 238.584
F1000
G1 Z   3.000
G0 Z  15.000 
M9 M5

(* SHAPE Nr: 13 *)
G0 X 301.913 Y 238.584
M3 M8
G0 Z   3.000 
F1000
G1 Z  -1.000
F400
G1 X 301.919 Y 238.373
G1 X 301.961 Y 237.793
G1 X 302.074 Y 236.929
G1 X 302.294 Y 235.865
G1 X 302.657 Y 234.683
G1 X 303.199 Y 233.468
G1 X 303.954 Y 232.303
G1 X 304.960 Y 231.272
G1 X 306.251 Y 230.458
G1 X 307.863 Y 229.944
G1 X 307.863 Y 230.063
G1 X 307.863 Y 230.386
G1 X 307.863 Y 230.862
G1 X 307.863 Y 231.441
G1 X 307.863 Y 232.070
G1 X 307.863 Y 232.699
G1 X 307.863 Y 233.277
G1 X 307.863 Y 233.753
G1 X 307.863 Y 234.076
G1 X 310.963 Y 234.195
G1 X 310.963 Y 234.071
G1 X 310.963 Y 233.732
G1 X 310.963 Y 233.234
G1 X 310.963 Y 232.629
G1 X 310.963 Y 231.970
G1 X 310.963 Y 231.311
G1 X 310.963 Y 230.706
G1 X 310.963 Y 230.208
G1 X 310.963 Y 229.869
G1 X 310.963 Y 229.745
G1 X 312.061 Y 229.701
G1 X 313.363 Y 229.650
G1 X 314.819 Y 229.592
G1 X 316.378 Y 229.530
G1 X 317.988 Y 229.466
G1 X 319.598 Y 229.403
G1 X 321.157 Y 229.341
G1 X 322.613 Y 229.283
G1 X 323.916 Y 229.232
G1 X 325.013 Y 229.188
G1 X 325.013 Y 229.292
G1 X 325.013 Y 229.574
G1 X 325.013 Y 229.990
G1 X 325.013 Y 230.495
G1 X 325.013 Y 231.044
G1 X 325.013 Y 231.593
G1 X 325.013 Y 232.098
G1 X 325.013 Y 232.514
G1 X 325.013 Y 232.796
G1 X 328.113 Y 232.900
G1 X 328.113 Y 229.087
G1 X 342.163 Y 228.727
G1 X 342.163 Y 232.222
G1 X 345.263 Y 232.222
G1 X 345.263 Y 228.727
G1 X 359.313 Y 229.087
G1 X 359.313 Y 232.900
G1 X 362.413 Y 232.900
G1 X 362.413 Y 232.796
G1 X 362.413 Y 232.514
G1 X 362.413 Y 232.098
G1 X 362.413 Y 231.593
G1 X 362.413 Y 231.044
G1 X 362.413 Y 230.495
G1 X 362.413 Y 229.990
G1 X 362.413 Y 229.574
G1 X 362.413 Y 229.292
G1 X 362.413 Y 229.188
G1 X 363.511 Y 229.232
G1 X 364.813 Y 229.283
G1 X 366.270 Y 229.341
G1 X 367.828 Y 229.403
G1 X 369.438 Y 229.466
G1 X 371.048 Y 229.530
G1 X 372.607 Y 229.592
G1 X 374.063 Y 229.650
G1 X 375.366 Y 229.701
G1 X 376.463 Y 229.745
G1 X 376.463 Y 229.869
G1 X 376.463 Y 230.208
G1 X 376.463 Y 230.706
G1 X 376.463 Y 231.311
G1 X 376.463 Y 231.970
G1 X 376.463 Y 232.629
G1 X 376.463 Y 233.234
G1 X 376.463 Y 233.732
G1 X 376.463 Y 234.071
G1 X 379.563 Y 234.195
G1 X 379.563 Y 234.076
G1 X 379.563 Y 233.753
G1 X 379.563 Y 233.277
G1 X 379.563 Y 232.699
G1 X 379.563 Y 232.070
G1 X 379.563 Y 231.441
G1 X 379.563 Y 230.862
G1 X 379.563 Y 230.386
G1 X 379.563 Y 230.063
G1 X 379.563 Y 229.944
G1 X 381.176 Y 230.458
G1 X 382.467 Y 231.272
G1 X 383.473 Y 232.303
G1 X 384.228 Y 233.468
G1 X 384.770 Y 234.683
G1 X 385.133 Y 235.865
G1 X 385.353 Y 236.929
G1 X 385.466 Y 237.793
G1 X 385.507 Y 238.373
G1 X 385.513 Y 238.584
G1 X 385.303 Y 238.584
G1 X 384.733 Y 238.584
G1 X 383.893 Y 238.584
G1 X 382.873 Y 238.584
G1 X 381.763 Y 238.584
G1 X 380.653 Y 238.584
G1 X 379.633 Y 238.584
G1 X 378.793 Y 238.584
G1 X 378.223 Y 238.584
G1 X 360.863 Y 236.672
G1 X 343.713 Y 235.756
G1 X 326.563 Y 236.672
G1 X 309.413 Y 238.584
G1 X 309.203 Y 238.584
G1 X 308.633 Y 238.584
G1 X 307.793 Y 238.584
G1 X 306.773 Y 238.584
G1 X 305.663 Y 238.584
G1 X 304.553 Y 238.584
G1 X 303.533 Y 238.584
G1 X 302.693 Y 238.584
G1 X 302.123 Y 238.584
F1000
G1 Z   3.000
G0 Z  15.000 
M9 M5

(* SHAPE Nr: 14 *)
G0 X 210.247 Y 221.918
M3 M8
G0 Z   3.000 
F1000
G1 Z  -1.000
F400
G1 X 210.253 Y 221.647
G1 X 210.294 Y 220.906
G1 X 210.407 Y 219.801
G1 X 210.627 Y 218.440
G1 X 210.990 Y 216.929
G1 X 211.532 Y 215.375
G1 X 212.287 Y 213.885
G1 X 213.293 Y 212.566
G1 X 214.584 Y 211.525
G1 X 216.197 Y 210.868
G1 X 216.197 Y 211.021
G1 X 216.197 Y 211.434
G1 X 216.197 Y 212.043
G1 X 216.197 Y 212.782
G1 X 216.197 Y 213.587
G1 X 216.197 Y 214.391
G1 X 216.197 Y 215.131
G1 X 216.197 Y 215.739
G1 X 216.197 Y 216.153
G1 X 219.297 Y 216.305
G1 X 219.297 Y 216.147
G1 X 219.297 Y 215.720
G1 X 219.297 Y 215.089
G1 X 219.297 Y 214.324
G1 X 219.297 Y 213.491
G1 X 219.297 Y 212.658
G1 X 219.297 Y 211.893
G1 X 219.297 Y 211.263
G1 X 219.297 Y 210.835
G1 X 219.297 Y 210.678
G1 X 220.394 Y 210.668
G1 X 221.697 Y 210.656
G1 X 223.153 Y 210.642
G1 X 224.712 Y 210.628
G1 X 226.322 Y 210.613
G1 X 227.932 Y 210.598
G1 X 229.490 Y 210.584
G1 X 230.947 Y 210.571
G1 X 232.249 Y 210.559
G1 X 233.347 Y 210.549
G1 X 233.347 Y 210.679
G1 X 233.347 Y 211.034
G1 X 233.347 Y 211.556
G1 X 233.347 Y 212.190
G1 X 233.347 Y 212.881
G1 X 233.347 Y 213.571
G1 X 233.347 Y 214.205
G1 X 233.347 Y 214.727
G1 X 233.347 Y 215.082
G1 X 236.447 Y 215.212
G1 X 236.447 Y 210.521
G1 X 250.497 Y 210.394
G1 X 250.497 Y 214.628
G1 X 253.597 Y 214.628
G1 X 253.597 Y 210.394
G1 X 267.647 Y 210.521
G1 X 267.647 Y 215.212
G1 X 270.747 Y 215.212
G1 X 270.747 Y 215.082
G1 X 270.747 Y 214.727
G1 X 270.747 Y 214.205
G1 X 270.747 Y 213.571
G1 X 270.747 Y 212.881
G1 X 270.747 Y 212.190
G1 X 270.747 Y 211.556
G1 X 270.747 Y 211.034
G1 X 270.747 Y 210.679
G1 X 270.747 Y 210.549
G1 X 271.844 Y 210.559
G1 X 273.147 Y 210.571
G1 X 274.603 Y 210.584
G1 X 276.162 Y 210.598
G1 X 277.772 Y 210.613
G1 X 279.382 Y 210.628
G1 X 280.941 Y 210.642
G1 X 282.397 Y 210.656
G1 X 283.699 Y 210.668
G1 X 284.797 Y 210.678
G1 X 284.797 Y 210.835
G1 X 284.797 Y 211.263
G1 X 284.797 Y 211.893
G1 X 284.797 Y 212.658
G1 X 284.797 Y 213.491
G1 X 284.797 Y 214.324
G1 X 284.797 Y 215.089
G1 X 284.797 Y 215.720
G1 X 284.797 Y 216.147
G1 X 287.897 Y 216.305
G1 X 287.897 Y 216.153
G1 X 287.897 Y 215.739
G1 X 287.897 Y 215.131
G1 X 287.897 Y 214.391
G1 X 287.897 Y 213.587
G1 X 287.897 Y 212.782
G1 X 287.897 Y 212.043
G1 X 287.897 Y 211.434
G1 X 287.897 Y 211.021
G1 X 287.897 Y 210.868
G1 X 289.509 Y 211.525
G1 X 290.800 Y 212.566
G1 X 291.806 Y 213.885
G1 X 292.562 Y 215.375
G1 X 293.103 Y 216.929
G1 X 293.466 Y 218.440
G1 X 293.686 Y 219.801
G1 X 293.799 Y 220.906
G1 X 293.841 Y 221.647
G1 X 293.847 Y 221.918
G1 X 293.637 Y 221.918
G1 X 293.067 Y 221.918
G1 X 292.227 Y 221.918
G1 X 291.207 Y 221.918
G1 X 290.097 Y 221.918
G1 X 288.987 Y 221.918
G1 X 287.967 Y 221.918
G1 X 287.127 Y 221.918
G1 X 286.557 Y 221.918
G1 X 269.197 Y 219.890
G1 X 252.047 Y 218.876
G1 X 234.897 Y 219.890
G1 X 217.747 Y 221.918
G1 X 217.537 Y 221.918
G1 X 216.967 Y 221.918
G1 X 216.127 Y 221.918
G1 X 215.107 Y 221.918
G1 X 213.997 Y 221.918
G1 X 212.887 Y 221.918
G1 X 211.867 Y 221.918
G1 X 211.027 Y 221.918
G1 X 210.457 Y 221.918
F1000
G1 Z   3.000
G0 Z  15.000 
M9 M5

(* SHAPE Nr: 15 *)
G0 X 301.913 Y 221.918
M3 M8
G0 Z   3.000 
F1000
G1 Z  -1.000
F400
G1 X 301.926 Y 221.583
G1 X 301.972 Y 220.676
G1 X 302.061 Y 219.339
G1 X 302.204 Y 217.716
G1 X 302.412 Y 215.949
G1 X 302.694 Y 214.183
G1 X 303.063 Y 212.559
G1 X 303.527 Y 211.223
G1 X 304.098 Y 210.315
G1 X 304.785 Y 209.981
G1 X 304.827 Y 208.175
G1 X 304.940 Y 203.272
G1 X 305.107 Y 196.047
G1 X 305.310 Y 187.273
G1 X 305.530 Y 177.725
G1 X 305.751 Y 168.177
G1 X 305.953 Y 159.403
G1 X 306.120 Y 152.178
G1 X 306.233 Y 147.275
G1 X 306.275 Y 145.469
G1 X 306.319 Y 145.469
G1 X 306.440 Y 145.469
G1 X 306.618 Y 145.469
G1 X 306.834 Y 145.469
G1 X 307.069 Y 145.469
G1 X 307.304 Y 145.469
G1 X 307.520 Y 145.469
G1 X 307.698 Y 145.469
G1 X 307.819 Y 145.469
G1 X 307.863 Y 183.693
G1 X 310.963 Y 183.693
G1 X 310.963 Y 145.469
G1 X 312.552 Y 145.469
G1 X 314.041 Y 209.981
G1 X 325.013 Y 209.503
G1 X 325.013 Y 214.446
G1 X 328.113 Y 214.446
G1 X 328.113 Y 209.478
G1 X 342.163 Y 209.860
G1 X 342.163 Y 214.259
G1 X 345.263 Y 214.259
G1 X 345.263 Y 209.860
G1 X 359.313 Y 209.478
G1 X 359.313 Y 214.446
G1 X 362.413 Y 214.446
G1 X 362.413 Y 209.503
G1 X 373.386 Y 209.981
G1 X 374.875 Y 145.469
G1 X 376.463 Y 145.469
G1 X 376.463 Y 183.693
G1 X 379.563 Y 183.693
G1 X 379.563 Y 145.469
G1 X 379.608 Y 145.469
G1 X 379.729 Y 145.469
G1 X 379.906 Y 145.469
G1 X 380.122 Y 145.469
G1 X 380.358 Y 145.469
G1 X 380.593 Y 145.469
G1 X 380.809 Y 145.469
G1 X 380.987 Y 145.469
G1 X 381.107 Y 145.469
G1 X 381.152 Y 145.469
G1 X 381.193 Y 147.275
G1 X 381.307 Y 152.178
G1 X 381.473 Y 159.403
G1 X 381.676 Y 168.177
G1 X 381.896 Y 177.725
G1 X 382.117 Y 187.273
G1 X 382.319 Y 196.047
G1 X 382.486 Y 203.272
G1 X 382.599 Y 208.175
G1 X 382.641 Y 209.981
G1 X 383.329 Y 210.315
G1 X 383.900 Y 211.223
G1 X 384.364 Y 212.560
G1 X 384.732 Y 214.183
G1 X 385.015 Y 215.949
G1 X 385.222 Y 217.716
G1 X 385.365 Y 219.339
